!!!COM: ゆず
!!!OTL: 雨のち晴レルヤ
**kern	**dynam	**kern	**dynam	**kern	**dynam	**kern	**dynam	**kern	**dynam	**kern	**dynam	**kern	**dynam	**kern	**dynam	**kern	**dynam
*part9	*part9	*part8	*part8	*part7	*part7	*part6	*part6	*part5	*part5	*part4	*part4	*part3	*part3	*part2	*part2	*part1	*part1
*staff9	*	*staff8	*	*staff7	*	*staff6	*	*staff5	*	*staff4	*	*staff3	*	*staff2	*	*staff1	*
*I"Harmonica	*	*I"Contrabass	*	*I"Guitar Ⅱ	*	*I"Guitar Ⅰ	*	*I"Mandoloncello	*	*I"Mandola	*	*I"Mandolin 2nd	*	*I"Mandolin 1st	*	*I"Lead Vocal	*
*I'Harm.	*	*I'Cb.	*	*I'Guit. Ⅱ	*	*I'Guit. Ⅰ	*	*I'Mncl.	*	*I'Mda.	*	*I'Mdn.	*	*I'Mdn.	*	*I'Pno.	*
*clefG2	*	*clefFv4	*	*clefGv2	*	*clefGv2	*	*clefF4	*	*clefGv2	*	*clefG2	*	*clefG2	*	*clefG2	*
*k[b-]	*	*k[b-]	*	*k[b-]	*	*k[b-]	*	*k[b-]	*	*k[b-]	*	*k[b-]	*	*k[b-]	*	*k[b-]	*
*M3/4	*	*M3/4	*	*M3/4	*	*M3/4	*	*M3/4	*	*M3/4	*	*M3/4	*	*M3/4	*	*M3/4	*
8ddL	f	4r	.	4r	.	4r	.	4r	.	8dL	f	4r	.	8ddL	f	4r	.
8eeJ	.	.	.	.	.	.	.	.	.	8eJ	.	.	.	8eeJ	.	.	.
=1	=1	=1	=1	=1	=1	=1	=1	=1	=1	=1	=1	=1	=1	=1	=1	=1	=1
*	*	*	*	*	*	*	*	*	*	*	*	*tremolo	*	*	*	*	*
4ff	.	8DD	mf	4D 4A 4c 4f 4a	mf	4D 4A 4c 4f 4a	mf	4D	mf	4f	.	[32aLLL	mp	4ff	.	2.r	.
.	.	.	.	.	.	.	.	.	.	.	.	[32a	.	.	.	.	.
.	.	.	.	.	.	.	.	.	.	.	.	[32a	.	.	.	.	.
.	.	.	.	.	.	.	.	.	.	.	.	[32a	.	.	.	.	.
.	.	8r	.	.	.	.	.	.	.	.	.	[32a	.	.	.	.	.
.	.	.	.	.	.	.	.	.	.	.	.	[32a	.	.	.	.	.
.	.	.	.	.	.	.	.	.	.	.	.	[32a	.	.	.	.	.
.	.	.	.	.	.	.	.	.	.	.	.	[32a	.	.	.	.	.
8r	.	8DD	.	8DL 8A 8c 8f 8a	.	8DL 8A 8c 8f 8a	.	4AA	.	8r	.	[32a	.	8r	.	.	.
.	.	.	.	.	.	.	.	.	.	.	.	[32a	.	.	.	.	.
.	.	.	.	.	.	.	.	.	.	.	.	[32a	.	.	.	.	.
.	.	.	.	.	.	.	.	.	.	.	.	[32a	.	.	.	.	.
8ff	.	8r	.	8DJ 8A 8c 8f 8a	.	8DJ 8A 8c 8f 8a	.	.	.	8f	.	[32a	.	8ff	.	.	.
.	.	.	.	.	.	.	.	.	.	.	.	[32a	.	.	.	.	.
.	.	.	.	.	.	.	.	.	.	.	.	[32a	.	.	.	.	.
.	.	.	.	.	.	.	.	.	.	.	.	[32a	.	.	.	.	.
8eeL	.	8DD	.	8DL 8A 8c 8f 8a	.	8DL 8A 8c 8f 8a	.	4D	.	8eL	.	[32a	.	8eeL	.	.	.
.	.	.	.	.	.	.	.	.	.	.	.	[32a	.	.	.	.	.
.	.	.	.	.	.	.	.	.	.	.	.	[32a	.	.	.	.	.
.	.	.	.	.	.	.	.	.	.	.	.	[32a	.	.	.	.	.
8ddJ	.	8r	.	8DJ 8A 8c 8f 8a	.	8DJ 8A 8c 8f 8a	.	.	.	8dJ	.	[32a	.	8ddJ	.	.	.
.	.	.	.	.	.	.	.	.	.	.	.	[32a	.	.	.	.	.
.	.	.	.	.	.	.	.	.	.	.	.	[32a	.	.	.	.	.
.	.	.	.	.	.	.	.	.	.	.	.	[32aJJJ	.	.	.	.	.
=2	=2	=2	=2	=2	=2	=2	=2	=2	=2	=2	=2	=2	=2	=2	=2	=2	=2
2cc	.	8AAA	.	4AA 4E 4G 4c 4e 4a	.	4AA 4E 4G 4c 4e 4a	.	4AA	.	2c	.	32a]LLL	.	2cc	.	2.r	.
.	.	.	.	.	.	.	.	.	.	.	.	32a]	.	.	.	.	.
.	.	.	.	.	.	.	.	.	.	.	.	32a]	.	.	.	.	.
.	.	.	.	.	.	.	.	.	.	.	.	32a]	.	.	.	.	.
.	.	8r	.	.	.	.	.	.	.	.	.	32a]	.	.	.	.	.
.	.	.	.	.	.	.	.	.	.	.	.	32a]	.	.	.	.	.
.	.	.	.	.	.	.	.	.	.	.	.	32a]	.	.	.	.	.
.	.	.	.	.	.	.	.	.	.	.	.	32a]	.	.	.	.	.
.	.	8AAA	.	8AAL 8E 8G 8c 8e 8a	.	8AAL 8E 8G 8c 8e 8a	.	4EE	.	.	.	32a]	.	.	.	.	.
.	.	.	.	.	.	.	.	.	.	.	.	32a]	.	.	.	.	.
.	.	.	.	.	.	.	.	.	.	.	.	32a]	.	.	.	.	.
.	.	.	.	.	.	.	.	.	.	.	.	32a]	.	.	.	.	.
.	.	8r	.	8AAJ 8E 8G 8c 8e 8a	.	8AAJ 8E 8G 8c 8e 8a	.	.	.	.	.	32a]	.	.	.	.	.
.	.	.	.	.	.	.	.	.	.	.	.	32a]	.	.	.	.	.
.	.	.	.	.	.	.	.	.	.	.	.	32a]	.	.	.	.	.
.	.	.	.	.	.	.	.	.	.	.	.	32a]	.	.	.	.	.
8aL	.	8AAA	.	8AAL 8E 8G 8c 8e 8a	.	8AAL 8E 8G 8c 8e 8a	.	4AA	.	8AL	.	32a]	.	8aL	.	.	.
.	.	.	.	.	.	.	.	.	.	.	.	32a]	.	.	.	.	.
.	.	.	.	.	.	.	.	.	.	.	.	32a]	.	.	.	.	.
.	.	.	.	.	.	.	.	.	.	.	.	32a]	.	.	.	.	.
8ccJ	.	8r	.	8AAJ 8E 8G 8c 8e 8a	.	8AAJ 8E 8G 8c 8e 8a	.	.	.	8cJ	.	32a]	.	8ccJ	.	.	.
.	.	.	.	.	.	.	.	.	.	.	.	32a]	.	.	.	.	.
.	.	.	.	.	.	.	.	.	.	.	.	32a]	.	.	.	.	.
.	.	.	.	.	.	.	.	.	.	.	.	32a]JJJ	.	.	.	.	.
=3	=3	=3	=3	=3	=3	=3	=3	=3	=3	=3	=3	=3	=3	=3	=3	=3	=3
4dd	.	8BBB-	.	4BB- 4F 4B- 4d 4f 4b-	.	4BB- 4F 4B- 4d 4f 4b-	.	4BB-	.	4d	.	32b-LLL	.	4dd	.	2.r	.
.	.	.	.	.	.	.	.	.	.	.	.	32b-	.	.	.	.	.
.	.	.	.	.	.	.	.	.	.	.	.	32b-	.	.	.	.	.
.	.	.	.	.	.	.	.	.	.	.	.	32b-	.	.	.	.	.
.	.	8r	.	.	.	.	.	.	.	.	.	32b-	.	.	.	.	.
.	.	.	.	.	.	.	.	.	.	.	.	32b-	.	.	.	.	.
.	.	.	.	.	.	.	.	.	.	.	.	32b-	.	.	.	.	.
.	.	.	.	.	.	.	.	.	.	.	.	32b-	.	.	.	.	.
4cc	.	8BBB-	.	8BB-L 8F 8B- 8d 8f 8b-	.	8BB-L 8F 8B- 8d 8f 8b-	.	4D	.	4c	.	32b-	.	4cc	.	.	.
.	.	.	.	.	.	.	.	.	.	.	.	32b-	.	.	.	.	.
.	.	.	.	.	.	.	.	.	.	.	.	32b-	.	.	.	.	.
.	.	.	.	.	.	.	.	.	.	.	.	32b-	.	.	.	.	.
.	.	8r	.	8BB-J 8F 8B- 8d 8f 8b-	.	8BB-J 8F 8B- 8d 8f 8b-	.	.	.	.	.	32b-	.	.	.	.	.
.	.	.	.	.	.	.	.	.	.	.	.	32b-	.	.	.	.	.
.	.	.	.	.	.	.	.	.	.	.	.	32b-	.	.	.	.	.
.	.	.	.	.	.	.	.	.	.	.	.	32b-	.	.	.	.	.
4b-	.	8BBB-	.	8BB-L 8F 8B- 8d 8f 8b-	.	8BB-L 8F 8B- 8d 8f 8b-	.	4BB-	.	4B-	.	32b-	.	4b-	.	.	.
.	.	.	.	.	.	.	.	.	.	.	.	32b-	.	.	.	.	.
.	.	.	.	.	.	.	.	.	.	.	.	32b-	.	.	.	.	.
.	.	.	.	.	.	.	.	.	.	.	.	32b-	.	.	.	.	.
.	.	8r	.	8BB-J 8F 8B- 8d 8f 8b-	.	8BB-J 8F 8B- 8d 8f 8b-	.	.	.	.	.	32b-	.	.	.	.	.
.	.	.	.	.	.	.	.	.	.	.	.	32b-	.	.	.	.	.
.	.	.	.	.	.	.	.	.	.	.	.	32b-	.	.	.	.	.
.	.	.	.	.	.	.	.	.	.	.	.	32b-JJJ	.	.	.	.	.
=4	=4	=4	=4	=4	=4	=4	=4	=4	=4	=4	=4	=4	=4	=4	=4	=4	=4
4cc	.	8AAA	.	4F 4A 4c 4f 4a	.	4F 4c 4f 4a	.	4AA	.	4c	.	32aLLL	.	4cc	.	2.r	.
.	.	.	.	.	.	.	.	.	.	.	.	32a	.	.	.	.	.
.	.	.	.	.	.	.	.	.	.	.	.	32a	.	.	.	.	.
.	.	.	.	.	.	.	.	.	.	.	.	32a	.	.	.	.	.
.	.	8r	.	.	.	.	.	.	.	.	.	32a	.	.	.	.	.
.	.	.	.	.	.	.	.	.	.	.	.	32a	.	.	.	.	.
.	.	.	.	.	.	.	.	.	.	.	.	32a	.	.	.	.	.
.	.	.	.	.	.	.	.	.	.	.	.	32a	.	.	.	.	.
4r	.	8AAA	.	8FL 8A 8c 8f 8a	.	8FL 8c 8f 8a	.	4C	.	4r	.	32a	.	4r	.	.	.
.	.	.	.	.	.	.	.	.	.	.	.	32a	.	.	.	.	.
.	.	.	.	.	.	.	.	.	.	.	.	32a	.	.	.	.	.
.	.	.	.	.	.	.	.	.	.	.	.	32a	.	.	.	.	.
.	.	8r	.	8FJ 8A 8c 8f 8a	.	8FJ 8c 8f 8a	.	.	.	.	.	32a	.	.	.	.	.
.	.	.	.	.	.	.	.	.	.	.	.	32a	.	.	.	.	.
.	.	.	.	.	.	.	.	.	.	.	.	32a	.	.	.	.	.
.	.	.	.	.	.	.	.	.	.	.	.	32a	.	.	.	.	.
8fL	.	8AAA	.	8FL 8A 8c 8f 8a	.	8FL 8c 8f 8a	.	4F	.	8FL	.	32a	.	8fL	.	.	.
.	.	.	.	.	.	.	.	.	.	.	.	32a	.	.	.	.	.
.	.	.	.	.	.	.	.	.	.	.	.	32a	.	.	.	.	.
.	.	.	.	.	.	.	.	.	.	.	.	32a	.	.	.	.	.
8gJ	.	8r	.	8FJ 8A 8c 8f 8a	.	8FJ 8c 8f 8a	.	.	.	8GJ	.	32a	.	8gJ	.	.	.
.	.	.	.	.	.	.	.	.	.	.	.	32a	.	.	.	.	.
.	.	.	.	.	.	.	.	.	.	.	.	32a	.	.	.	.	.
.	.	.	.	.	.	.	.	.	.	.	.	32aJJJ	.	.	.	.	.
=5	=5	=5	=5	=5	=5	=5	=5	=5	=5	=5	=5	=5	=5	=5	=5	=5	=5
4a	.	8GGG	.	4G 4d 4f 4b-	.	4GG 4D 4F 4B- 4d 4g	.	4GG	.	4A	.	32gLLL	.	4a	.	2.r	.
.	.	.	.	.	.	.	.	.	.	.	.	32g	.	.	.	.	.
.	.	.	.	.	.	.	.	.	.	.	.	32g	.	.	.	.	.
.	.	.	.	.	.	.	.	.	.	.	.	32g	.	.	.	.	.
.	.	8r	.	.	.	.	.	.	.	.	.	32g	.	.	.	.	.
.	.	.	.	.	.	.	.	.	.	.	.	32g	.	.	.	.	.
.	.	.	.	.	.	.	.	.	.	.	.	32g	.	.	.	.	.
.	.	.	.	.	.	.	.	.	.	.	.	32g	.	.	.	.	.
8r	.	8GGG	.	8GL 8d 8f 8b-	.	8GGL 8D 8F 8B- 8d 8g	.	4DD	.	8r	.	32g	.	8r	.	.	.
.	.	.	.	.	.	.	.	.	.	.	.	32g	.	.	.	.	.
.	.	.	.	.	.	.	.	.	.	.	.	32g	.	.	.	.	.
.	.	.	.	.	.	.	.	.	.	.	.	32g	.	.	.	.	.
8a	.	8r	.	8GJ 8d 8f 8b-	.	8GGJ 8D 8F 8B- 8d 8g	.	.	.	8A	.	32g	.	8a	.	.	.
.	.	.	.	.	.	.	.	.	.	.	.	32g	.	.	.	.	.
.	.	.	.	.	.	.	.	.	.	.	.	32g	.	.	.	.	.
.	.	.	.	.	.	.	.	.	.	.	.	32g	.	.	.	.	.
8gL	.	8GGG	.	8GL 8d 8f 8b-	.	8GGL 8D 8F 8B- 8d 8g	.	4GG	.	8GL	.	32g	.	8gL	.	.	.
.	.	.	.	.	.	.	.	.	.	.	.	32g	.	.	.	.	.
.	.	.	.	.	.	.	.	.	.	.	.	32g	.	.	.	.	.
.	.	.	.	.	.	.	.	.	.	.	.	32g	.	.	.	.	.
8fJ	.	8r	.	8GJ 8d 8f 8b-	.	8GGJ 8D 8F 8B- 8d 8g	.	.	.	8FJ	.	32g	.	8fJ	.	.	.
.	.	.	.	.	.	.	.	.	.	.	.	32g	.	.	.	.	.
.	.	.	.	.	.	.	.	.	.	.	.	32g	.	.	.	.	.
.	.	.	.	.	.	.	.	.	.	.	.	32gJJJ	.	.	.	.	.
=6	=6	=6	=6	=6	=6	=6	=6	=6	=6	=6	=6	=6	=6	=6	=6	=6	=6
8gL	.	8AAA	.	4AA 4E 4G 4c 4e 4a	.	4AA 4E 4G 4c 4e 4a	.	4AA	.	8GL	.	32aLLL	.	8gL	.	2.r	.
.	.	.	.	.	.	.	.	.	.	.	.	32a	.	.	.	.	.
.	.	.	.	.	.	.	.	.	.	.	.	32a	.	.	.	.	.
.	.	.	.	.	.	.	.	.	.	.	.	32a	.	.	.	.	.
[8ccJ	.	8r	.	.	.	.	.	.	.	[8cJ	.	32a	.	[8ccJ	.	.	.
.	.	.	.	.	.	.	.	.	.	.	.	32a	.	.	.	.	.
.	.	.	.	.	.	.	.	.	.	.	.	32a	.	.	.	.	.
.	.	.	.	.	.	.	.	.	.	.	.	32a	.	.	.	.	.
4cc]	.	8AAA	.	8AAL 8E 8G 8c 8e 8a	.	8AAL 8E 8G 8c 8e 8a	.	4EE	.	4c]	.	32a	.	4cc]	.	.	.
.	.	.	.	.	.	.	.	.	.	.	.	32a	.	.	.	.	.
.	.	.	.	.	.	.	.	.	.	.	.	32a	.	.	.	.	.
.	.	.	.	.	.	.	.	.	.	.	.	32a	.	.	.	.	.
.	.	8r	.	8AAJ 8E 8G 8c 8e 8a	.	8AAJ 8E 8G 8c 8e 8a	.	.	.	.	.	32a	.	.	.	.	.
.	.	.	.	.	.	.	.	.	.	.	.	32a	.	.	.	.	.
.	.	.	.	.	.	.	.	.	.	.	.	32a	.	.	.	.	.
.	.	.	.	.	.	.	.	.	.	.	.	32a	.	.	.	.	.
8ddL	.	8AAA	.	8AAL 8E 8G 8c 8e 8a	.	8AAL 8E 8G 8c 8e 8a	.	4AA	.	8dL	.	32a	.	8ddL	.	.	.
.	.	.	.	.	.	.	.	.	.	.	.	32a	.	.	.	.	.
.	.	.	.	.	.	.	.	.	.	.	.	32a	.	.	.	.	.
.	.	.	.	.	.	.	.	.	.	.	.	32a	.	.	.	.	.
8eeJ	.	8r	.	8AAJ 8E 8G 8c 8e 8a	.	8AAJ 8E 8G 8c 8e 8a	.	.	.	8eJ	.	32a	.	8eeJ	.	.	.
.	.	.	.	.	.	.	.	.	.	.	.	32a	.	.	.	.	.
.	.	.	.	.	.	.	.	.	.	.	.	32a	.	.	.	.	.
.	.	.	.	.	.	.	.	.	.	.	.	32aJJJ	.	.	.	.	.
=7	=7	=7	=7	=7	=7	=7	=7	=7	=7	=7	=7	=7	=7	=7	=7	=7	=7
8ffL	.	8BBB-	.	4BB- 4F 4B- 4d 4f 4b-	.	4BB- 4F 4B- 4d 4f 4b-	.	4BB-	.	8fL	.	32b- 32ddLLL	.	8ffL	.	2.r	.
.	.	.	.	.	.	.	.	.	.	.	.	32b- 32dd	.	.	.	.	.
.	.	.	.	.	.	.	.	.	.	.	.	32b- 32dd	.	.	.	.	.
.	.	.	.	.	.	.	.	.	.	.	.	32b- 32dd	.	.	.	.	.
[8ddJ	.	8r	.	.	.	.	.	.	.	[8dJ	.	32b- 32dd	.	[8ddJ	.	.	.
.	.	.	.	.	.	.	.	.	.	.	.	32b- 32dd	.	.	.	.	.
.	.	.	.	.	.	.	.	.	.	.	.	32b- 32dd	.	.	.	.	.
.	.	.	.	.	.	.	.	.	.	.	.	32b- 32dd	.	.	.	.	.
2dd_	.	8BBB-	.	8BB-L 8F 8B- 8d 8f 8b-	.	8BB-L 8F 8B- 8d 8f 8b-	.	4FF	.	2d_	.	32b- 32dd	.	2dd_	.	.	.
.	.	.	.	.	.	.	.	.	.	.	.	32b- 32dd	.	.	.	.	.
.	.	.	.	.	.	.	.	.	.	.	.	32b- 32dd	.	.	.	.	.
.	.	.	.	.	.	.	.	.	.	.	.	32b- 32dd	.	.	.	.	.
.	.	8r	.	8BB-J 8F 8B- 8d 8f 8b-	.	8BB-J 8F 8B- 8d 8f 8b-	.	.	.	.	.	32b- 32dd	.	.	.	.	.
.	.	.	.	.	.	.	.	.	.	.	.	32b- 32dd	.	.	.	.	.
.	.	.	.	.	.	.	.	.	.	.	.	32b- 32dd	.	.	.	.	.
.	.	.	.	.	.	.	.	.	.	.	.	32b- 32dd	.	.	.	.	.
.	.	8BBB-	.	8BB-L 8F 8B- 8d 8f 8b-	.	8BB-L 8F 8B- 8d 8f 8b-	.	4BB-	.	.	.	32b- 32dd	.	.	.	.	.
.	.	.	.	.	.	.	.	.	.	.	.	32b- 32dd	.	.	.	.	.
.	.	.	.	.	.	.	.	.	.	.	.	32b- 32dd	.	.	.	.	.
.	.	.	.	.	.	.	.	.	.	.	.	32b- 32dd	.	.	.	.	.
.	.	8r	.	8BB-J 8F 8B- 8d 8f 8b-	.	8BB-J 8F 8B- 8d 8f 8b-	.	.	.	.	.	32b- 32dd	.	.	.	.	.
.	.	.	.	.	.	.	.	.	.	.	.	32b- 32dd	.	.	.	.	.
.	.	.	.	.	.	.	.	.	.	.	.	32b- 32dd	.	.	.	.	.
.	.	.	.	.	.	.	.	.	.	.	.	32b- 32ddJJJ	.	.	.	.	.
=8	=8	=8	=8	=8	=8	=8	=8	=8	=8	=8	=8	=8	=8	=8	=8	=8	=8
4dd]	.	8BBB-	.	4BB- 4F 4B- 4d-X 4f 4b-	.	4BB- 4F 4B- 4d-X 4f 4b-	.	4BB-	.	4d]	.	32b- 32dd-XLLL	.	4dd]	.	2.r	.
.	.	.	.	.	.	.	.	.	.	.	.	32b- 32dd-X	.	.	.	.	.
.	.	.	.	.	.	.	.	.	.	.	.	32b- 32dd-X	.	.	.	.	.
.	.	.	.	.	.	.	.	.	.	.	.	32b- 32dd-X	.	.	.	.	.
.	.	8r	.	.	.	.	.	.	.	.	.	32b- 32dd-X	.	.	.	.	.
.	.	.	.	.	.	.	.	.	.	.	.	32b- 32dd-X	.	.	.	.	.
.	.	.	.	.	.	.	.	.	.	.	.	32b- 32dd-X	.	.	.	.	.
.	.	.	.	.	.	.	.	.	.	.	.	32b- 32dd-X	.	.	.	.	.
8r	.	8BBB-	.	8BB-L 8F 8B- 8d- 8f 8b-	.	8BB-L 8F 8B- 8d- 8f 8b-	.	4FF	.	8r	.	32b- 32dd-X	.	8r	.	.	.
.	.	.	.	.	.	.	.	.	.	.	.	32b- 32dd-X	.	.	.	.	.
.	.	.	.	.	.	.	.	.	.	.	.	32b- 32dd-X	.	.	.	.	.
.	.	.	.	.	.	.	.	.	.	.	.	32b- 32dd-X	.	.	.	.	.
8dd-X	.	8r	.	8BB-J 8F 8B- 8d- 8f 8b-	.	8BB-J 8F 8B- 8d- 8f 8b-	.	.	.	8d-X	.	32b- 32dd-X	.	8dd-X	.	.	.
.	.	.	.	.	.	.	.	.	.	.	.	32b- 32dd-X	.	.	.	.	.
.	.	.	.	.	.	.	.	.	.	.	.	32b- 32dd-X	.	.	.	.	.
.	.	.	.	.	.	.	.	.	.	.	.	32b- 32dd-X	.	.	.	.	.
8ffL	.	8BBB-	.	8BB-L 8F 8B- 8d- 8f 8b-	.	8BB-L 8F 8B- 8d- 8f 8b-	.	4BB-	.	8fL	.	32b- 32dd-X	.	8ffL	.	.	.
.	.	.	.	.	.	.	.	.	.	.	.	32b- 32dd-X	.	.	.	.	.
.	.	.	.	.	.	.	.	.	.	.	.	32b- 32dd-X	.	.	.	.	.
.	.	.	.	.	.	.	.	.	.	.	.	32b- 32dd-X	.	.	.	.	.
8eeJ	.	8r	.	8BB-J 8F 8B- 8d- 8f 8b-	.	8BB-J 8F 8B- 8d- 8f 8b-	.	.	.	8eJ	.	32b- 32dd-X	.	8eeJ	.	.	.
.	.	.	.	.	.	.	.	.	.	.	.	32b- 32dd-X	.	.	.	.	.
.	.	.	.	.	.	.	.	.	.	.	.	32b- 32dd-X	.	.	.	.	.
.	.	.	.	.	.	.	.	.	.	.	.	32b- 32dd-XJJJ	.	.	.	.	.
=9	=9	=9	=9	=9	=9	=9	=9	=9	=9	=9	=9	=9	=9	=9	=9	=9	=9
[2.ff	.	8FFF	.	4F 4A 4c 4f 4a	.	4F 4c 4f 4a	.	2A	.	2.f	.	[32aLLL	.	[2.ff	.	2.r	.
.	.	.	.	.	.	.	.	.	.	.	.	[32a	.	.	.	.	.
.	.	.	.	.	.	.	.	.	.	.	.	[32a	.	.	.	.	.
.	.	.	.	.	.	.	.	.	.	.	.	[32a	.	.	.	.	.
.	.	8r	.	.	.	.	.	.	.	.	.	[32a	.	.	.	.	.
.	.	.	.	.	.	.	.	.	.	.	.	[32a	.	.	.	.	.
.	.	.	.	.	.	.	.	.	.	.	.	[32a	.	.	.	.	.
.	.	.	.	.	.	.	.	.	.	.	.	[32a	.	.	.	.	.
.	.	8FFF	.	8FL 8A 8c 8f 8a	.	8FL 8c 8f 8a	.	.	.	.	.	[32a	.	.	.	.	.
.	.	.	.	.	.	.	.	.	.	.	.	[32a	.	.	.	.	.
.	.	.	.	.	.	.	.	.	.	.	.	[32a	.	.	.	.	.
.	.	.	.	.	.	.	.	.	.	.	.	[32a	.	.	.	.	.
.	.	8r	.	8FJ 8A 8c 8f 8a	.	8FJ 8c 8f 8a	.	.	.	.	.	[32a	.	.	.	.	.
.	.	.	.	.	.	.	.	.	.	.	.	[32a	.	.	.	.	.
.	.	.	.	.	.	.	.	.	.	.	.	[32a	.	.	.	.	.
.	.	.	.	.	.	.	.	.	.	.	.	[32a	.	.	.	.	.
.	.	8FFF	.	4F 4B- 4c 4f 4b-	.	4F 4c 4f 4b-	.	4B-	.	.	.	[32a	.	.	.	.	.
.	.	.	.	.	.	.	.	.	.	.	.	[32a	.	.	.	.	.
.	.	.	.	.	.	.	.	.	.	.	.	[32a	.	.	.	.	.
.	.	.	.	.	.	.	.	.	.	.	.	[32a	.	.	.	.	.
.	.	8r	.	.	.	.	.	.	.	.	.	[32a	.	.	.	.	.
.	.	.	.	.	.	.	.	.	.	.	.	[32a	.	.	.	.	.
.	.	.	.	.	.	.	.	.	.	.	.	[32a	.	.	.	.	.
.	.	.	.	.	.	.	.	.	.	.	.	[32aJJJ	.	.	.	.	.
=10	=10	=10	=10	=10	=10	=10	=10	=10	=10	=10	=10	=10	=10	=10	=10	=10	=10
2ff]	.	8FFF	.	2.F 2.A 2.c 2.f 2.a	.	2.F 2.c 2.f 2.a	.	2A	.	2r	.	32a]LLL	.	2ff]	.	2r	.
.	.	.	.	.	.	.	.	.	.	.	.	32a]	.	.	.	.	.
.	.	.	.	.	.	.	.	.	.	.	.	32a]	.	.	.	.	.
.	.	.	.	.	.	.	.	.	.	.	.	32a]	.	.	.	.	.
.	.	8r	.	.	.	.	.	.	.	.	.	32a]	.	.	.	.	.
.	.	.	.	.	.	.	.	.	.	.	.	32a]	.	.	.	.	.
.	.	.	.	.	.	.	.	.	.	.	.	32a]	.	.	.	.	.
.	.	.	.	.	.	.	.	.	.	.	.	32a]	.	.	.	.	.
.	.	8FFF	.	.	.	.	.	.	.	.	.	32a]	.	.	.	.	.
.	.	.	.	.	.	.	.	.	.	.	.	32a]	.	.	.	.	.
.	.	.	.	.	.	.	.	.	.	.	.	32a]	.	.	.	.	.
.	.	.	.	.	.	.	.	.	.	.	.	32a]	.	.	.	.	.
.	.	8r	.	.	.	.	.	.	.	.	.	32a]	.	.	.	.	.
.	.	.	.	.	.	.	.	.	.	.	.	32a]	.	.	.	.	.
.	.	.	.	.	.	.	.	.	.	.	.	32a]	.	.	.	.	.
.	.	.	.	.	.	.	.	.	.	.	.	32a]JJJ	.	.	.	.	.
4r	.	8FFF	.	.	.	.	.	8r	.	8r	.	4r	.	4r	.	8r	.
.	.	8r	.	.	.	.	.	8A	mp	8F	mf	.	.	.	.	8F	mf
=11	=11	=11	=11	=11	=11	=11	=11	=11	=11	=11	=11	=11	=11	=11	=11	=11	=11
2.r	.	2.r	.	4F 4A 4c 4f 4a	mp	4F 4c 4f 4a	mp	8c	.	8A	.	2.r	.	2.r	.	8A	.
.	.	.	.	.	.	.	.	4.f	.	4.c	.	.	.	.	.	4.c	.
.	.	.	.	4A	.	4F	.	.	.	.	.	.	.	.	.	.	.
.	.	.	.	4c 4f	.	4c 4f	.	8r	.	8r	.	.	.	.	.	8r	.
.	.	.	.	.	.	.	.	8c	.	8A	.	.	.	.	.	8A	.
=12	=12	=12	=12	=12	=12	=12	=12	=12	=12	=12	=12	=12	=12	=12	=12	=12	=12
2.r	.	2.r	.	4AA 4E 4G 4c 4e 4a	.	4AA 4E 4G 4c 4e 4a	.	8c	.	8G	.	2.r	.	2.r	.	8G	.
.	.	.	.	.	.	.	.	4.e	.	4.c	.	.	.	.	.	4.c	.
.	.	.	.	4c	.	4c	.	.	.	.	.	.	.	.	.	.	.
.	.	.	.	4e	.	4e	.	8r	.	8r	.	.	.	.	.	8r	.
.	.	.	.	.	.	.	.	8G	.	8G	.	.	.	.	.	8G	.
=13	=13	=13	=13	=13	=13	=13	=13	=13	=13	=13	=13	=13	=13	=13	=13	=13	=13
2.r	.	2.r	.	4D 4A 4c 4f 4a	.	4D 4A 4c 4f 4a	.	4F	.	4F	.	2.r	.	2.r	.	4F	.
.	.	.	.	4f	.	4f	.	4A	.	4A	.	.	.	.	.	4A	.
.	.	.	.	4a	.	4a	.	8FL	.	8FL	.	.	.	.	.	8FL	.
.	.	.	.	.	.	.	.	8FJ	.	8FJ	.	.	.	.	.	8FJ	.
=14	=14	=14	=14	=14	=14	=14	=14	=14	=14	=14	=14	=14	=14	=14	=14	=14	=14
2.r	.	2.r	.	4AA 4E 4G 4c 4e 4a	.	4AA 4E 4G 4c 4e 4a	.	8E	.	8E	.	2.r	.	2.r	.	8E	.
.	.	.	.	.	.	.	.	4.A	.	4.A	.	.	.	.	.	4.A	.
.	.	.	.	4e	.	4e	.	.	.	.	.	.	.	.	.	.	.
.	.	.	.	4c	.	4c	.	4r	.	4r	.	.	.	.	.	4r	.
=15	=15	=15	=15	=15	=15	=15	=15	=15	=15	=15	=15	=15	=15	=15	=15	=15	=15
2.r	.	2.r	.	4BB- 4F 4B- 4d 4f 4b-	.	4BB- 4F 4B- 4d 4f 4b-	.	4D	.	4D	.	2.r	.	2.r	.	4D	.
.	.	.	.	4f	.	4f	.	4F	.	4F	.	.	.	.	.	4F	.
.	.	.	.	4d	.	4d	.	4d	.	4d	.	.	.	.	.	4d	.
=16	=16	=16	=16	=16	=16	=16	=16	=16	=16	=16	=16	=16	=16	=16	=16	=16	=16
2.r	.	2.r	.	4AA 4E 4G 4c 4e 4a	.	4AA 4E 4G 4c 4e 4a	.	4c	.	4c	.	2.r	.	2.r	.	4c	.
.	.	.	.	4c	.	4c	.	4A	.	4A	.	.	.	.	.	4A	.
.	.	.	.	4e	.	4e	.	8GL	.	8GL	.	.	.	.	.	8GL	.
.	.	.	.	.	.	.	.	8FJ	.	8FJ	.	.	.	.	.	8FJ	.
=17	=17	=17	=17	=17	=17	=17	=17	=17	=17	=17	=17	=17	=17	=17	=17	=17	=17
2.r	.	2.r	.	4G 4d 4f 4b-	.	4GG 4D 4F 4B- 4d 4g	.	4.G	.	4.G	.	2.r	.	2.r	.	4.G	.
.	.	.	.	4G	.	4G	.	.	.	.	.	.	.	.	.	.	.
.	.	.	.	.	.	.	.	8G	.	8G	.	.	.	.	.	8G	.
.	.	.	.	4d	.	4d	.	8DL	.	8DL	.	.	.	.	.	8DL	.
.	.	.	.	.	.	.	.	8FJ	.	8FJ	.	.	.	.	.	8FJ	.
=18	=18	=18	=18	=18	=18	=18	=18	=18	=18	=18	=18	=18	=18	=18	=18	=18	=18
2.r	.	2.r	.	4C 4E 4G 4c 4e 4cc	.	4C 4G 4c 4e 4g	.	2G	.	2G	.	2.r	.	2.r	.	2G	.
.	.	.	.	4f	.	4f	.	.	.	.	.	.	.	.	.	.	.
.	.	.	.	4e	.	4e	.	8r	.	8r	.	.	.	.	.	8r	.
.	.	.	.	.	.	.	.	8E	.	8F	.	.	.	.	.	8F	.
=19	=19	=19	=19	=19	=19	=19	=19	=19	=19	=19	=19	=19	=19	=19	=19	=19	=19
2.r	.	4FFF	mp	4F 4A 4c 4f 4a	mp	4F 4c 4f 4a	.	8c	.	8A	.	4r	mp	2.r	.	8A	.
.	.	.	.	.	.	.	.	4.f	.	4.c	.	.	.	.	.	4.c	.
.	.	4r	.	4f	.	8FL 8c 8f 8a	.	.	.	.	.	4aau 4ccc	.	.	.	.	.
.	.	.	.	.	.	8FJ 8c 8f 8a	.	.	.	.	.	.	.	.	.	.	.
.	.	4FFF	.	4c	.	4F 4c 4f 4a	.	8r	.	8r	.	4r	.	.	.	8r	.
.	.	.	.	.	.	.	.	8c	.	8A	.	.	.	.	.	8A	.
=20	=20	=20	=20	=20	=20	=20	=20	=20	=20	=20	=20	=20	=20	=20	=20	=20	=20
2.r	.	4AAA	.	4AA 4E 4G 4c 4e 4a	.	4AA 4E 4G 4c 4e 4a	.	8c	.	8G	.	4r	.	2.r	.	8G	.
.	.	.	.	.	.	.	.	4.e	.	4.c	.	.	.	.	.	4.c	.
.	.	4r	.	4e	.	8AAL 8E 8G 8c 8e 8a	.	.	.	.	.	4ggu 4ccc	.	.	.	.	.
.	.	.	.	.	.	8AAJ 8E 8G 8c 8e 8a	.	.	.	.	.	.	.	.	.	.	.
.	.	4AAA	.	4c	.	4AA 4E 4G 4c 4e 4a	.	8r	.	8r	.	4r	.	.	.	8r	.
.	.	.	.	.	.	.	.	8B-	.	8G	.	.	.	.	.	8G	.
=21	=21	=21	=21	=21	=21	=21	=21	=21	=21	=21	=21	=21	=21	=21	=21	=21	=21
2.r	.	4DD	.	4D 4A 4c 4f 4a	.	4D 4A 4c 4f 4a	.	8A	.	8F	.	4r	.	2.r	.	8F	.
.	.	.	.	.	.	.	.	4.d	.	4.A	.	.	.	.	.	4.A	.
.	.	4r	.	4f	.	8DL 8A 8c 8f 8a	.	.	.	.	.	4aau 4ddd	.	.	.	.	.
.	.	.	.	.	.	8DJ 8A 8c 8f 8a	.	.	.	.	.	.	.	.	.	.	.
.	.	4DD	.	4a	.	4D 4A 4c 4f 4a	.	8r	.	8r	.	4r	.	.	.	8r	.
.	.	.	.	.	.	.	.	8A	.	8F	.	.	.	.	.	8F	.
=22	=22	=22	=22	=22	=22	=22	=22	=22	=22	=22	=22	=22	=22	=22	=22	=22	=22
2.r	.	4AAA	.	4AA 4E 4G 4c 4e 4a	.	4AA 4E 4G 4c 4e 4a	.	8A	.	8E	.	4r	.	2.r	.	8E	.
.	.	.	.	.	.	.	.	4.c	.	4.A	.	.	.	.	.	4.A	.
.	.	4r	.	4e	.	8AAL 8E 8G 8c 8e 8a	.	.	.	.	.	4aau 4ccc	.	.	.	.	.
.	.	.	.	.	.	8AAJ 8E 8G 8c 8e 8a	.	.	.	.	.	.	.	.	.	.	.
.	.	4AAA	.	4c	.	4AA 4E 4G 4c 4e 4a	.	4r	.	4r	.	4r	.	.	.	4r	.
=23	=23	=23	=23	=23	=23	=23	=23	=23	=23	=23	=23	=23	=23	=23	=23	=23	=23
2.r	.	4BBB-	.	4BB- 4F 4B- 4d 4f 4b-	.	4BB- 4F 4B- 4d 4f 4b-	.	2.r	.	4D	.	4f	.	2.r	.	4D	.
.	.	4r	.	4f	.	8BB-L 8F 8B- 8d 8f 8b-	.	.	.	4F	.	4a	.	.	.	4F	.
.	.	.	.	.	.	8BB-J 8F 8B- 8d 8f 8b-	.	.	.	.	.	.	.	.	.	.	.
.	.	4BBB-	.	4d	.	4BB- 4F 4B- 4d 4f 4b-	.	.	.	4d	.	4ff	.	.	.	4d	.
=24	=24	=24	=24	=24	=24	=24	=24	=24	=24	=24	=24	=24	=24	=24	=24	=24	=24
2.r	.	4AAA	.	4AA 4E 4G 4c 4e 4a	.	4AA 4E 4G 4c 4e 4a	.	2.r	.	4.c	.	4.ee	.	2.r	.	4.c	.
.	.	4r	.	4e	.	8AAL 8E 8G 8c 8e 8a	.	.	.	.	.	.	.	.	.	.	.
.	.	.	.	.	.	8AAJ 8E 8G 8c 8e 8a	.	.	.	8d	.	8ff	.	.	.	8d	.
.	.	4AAA	.	4c	.	4AA 4E 4G 4c 4e 4a	.	.	.	12AL	.	12ccL	.	.	.	12AL	.
.	.	.	.	.	.	.	.	.	.	12G	.	12b-	.	.	.	12G	.
.	.	.	.	.	.	.	.	.	.	12FJ	.	12aJ	.	.	.	12FJ	.
=25	=25	=25	=25	=25	=25	=25	=25	=25	=25	=25	=25	=25	=25	=25	=25	=25	=25
2.r	.	4.GGG	.	2G 2d 2f 2b-	.	4GG 4D 4F 4B- 4d 4g	.	2.r	.	4.G	.	4.b-	.	2.r	.	4.G	.
.	.	.	.	.	.	8GGL 8D 8F 8B- 8d 8g	.	.	.	.	.	.	.	.	.	.	.
.	.	8GGG	.	.	.	8GGJ 8D 8F 8B- 8d 8g	.	.	.	8G	.	8b-	.	.	.	8G	.
.	.	4CC	.	4C 4E 4G 4c 4e 4cc	.	4C 4G 4c 4e 4g	.	.	.	8FL	.	8aL	.	.	.	8FL	.
.	.	.	.	.	.	.	.	.	.	8EJ	.	8gJ	.	.	.	8EJ	.
=26	=26	=26	=26	=26	=26	=26	=26	=26	=26	=26	=26	=26	=26	=26	=26	=26	=26
2.r	.	4FFF	.	4F 4A 4c 4f 4a	.	4.F 4.c 4.f 4.a	.	2.r	.	4F	.	4a	.	2r	.	4F	.
.	.	4r	.	2f	.	.	.	.	.	4r	.	4r	.	.	.	4r	.
.	.	.	.	.	.	8F 8c 8f 8a	.	.	.	.	.	.	.	.	.	.	.
.	.	4FFF	.	.	.	4F 4c 4f 4a	.	.	.	4r	.	8ddL	mf	8aL	mp	8aL	mp
.	.	.	.	.	.	.	.	.	.	.	.	8eeJ	.	8ccJ	.	8ccJ	.
=27	=27	=27	=27	=27	=27	=27	=27	=27	=27	=27	=27	=27	=27	=27	=27	=27	=27
2.a 2.dd 2.ff	mp	2.D	mf	2.D 2.A 2.c 2.f 2.a	mf	4.D 4.A 4.c 4.f 4.a	mf	2.F	mf	2.r	.	4ff	.	4dd	.	4dd	.
.	.	.	.	.	.	.	.	.	.	.	.	8ffL	.	8ddL	.	8ddL	.
.	.	.	.	.	.	8D 8A 8c 8f 8a	.	.	.	.	.	8eeJ	.	8ccJ	.	8ccJ	.
.	.	.	.	.	.	4D 4A 4c 4f 4a	.	.	.	.	.	8ddL	.	8aL	.	8aL	.
.	.	.	.	.	.	.	.	.	.	.	.	8ccJ	.	8gJ	.	8gJ	.
=28	=28	=28	=28	=28	=28	=28	=28	=28	=28	=28	=28	=28	=28	=28	=28	=28	=28
2.cc 2.ee 2.gg	.	2.AA	.	2.AA 2.E 2.G 2.c 2.e 2.a	.	4.AA 4.E 4.G 4.c 4.e 4.a	.	4E	.	2.r	.	8ddL	.	8aL	.	8aL	.
.	.	.	.	.	.	.	.	.	.	.	.	8eeJ	.	8ccJ	.	8ccJ	.
.	.	.	.	.	.	.	.	2G	.	.	.	8ddL	.	8aL	.	8aL	.
.	.	.	.	.	.	8AA 8E 8G 8c 8e 8a	.	.	.	.	.	8ccJ	.	8gJ	.	8gJ	.
.	.	.	.	.	.	4AA 4E 4G 4c 4e 4a	.	.	.	.	.	4a	.	4e	.	4e	.
=29	=29	=29	=29	=29	=29	=29	=29	=29	=29	=29	=29	=29	=29	=29	=29	=29	=29
2.b- 2.dd 2.gg	.	2.GG	.	2.G 2.d 2.f 2.b-	.	4.GG 4.D 4.F 4.B- 4.d 4.g	.	2D	.	2.r	.	8gL	.	8gL	.	8gL	.
.	.	.	.	.	.	.	.	.	.	.	.	8aJ	.	8aJ	.	8aJ	.
.	.	.	.	.	.	.	.	.	.	.	.	8gL	.	8gL	.	8gL	.
.	.	.	.	.	.	8GG 8D 8F 8B- 8d 8g	.	.	.	.	.	8fJ	.	8fJ	.	8fJ	.
.	.	.	.	.	.	4GG 4D 4F 4B- 4d 4g	.	4G	.	.	.	8dL	.	8dL	.	8dL	.
.	.	.	.	.	.	.	.	.	.	.	.	8fJ	.	8fJ	.	8fJ	.
=30	=30	=30	=30	=30	=30	=30	=30	=30	=30	=30	=30	=30	=30	=30	=30	=30	=30
2.a 2.cc#X 2.ee	.	2AA	.	2.AA 2.E 2.A 2.c#X 2.e 2.a	.	4.AA 4.E 4.A 4.c#X 4.e 4.a	.	2.E	.	2.r	.	4a	.	4a	.	4a	.
.	.	.	.	.	.	.	.	.	.	.	.	4r	.	4r	.	4r	.
.	.	.	.	.	.	8AA 8E 8A 8c# 8e 8a	.	.	.	.	.	.	.	.	.	.	.
.	.	4C#X	.	.	.	4AA 4E 4A 4c# 4e 4a	.	.	.	.	.	8ddL	.	8aL	.	8aL	.
.	.	.	.	.	.	.	.	.	.	.	.	8eeJ	.	8ccJ	.	8ccJ	.
=31	=31	=31	=31	=31	=31	=31	=31	=31	=31	=31	=31	=31	=31	=31	=31	=31	=31
2.a 2.dd 2.ff	.	2.D	.	2.D 2.A 2.c 2.f 2.a	.	4.D 4.A 4.c 4.f 4.a	.	2.F	.	2.r	.	4ff	.	4dd	.	4dd	.
.	.	.	.	.	.	.	.	.	.	.	.	8ffL	.	8ddL	.	8ddL	.
.	.	.	.	.	.	8D 8A 8c 8f 8a	.	.	.	.	.	8eeJ	.	8ccJ	.	8ccJ	.
.	.	.	.	.	.	4D 4A 4c 4f 4a	.	.	.	.	.	8ddL	.	8aL	.	8aL	.
.	.	.	.	.	.	.	.	.	.	.	.	8ccJ	.	8gJ	.	8gJ	.
=32	=32	=32	=32	=32	=32	=32	=32	=32	=32	=32	=32	=32	=32	=32	=32	=32	=32
2.cc 2.ee 2.gg	.	2.AA	.	2.AA 2.E 2.G 2.c 2.e 2.a	.	4.AA 4.E 4.G 4.c 4.e 4.a	.	4E	.	2.r	.	8ddL	.	8aL	.	8aL	.
.	.	.	.	.	.	.	.	.	.	.	.	8eeJ	.	8ccJ	.	8ccJ	.
.	.	.	.	.	.	.	.	2G	.	.	.	8ddL	.	8aL	.	8aL	.
.	.	.	.	.	.	8AA 8E 8G 8c 8e 8a	.	.	.	.	.	8ccJ	.	8gJ	.	8gJ	.
.	.	.	.	.	.	4AA 4E 4G 4c 4e 4a	.	.	.	.	.	4a	.	4e	.	4e	.
=33	=33	=33	=33	=33	=33	=33	=33	=33	=33	=33	=33	=33	=33	=33	=33	=33	=33
2.b- 2.dd 2.gg	.	[2.GG	.	2.G 2.d 2.f 2.b-	.	4.GG 4.D 4.F 4.B- 4.d 4.g	.	2.F	.	2.r	.	4g	.	4g	.	4g	.
.	.	.	.	.	.	.	.	.	.	.	.	4dd	.	4dd	.	4dd	.
.	.	.	.	.	.	8GG 8D 8F 8B- 8d 8g	.	.	.	.	.	.	.	.	.	.	.
.	.	.	.	.	.	4GG 4D 4F 4B- 4d 4g	.	.	.	.	.	4ff	.	4ff	.	4ff	.
=34	=34	=34	=34	=34	=34	=34	=34	=34	=34	=34	=34	=34	=34	=34	=34	=34	=34
2.b- 2.dd-X 2.gg	.	2.GG]	.	2.G 2.c#X 2.e 2.b-	.	2.G 2.c#X 2.e 2.b-	.	2.E	.	2.r	.	4.gg	.	4.gg	.	4.gg	.
.	.	.	.	.	.	.	.	.	.	.	.	8r	.	8r	.	8r	.
.	.	.	.	.	.	.	.	.	.	.	.	8cccL	mf	8aaL	f	8aaL	f
.	.	.	.	.	.	.	.	.	.	.	.	8bb-J	.	8ggJ	.	8ggJ	.
=35	=35	=35	=35	=35	=35	=35	=35	=35	=35	=35	=35	=35	=35	=35	=35	=35	=35
[2.a	mf	2.FF	f	4F 4A 4c 4f 4a	mf	4F 4c 4f 4a	mf	4.FF	f	[2.a	f	4.aa	.	4.ff	.	4.ff	.
.	.	.	.	8FL 8A 8c 8f 8a	.	8FL 8c 8f 8a	.	.	.	.	.	.	.	.	.	.	.
.	.	.	.	8FJ 8A 8c 8f 8a	.	8FJ 8c 8f 8a	.	8F	.	.	.	8aa	.	8ff	.	8ff	.
.	.	.	.	4F 4A 4c 4f 4a	.	4F 4c 4f 4a	.	8CL	.	.	.	8ggL	.	8eeL	.	8eeL	.
.	.	.	.	.	.	.	.	8FJ	.	.	.	8ffJ	.	8ddJ	.	8ddJ	.
=36	=36	=36	=36	=36	=36	=36	=36	=36	=36	=36	=36	=36	=36	=36	=36	=36	=36
4a_	.	2.AA	.	4AA 4E 4G 4c 4e 4a	.	4AA 4E 4G 4c 4e 4a	.	4AA	.	2.a_	.	2ee	.	2cc	.	2cc	.
8.aL]	.	.	.	8AAL 8E 8G 8c 8e 8a	.	8AAL 8E 8G 8c 8e 8a	.	4C	.	.	.	.	.	.	.	.	.
.	.	.	.	8AAJ 8E 8G 8c 8e 8a	.	8AAJ 8E 8G 8c 8e 8a	.	.	.	.	.	.	.	.	.	.	.
[16aJk	.	.	.	.	.	.	.	.	.	.	.	.	.	.	.	.	.
8aL]	.	.	.	4AA 4E 4G 4c 4e 4a	.	4AA 4E 4G 4c 4e 4a	.	4E	.	.	.	8ccL	.	8aL	.	8aL	.
8ccJ	.	.	.	.	.	.	.	.	.	.	.	8eeJ	.	8ccJ	.	8ccJ	.
=37	=37	=37	=37	=37	=37	=37	=37	=37	=37	=37	=37	=37	=37	=37	=37	=37	=37
8ddL	.	2.BB-	.	4BB- 4F 4B- 4d 4f 4b-	.	4BB- 4F 4B- 4d 4f 4b-	.	4BB-	.	2.a]	.	4ff	.	4dd	.	4dd	.
16eeL	.	.	.	.	.	.	.	.	.	.	.	.	.	.	.	.	.
16ddJJ	.	.	.	.	.	.	.	.	.	.	.	.	.	.	.	.	.
4cc	.	.	.	8BB-L 8F 8B- 8d 8f 8b-	.	8BB-L 8F 8B- 8d 8f 8b-	.	4D	.	.	.	4ee	.	4cc	.	4cc	.
.	.	.	.	8BB-J 8F 8B- 8d 8f 8b-	.	8BB-J 8F 8B- 8d 8f 8b-	.	.	.	.	.	.	.	.	.	.	.
4dd	.	.	.	4BB- 4F 4B- 4d 4f 4b-	.	4BB- 4F 4B- 4d 4f 4b-	.	4E	.	.	.	4dd	.	4b-	.	4b-	.
=38	=38	=38	=38	=38	=38	=38	=38	=38	=38	=38	=38	=38	=38	=38	=38	=38	=38
2cc	.	2.AA	.	4AA 4F 4A 4c 4f 4a	.	4F 4c 4f 4a	.	4F	.	2.f	.	2ff	.	2cc	.	2cc	.
.	.	.	.	8AAL 8F 8A 8c 8f 8a	.	8FL 8c 8f 8a	.	4C	.	.	.	.	.	.	.	.	.
.	.	.	.	8AAJ 8F 8A 8c 8f 8a	.	8FJ 8c 8f 8a	.	.	.	.	.	.	.	.	.	.	.
4ff	.	.	.	4AA 4F 4A 4c 4f 4a	.	4F 4c 4f 4a	.	4AA	.	.	.	8aL	.	8fL	.	8fL	.
.	.	.	.	.	.	.	.	.	.	.	.	8b-J	.	8gJ	.	8gJ	.
=39	=39	=39	=39	=39	=39	=39	=39	=39	=39	=39	=39	=39	=39	=39	=39	=39	=39
2.gg	.	2.GG	.	4G 4d 4f 4b-	.	4GG 4D 4F 4B- 4d 4g	.	4.GG	.	2.g	.	4.cc	.	4.a	.	4.a	.
.	.	.	.	8GL 8d 8f 8b-	.	8GGL 8D 8F 8B- 8d 8g	.	.	.	.	.	.	.	.	.	.	.
.	.	.	.	8GJ 8d 8f 8b-	.	8GGJ 8D 8F 8B- 8d 8g	.	8GG	.	.	.	8cc	.	8a	.	8a	.
.	.	.	.	4G 4d 4f 4b-	.	4GG 4D 4F 4B- 4d 4g	.	4GG	.	.	.	8b-L	.	8gL	.	8gL	.
.	.	.	.	.	.	.	.	.	.	.	.	8aJ	.	8fJ	.	8fJ	.
=40	=40	=40	=40	=40	=40	=40	=40	=40	=40	=40	=40	=40	=40	=40	=40	=40	=40
2ee	.	2.C	.	4C 4E 4G 4c 4e 4cc	.	4C 4G 4c 4e 4g	.	4.C	.	2e	.	8b-	.	8g	.	8g	.
.	.	.	.	.	.	.	.	.	.	.	.	4.ee	.	4.cc	.	4.cc	.
.	.	.	.	8CL 8E 8G 8c 8e 8cc	.	8CL 8G 8c 8e 8g	.	.	.	.	.	.	.	.	.	.	.
.	.	.	.	8CJ 8E 8G 8c 8e 8cc	.	8CJ 8G 8c 8e 8g	.	8C	.	.	.	.	.	.	.	.	.
8ddL	.	.	.	4C 4E 4G 4c 4e 4cc	.	4C 4G 4c 4e 4g	.	4GG	.	8dL	.	8ffL	.	8ddL	.	8ddL	.
8eeJ	.	.	.	.	.	.	.	.	.	8eJ	.	8ggJ	.	8eeJ	.	8eeJ	.
=41	=41	=41	=41	=41	=41	=41	=41	=41	=41	=41	=41	=41	=41	=41	=41	=41	=41
8ffL	<	2.D	<	4D 4A 4c 4f 4a	<	4D 4A 4c 4f 4a	<	4D	<	4f	<	4aa	<	4ff	<	4ff	<
16ggL	.	.	.	.	.	.	.	.	.	.	.	.	.	.	.	.	.
16ffJJ	.	.	.	.	.	.	.	.	.	.	.	.	.	.	.	.	.
8eeL	.	.	.	8DL 8A 8c 8f 8a	.	8DL 8A 8c 8f 8a	.	8DL	.	4e	.	4ff	.	4dd	.	4dd	.
16ffL	.	.	.	8DJ 8A 8c 8f 8a	.	8DJ 8A 8c 8f 8a	.	8AAJ	.	.	.	.	.	.	.	.	.
16eeJJ	.	.	.	.	.	.	.	.	.	.	.	.	.	.	.	.	.
4dd	.	.	.	4D 4A 4c 4f 4a	.	4D 4A 4c 4f 4a	.	4D	.	4d	.	8ffL	.	8ddL	.	8ddL	.
.	.	.	.	.	.	.	.	.	.	.	.	8aaJ	.	8ffJ	.	8ffJ	.
=42	=42	=42	=42	=42	=42	=42	=42	=42	=42	=42	=42	=42	=42	=42	=42	=42	=42
2cc	.	2C	.	2C 2E 2G 2c 2e 2cc	.	4C 4G 4c 4e 4g	.	4C	.	2c	.	2ccc	.	2gg	.	2gg	.
.	.	.	.	.	.	8CL 8G 8c 8e 8g	.	4GG	.	.	.	.	.	.	.	.	.
.	.	.	.	.	.	8CJ 8G 8c 8e 8g	.	.	.	.	.	.	.	.	.	.	.
4b-	[[	4C#X	[[	4G 4c#X 4e 4b-	[[	4C#X 4G 4B- 4e	[[	4C#X	[[	4B-	[[	8cccL	[ mf ???	8aaL	[	8aaL	[
.	.	.	.	.	.	.	.	.	.	.	.	8bb-J	.	8ggJ	f ???	8ggJ	f ???
=43	=43	=43	=43	=43	=43	=43	=43	=43	=43	=43	=43	=43	=43	=43	=43	=43	=43
2.dd	mf ???	2D	f ???	4D 4A 4c 4f 4a	mf ???	4D 4A 4c 4f 4a	mf ???	4D	f ???	4f	f ???	4.aa	.	4.ff	.	4.ff	.
.	.	.	.	8DL 8A 8c 8f 8a	.	8DL 8A 8c 8f 8a	.	4AA	.	4d	.	.	.	.	.	.	.
.	.	.	.	8DJ 8A 8c 8f 8a	.	8DJ 8A 8c 8f 8a	.	.	.	.	.	8aa	.	8ff	.	8ff	.
.	.	4D	.	4D 4A 4c 4f 4a	.	4D 4A 4c 4f 4a	.	4D	.	4f	.	8ggL	.	8eeL	.	8eeL	.
.	.	.	.	.	.	.	.	.	.	.	.	8ffJ	.	8ddJ	.	8ddJ	.
=44	=44	=44	=44	=44	=44	=44	=44	=44	=44	=44	=44	=44	=44	=44	=44	=44	=44
2.ee	.	2AA	.	4AA 4E 4G 4c 4e 4a	.	4AA 4E 4G 4c 4e 4a	.	4AA	.	4e	.	2ee	.	2cc	.	2cc	.
.	.	.	.	8AAL 8E 8G 8c 8e 8a	.	8AAL 8E 8G 8c 8e 8a	.	4EE	.	4c	.	.	.	.	.	.	.
.	.	.	.	8AAJ 8E 8G 8c 8e 8a	.	8AAJ 8E 8G 8c 8e 8a	.	.	.	.	.	.	.	.	.	.	.
.	.	4AA	.	4AA 4E 4G 4c 4e 4a	.	4AA 4E 4G 4c 4e 4a	.	4AA	.	4e	.	8ccL	.	8aL	.	8aL	.
.	.	.	.	.	.	.	.	.	.	.	.	8eeJ	.	8ccJ	.	8ccJ	.
=45	=45	=45	=45	=45	=45	=45	=45	=45	=45	=45	=45	=45	=45	=45	=45	=45	=45
2.dd	.	2BB-	.	4BB- 4F 4B- 4d 4f 4b-	.	4BB- 4F 4B- 4d 4f 4b-	.	4BB-	.	4d	.	4ff	.	4dd	.	4dd	.
.	.	.	.	8BB-L 8F 8B- 8d 8f 8b-	.	8BB-L 8F 8B- 8d 8f 8b-	.	4FF	.	4B-	.	4ff	.	4dd	.	4dd	.
.	.	.	.	8BB-J 8F 8B- 8d 8f 8b-	.	8BB-J 8F 8B- 8d 8f 8b-	.	.	.	.	.	.	.	.	.	.	.
.	.	4BB-	.	4BB- 4F 4B- 4d 4f 4b-	.	4BB- 4F 4B- 4d 4f 4b-	.	4BB-	.	4d	.	8eeL	.	8ccL	.	8ccL	.
.	.	.	.	.	.	.	.	.	.	.	.	8ddJ	.	8b-J	.	8b-J	.
=46	=46	=46	=46	=46	=46	=46	=46	=46	=46	=46	=46	=46	=46	=46	=46	=46	=46
*	*	*	*	*	*	*	*	*	*	*	*	*^	*	*	*	*	*
2.cc	.	2AA	.	4F 4A 4c 4f 4a	.	4F 4c 4f 4a	.	4FF	.	12FL	.	4.ff	12fL	.	4.cc	.	4.cc	.
.	.	.	.	.	.	.	.	.	.	12A	.	.	12a	.	.	.	.	.
.	.	.	.	.	.	.	.	.	.	12cJ	.	.	12ccJ	.	.	.	.	.
.	.	.	.	8FL 8A 8c 8f 8a	.	8FL 8c 8f 8a	.	4C	.	12fL	.	.	12ffL	.	.	.	.	.
.	.	.	.	.	.	.	.	.	.	12c	.	.	12cc	.	.	.	.	.
.	.	.	.	8FJ 8A 8c 8f 8a	.	8FJ 8c 8f 8a	.	.	.	.	.	8r	.	.	8r	.	8r	.
.	.	.	.	.	.	.	.	.	.	12AJ	.	.	12aJ	.	.	.	.	.
.	.	4AA	.	4F 4A 4c 4f 4a	.	4F 4c 4f 4a	.	4AA	.	12FL	.	8aL	12fL	.	8fL	.	8fL	.
.	.	.	.	.	.	.	.	.	.	12c	.	.	12cc	.	.	.	.	.
.	.	.	.	.	.	.	.	.	.	.	.	8b-J	.	.	8gJ	.	8gJ	.
.	.	.	.	.	.	.	.	.	.	12fJ	.	.	12ffJ	.	.	.	.	.
*	*	*	*	*	*	*	*	*	*	*	*	*v	*v	*	*	*	*	*
=47	=47	=47	=47	=47	=47	=47	=47	=47	=47	=47	=47	=47	=47	=47	=47	=47	=47
2.b-	.	2GG	.	4G 4d 4f 4b-	.	4GG 4D 4F 4B- 4d 4g	.	4.GG	.	4g	.	2cc	.	2a	.	2a	.
.	.	.	.	8GL 8d 8f 8b-	.	8GGL 8D 8F 8B- 8d 8g	.	.	.	4f	.	.	.	.	.	.	.
.	.	.	.	8GJ 8d 8f 8b-	.	8GGJ 8D 8F 8B- 8d 8g	.	8GG	.	.	.	.	.	.	.	.	.
.	.	4GG	.	4G 4d 4f 4b-	.	4GG 4D 4F 4B- 4d 4g	.	4GG	.	4e	.	8b-L	.	8gL	.	8gL	.
.	.	.	.	.	.	.	.	.	.	.	.	8aJ	.	8fJ	.	8fJ	.
=48	=48	=48	=48	=48	=48	=48	=48	=48	=48	=48	=48	=48	=48	=48	=48	=48	=48
2.a	.	2AA	.	4AA 4E 4G 4c 4e 4a	.	4AA 4E 4G 4c 4e 4a	.	4.AA	.	2c	.	8b-	.	8g	.	8g	.
.	.	.	.	.	.	.	.	.	.	.	.	4.ee	.	4.cc	.	4.cc	.
.	.	.	.	8AAL 8E 8G 8c 8e 8a	.	8AAL 8E 8G 8c 8e 8a	.	.	.	.	.	.	.	.	.	.	.
.	.	.	.	8AAJ 8E 8G 8c 8e 8a	.	8AAJ 8E 8G 8c 8e 8a	.	8AA	.	.	.	.	.	.	.	.	.
.	.	4AA	.	4AA 4E 4G 4c 4e 4a	.	4AA 4E 4G 4c 4e 4a	.	4EE	.	4A	.	8ffL	.	8ddL	.	8ddL	.
.	.	.	.	.	.	.	.	.	.	.	.	8ggJ	.	8eeJ	.	8eeJ	.
=49	=49	=49	=49	=49	=49	=49	=49	=49	=49	=49	=49	=49	=49	=49	=49	=49	=49
2.dd	.	2BB-	.	4BB- 4F 4B- 4d 4f 4b-	.	4BB- 4F 4B- 4d 4f 4b-	.	4.BB-	.	2.d	.	8aa	.	8ff	.	8ff	.
.	.	.	.	.	.	.	.	.	.	.	.	[2ff	.	[2dd	.	[2dd	.
.	.	.	.	8BB-L 8F 8B- 8d 8f 8b-	.	8BB-L 8F 8B- 8d 8f 8b-	.	.	.	.	.	.	.	.	.	.	.
.	.	.	.	8BB-J 8F 8B- 8d 8f 8b-	.	8BB-J 8F 8B- 8d 8f 8b-	.	8BB-	.	.	.	.	.	.	.	.	.
.	.	4BB-	.	4BB- 4F 4B- 4d 4f 4b-	.	4BB- 4F 4B- 4d 4f 4b-	.	4FF	.	.	.	.	.	.	.	.	.
.	.	.	.	.	.	.	.	.	.	.	.	8ff]	.	8dd]	.	8dd]	.
=50	=50	=50	=50	=50	=50	=50	=50	=50	=50	=50	=50	=50	=50	=50	=50	=50	=50
4.dd-X	.	2BB-	.	4BB- 4F 4B- 4d-X 4f 4b-	.	4BB- 4F 4B- 4d-X 4f 4b-	.	4.BB-	.	2.d-X	.	4r	.	4r	.	4r	.
.	.	.	.	8BB-L 8F 8B- 8d- 8f 8b-	.	8BB-L 8F 8B- 8d- 8f 8b-	.	.	.	.	.	8r	.	8r	.	8r	.
8cc	.	.	.	8BB-J 8F 8B- 8d- 8f 8b-	.	8BB-J 8F 8B- 8d- 8f 8b-	.	8BB-	.	.	.	8a 8ee	.	8cc	.	8cc	.
8ffL	.	4BB-	.	4BB- 4F 4B- 4d- 4f 4b-	.	4BB- 4F 4B- 4d- 4f 4b-	.	4FF	.	.	.	8ccL 8aa	.	8ffL	.	8ffL	.
8eeJ	.	.	.	.	.	.	.	.	.	.	.	8ccJ 8gg	.	8eeJ	.	8eeJ	.
=51	=51	=51	=51	=51	=51	=51	=51	=51	=51	=51	=51	=51	=51	=51	=51	=51	=51
[2.ff	.	4FF	.	4F 4A 4c 4f 4a	.	4F 4c 4f 4a	.	4FF	.	[2.c	.	2.cc 2.aa	.	[2.ff	.	[2.ff	.
.	.	4FF	.	8FL 8A 8c 8f 8a	.	8FL 8c 8f 8a	.	4FF	.	.	.	.	.	.	.	.	.
.	.	.	.	8FJ 8A 8c 8f 8a	.	8FJ 8c 8f 8a	.	.	.	.	.	.	.	.	.	.	.
.	.	4FF	.	4F 4B- 4c 4f 4b-	.	4F 4c 4f 4b-	.	4FF	.	.	.	.	.	.	.	.	.
=52	=52	=52	=52	=52	=52	=52	=52	=52	=52	=52	=52	=52	=52	=52	=52	=52	=52
2ff]	.	4FF	.	4F 4A 4c 4f 4a	.	4F 4c 4f 4a	.	4FF	.	2c]	.	2.r	.	2ff]	.	2ff]	.
.	.	4FF	.	4F 4A 4c 4f 4a	.	4F 4c 4f 4a	.	4FF	.	.	.	.	.	.	.	.	.
8cL	f f	4FF	.	4F 4A 4c 4f 4a	.	4F 4c 4f 4a	.	4FF	.	8cL	f	.	.	8ccL	f	8ccL	f
8eJ	.	.	.	.	.	.	.	.	.	8eJ	.	.	.	8eeJ	.	8eeJ	.
=53	=53	=53	=53	=53	=53	=53	=53	=53	=53	=53	=53	=53	=53	=53	=53	=53	=53
4f	.	[2FFF	mf	4F 4A 4c 4f 4a	mf	4F 4c 4f 4a	mf	[2FF	mf	4f	.	4fu 4a 4cc	mf	4ff	.	4ff	.
4r	.	.	.	8FL 8A 8c 8f 8a	.	8FL 8c 8f 8a	.	.	.	4r	.	4fu 4a 4cc	.	4r	.	4r	.
.	.	.	.	8FJ 8A 8c 8f 8a	.	8FJ 8c 8f 8a	.	.	.	.	.	.	.	.	.	.	.
8eL	.	8FFFL]	.	4F 4A 4c 4f 4a	.	4F 4c 4f 4a	.	8FFL]	.	8eL	.	4fu 4a 4cc	.	8eeL	.	8eeL	.
8fJ	.	8FFFJ	.	.	.	.	.	8FFJ	.	8fJ	.	.	.	8ffJ	.	8ffJ	.
=54	=54	=54	=54	=54	=54	=54	=54	=54	=54	=54	=54	=54	=54	=54	=54	=54	=54
4g	.	2CC	.	4C 4E 4G 4c 4e 4cc	.	4C 4G 4c 4e 4g	.	2C	.	4g	.	2eu 2g 2cc	.	4gg	.	4gg	.
4f	.	.	.	8CL 8E 8G 8c 8e 8cc	.	8CL 8G 8c 8e 8g	.	.	.	4f	.	.	.	4ff	.	4ff	.
.	.	.	.	8CJ 8E 8G 8c 8e 8cc	.	8CJ 8G 8c 8e 8g	.	.	.	.	.	.	.	.	.	.	.
4g	.	4CC#X	.	4G 4c#X 4e 4b-	.	4C#X 4G 4B- 4e	.	4C#X	.	4g	.	4gu 4cc#X 4ee	.	4gg	.	4gg	.
=55	=55	=55	=55	=55	=55	=55	=55	=55	=55	=55	=55	=55	=55	=55	=55	=55	=55
4a	.	2.DD	.	4D 4A 4c 4f 4a	.	4D 4A 4c 4f 4a	.	2.D	.	4a	.	4fu 4a 4cc	.	4aa	.	4aa	.
4b-	.	.	.	8DL 8A 8c 8f 8a	.	8DL 8A 8c 8f 8a	.	.	.	4b-	.	4fu 4a 4cc	.	4bb-	.	4bb-	.
.	.	.	.	8DJ 8A 8c 8f 8a	.	8DJ 8A 8c 8f 8a	.	.	.	.	.	.	.	.	.	.	.
4a	.	.	.	4D 4A 4c 4f 4a	.	4D 4A 4c 4f 4a	.	.	.	4a	.	4fu 4a 4cc	.	4aa	.	4aa	.
=56	=56	=56	=56	=56	=56	=56	=56	=56	=56	=56	=56	=56	=56	=56	=56	=56	=56
4f	.	2AAA	.	4AA 4E 4G 4c 4e 4a	.	4AA 4E 4G 4c 4e 4a	.	2AA	.	4f	.	4eu 4g 4cc	.	4ff	.	4ff	.
4r	.	.	.	8AAL 8E 8G 8c 8e 8a	.	8AAL 8E 8G 8c 8e 8a	.	.	.	4r	.	4eu 4g 4cc	.	4r	.	4r	.
.	.	.	.	8AAJ 8E 8G 8c 8e 8a	.	8AAJ 8E 8G 8c 8e 8a	.	.	.	.	.	.	.	.	.	.	.
4e	.	8FFFL	.	4AA 4E 4G 4c 4e 4a	.	4AA 4E 4G 4c 4e 4a	.	8FFL	.	4e	.	4eu 4g 4cc	.	4ee	.	4ee	.
.	.	8AAAJ	.	.	.	.	.	8AAJ	.	.	.	.	.	.	.	.	.
=57	=57	=57	=57	=57	=57	=57	=57	=57	=57	=57	=57	=57	=57	=57	=57	=57	=57
4d	.	2BBB-	.	4BB- 4F 4B- 4d 4f 4b-	.	4BB- 4F 4B- 4d 4f 4b-	.	2BB-	.	4d	.	2.fu 2.b- 2.dd	.	4dd	.	4dd	.
4e	.	.	.	8BB-L 8F 8B- 8d 8f 8b-	.	8BB-L 8F 8B- 8d 8f 8b-	.	.	.	4e	.	.	.	4ee	.	4ee	.
.	.	.	.	8BB-J 8F 8B- 8d 8f 8b-	.	8BB-J 8F 8B- 8d 8f 8b-	.	.	.	.	.	.	.	.	.	.	.
4f	.	8FFFL	.	4BB- 4F 4B- 4d 4f 4b-	.	4BB- 4F 4B- 4d 4f 4b-	.	8FFL	.	4f	.	.	.	4ff	.	4ff	.
.	.	8BBB-J	.	.	.	.	.	8BB-J	.	.	.	.	.	.	.	.	.
=58	=58	=58	=58	=58	=58	=58	=58	=58	=58	=58	=58	=58	=58	=58	=58	=58	=58
4cc	.	2FFF	.	4F 4A 4c 4f 4a	.	4F 4c 4f 4a	.	2FF	.	4cc	.	2fu 2a 2cc	.	4ccc	.	4ccc	.
4b-	.	.	.	8FL 8A 8c 8f 8a	.	8FL 8c 8f 8a	.	.	.	4b-	.	.	.	4bb-	.	4bb-	.
.	.	.	.	8FJ 8A 8c 8f 8a	.	8FJ 8c 8f 8a	.	.	.	.	.	.	.	.	.	.	.
4a	.	4FFF	.	4F 4A 4c 4f 4a	.	4F 4c 4f 4a	.	4FF	.	4a	.	4fu 4a 4cc	.	4aa	.	4aa	.
=59	=59	=59	=59	=59	=59	=59	=59	=59	=59	=59	=59	=59	=59	=59	=59	=59	=59
4.g	.	2GGG	.	4G 4d 4f 4b-	.	4GG 4D 4F 4B- 4d 4g	.	2GG	.	4.g	.	2g 2b- 2dd	.	4.gg	.	4.gg	.
.	.	.	.	4G 4d 4f 4b-	.	4GG 4D 4F 4B- 4d 4g	.	.	.	.	.	.	.	.	.	.	.
8a	.	.	.	.	.	.	.	.	.	8a	.	.	.	8aa	.	8aa	.
8gL	.	4CC	.	4C 4E 4G 4c 4e 4cc	.	4C 4G 4c 4e 4g	.	4C	.	8gL	.	4e 4g 4cc	.	8ggL	.	8ggL	.
8fJ	.	.	.	.	.	.	.	.	.	8fJ	.	.	.	8ffJ	.	8ffJ	.
=60	=60	=60	=60	=60	=60	=60	=60	=60	=60	=60	=60	=60	=60	=60	=60	=60	=60
2.f	.	2.FFF	.	4F 4A 4c 4f 4a	.	4F 4c 4f 4a	.	2.FF	.	2.f	.	2.f 2.a 2.cc	.	2.ff	.	2.ff	.
.	.	.	.	4F 4A 4c 4f 4a	.	4F 4c 4f 4a	.	.	.	.	.	.	.	.	.	.	.
.	.	.	.	4F 4A 4c 4f 4a	.	4F 4c 4f 4a	.	.	.	.	.	.	.	.	.	.	.
=61	=61	=61	=61	=61	=61	=61	=61	=61	=61	=61	=61	=61	=61	=61	=61	=61	=61
4r	.	2FF	mf	4F 4A 4c 4f 4a	mf	4F 4c 4f 4a	mf	2C	f	4F	mf	4ff	mf	2cc	f	2cc	f
8cc' 8ff 8aa	mp	.	.	8FL 8A 8c 8f 8a	.	8FL 8c 8f 8a	.	.	.	4c	.	4cc	.	.	.	.	.
8r	.	.	.	8FJ 8A 8c 8f 8a	.	8FJ 8c 8f 8a	.	.	.	.	.	.	.	.	.	.	.
4cc 4ff 4aa	.	4FF	.	4F 4A 4c 4f 4a	.	4F 4c 4f 4a	.	8DL	.	4f	.	4a	.	8ddL	.	8ddL	.
.	.	.	.	.	.	.	.	8CJ	.	.	.	.	.	8ccJ	.	8ccJ	.
=62	=62	=62	=62	=62	=62	=62	=62	=62	=62	=62	=62	=62	=62	=62	=62	=62	=62
4r	.	2EE	.	4F 4A 4c 4e 4a	.	4F 4c 4e 4a	.	2C	.	4F	.	4ee	.	2cc	.	2cc	.
8cc' 8ee 8aa	.	.	.	8FL 8A 8c 8e 8a	.	8FL 8c 8e 8a	.	.	.	4c	.	4cc	.	.	.	.	.
8r	.	.	.	8FJ 8A 8c 8e 8a	.	8FJ 8c 8e 8a	.	.	.	.	.	.	.	.	.	.	.
4cc 4ee 4aa	.	4EE	.	4F 4A 4c 4e 4a	.	4F 4c 4e 4a	.	8FL	.	4e	.	4a	.	8ffL	.	8ffL	.
.	.	.	.	.	.	.	.	8GJ	.	.	.	.	.	8ggJ	.	8ggJ	.
=63	=63	=63	=63	=63	=63	=63	=63	=63	=63	=63	=63	=63	=63	=63	=63	=63	=63
4r	.	2EE-X	.	4F 4A 4e-X 4f 4a	.	4F 4c 4e-X 4a	.	4A	.	4F	.	4ee-X	.	4aa	.	4aa	.
8cc' 8ee-X 8aa	.	.	.	8FL 8A 8e- 8f 8a	.	8FL 8c 8e- 8a	.	4G	.	4c	.	4cc	.	4gg	.	4gg	.
8r	.	.	.	8FJ 8A 8e- 8f 8a	.	8FJ 8c 8e- 8a	.	.	.	.	.	.	.	.	.	.	.
4cc 4ee- 4aa	.	4EE-	.	4F 4A 4e- 4f 4a	.	4F 4c 4e- 4a	.	4F	.	4e-X	.	4a	.	4ff	.	4ff	.
=64	=64	=64	=64	=64	=64	=64	=64	=64	=64	=64	=64	=64	=64	=64	=64	=64	=64
4r	.	4DD	.	4D 4A 4d 4f#X 4a	.	4D 4A 4d 4f#X 4a	.	2D	.	4A	.	4ff#X	.	2dd	.	2dd	.
8dd' 8ff#X 8aa	.	4AAA	.	8DL 8A 8d 8f# 8a	.	8DL 8A 8d 8f# 8a	.	.	.	4d	.	4dd	.	.	.	.	.
8r	.	.	.	8DJ 8A 8d 8f# 8a	.	8DJ 8A 8d 8f# 8a	.	.	.	.	.	.	.	.	.	.	.
4dd 4ff# 4aa	.	4FF#X	.	4D 4A 4d 4f# 4a	.	4D 4A 4d 4f# 4a	.	4r	.	4f#X	.	4a	.	4r	.	4r	.
=65	=65	=65	=65	=65	=65	=65	=65	=65	=65	=65	=65	=65	=65	=65	=65	=65	=65
4r	.	2GG	.	4G 4d 4g 4b-	.	4GG 4D 4G 4B- 4d 4g	.	4.G	.	4G	.	4gg	.	4.gg	.	4.gg	.
8dd' 8gg 8bb-	.	.	.	8GL 8d 8g 8b-	.	8GGL 8D 8G 8B- 8d 8g	.	.	.	4B-	.	4dd	.	.	.	.	.
8r	.	.	.	8GJ 8d 8g 8b-	.	8GGJ 8D 8G 8B- 8d 8g	.	8G	.	.	.	.	.	8gg	.	8gg	.
4dd 4gg 4bb-	.	4GG	.	4G 4d 4g 4b-	.	4GG 4D 4G 4B- 4d 4g	.	8AL	.	4g	.	4b-	.	8aaL	.	8aaL	.
.	.	.	.	.	.	.	.	8GJ	.	.	.	.	.	8ggJ	.	8ggJ	.
=66	=66	=66	=66	=66	=66	=66	=66	=66	=66	=66	=66	=66	=66	=66	=66	=66	=66
4r	.	2GG-X	.	4G 4d 4g-X 4b-	.	4GG 4D 4G-X 4B- 4d 4g	.	2G	.	4G-X	.	4gg-X	.	2gg	.	2gg	.
8dd' 8gg-X 8bb-	.	.	.	8GL 8d 8g- 8b-	.	8GGL 8D 8G- 8B- 8d 8g	.	.	.	4B-	.	4dd	.	.	.	.	.
8r	.	.	.	8GJ 8d 8g- 8b-	.	8GGJ 8D 8G- 8B- 8d 8g	.	.	.	.	.	.	.	.	.	.	.
4dd 4gg- 4bb-	.	4GG-	.	4G 4d 4g- 4b-	.	4GG 4D 4G- 4B- 4d 4g	.	8GL	.	4g	.	4b-	.	8ggL	.	8ggL	.
.	.	.	.	.	.	.	.	8AJ	.	.	.	.	.	8aaJ	.	8aaJ	.
=67	=67	=67	=67	=67	=67	=67	=67	=67	=67	=67	=67	=67	=67	=67	=67	=67	=67
4r	.	4.FF	.	4G 4d 4f 4b-	.	4GG 4D 4F 4B- 4d 4g	.	4B-	.	4F	.	4ff	.	4bb-	.	4bb-	.
8dd' 8ff 8bb-	.	.	.	8GL 8d 8f 8b-	.	8GGL 8D 8F 8B- 8d 8g	.	4A	.	4B-	.	4dd	.	4aa	.	4aa	.
8r	.	8FF	.	8GJ 8d 8f 8b-	.	8GGJ 8D 8F 8B- 8d 8g	.	.	.	.	.	.	.	.	.	.	.
4dd 4ff 4bb-	.	8FFL	.	4G 4d 4f 4b-	.	4GG 4D 4F 4B- 4d 4g	.	4G	.	4g	.	4b-	.	4gg	.	4gg	.
.	.	8FFJ	.	.	.	.	.	.	.	.	.	.	.	.	.	.	.
=68	=68	=68	=68	=68	=68	=68	=68	=68	=68	=68	=68	=68	=68	=68	=68	=68	=68
4r	.	4CC	.	4C 4E 4G 4c 4e 4cc	.	4C 4G 4c 4e 4g	.	4E	.	4G	.	4ee	.	4ee	.	4ee	.
8ee' 8gg 8ccc	.	4EE	.	8CL 8E 8G 8c 8e 8cc	.	8CL 8G 8c 8e 8g	.	4F	.	4c	.	4cc	.	4ff	.	4ff	.
8r	.	.	.	8CJ 8E 8G 8c 8e 8cc	.	8CJ 8G 8c 8e 8g	.	.	.	.	.	.	.	.	.	.	.
4ee 4gg 4ccc	.	4GG	.	4C 4E 4G 4c 4e 4cc	.	4C 4G 4c 4e 4g	.	4r	.	4e	.	4g	.	4r	.	4r	.
=69	=69	=69	=69	=69	=69	=69	=69	=69	=69	=69	=69	=69	=69	=69	=69	=69	=69
4r	.	4FF	.	4F 4A 4c 4f 4a	.	4F 4c 4f 4a	.	4.C	.	4F	.	4ff	.	4.cc	.	4.cc	.
8cc' 8ff 8aa	.	4CC	.	8FL 8A 8c 8f 8a	.	8FL 8c 8f 8a	.	.	.	4c	.	4cc	.	.	.	.	.
8r	.	.	.	8FJ 8A 8c 8f 8a	.	8FJ 8c 8f 8a	.	8C	.	.	.	.	.	8cc	.	8cc	.
4cc 4ff 4aa	.	4AAA	.	4F 4A 4c 4f 4a	.	4F 4c 4f 4a	.	8DL	.	4f	.	4a	.	8ddL	.	8ddL	.
.	.	.	.	.	.	.	.	8CJ	.	.	.	.	.	8ccJ	.	8ccJ	.
=70	=70	=70	=70	=70	=70	=70	=70	=70	=70	=70	=70	=70	=70	=70	=70	=70	=70
4r	.	4EE	.	4F 4A 4c 4e 4a	.	4F 4c 4e 4a	.	2C	.	4F	.	4ee	.	2cc	.	2cc	.
8cc' 8ee 8aa	.	4CC	.	8FL 8A 8c 8e 8a	.	8FL 8c 8e 8a	.	.	.	4c	.	4cc	.	.	.	.	.
8r	.	.	.	8FJ 8A 8c 8e 8a	.	8FJ 8c 8e 8a	.	.	.	.	.	.	.	.	.	.	.
4cc 4ee 4aa	.	4AAA	.	4F 4A 4c 4e 4a	.	4F 4c 4e 4a	.	8FL	.	4e	.	4a	.	8ffL	.	8ffL	.
.	.	.	.	.	.	.	.	8GJ	.	.	.	.	.	8ggJ	.	8ggJ	.
=71	=71	=71	=71	=71	=71	=71	=71	=71	=71	=71	=71	=71	=71	=71	=71	=71	=71
4r	.	4EE-X	.	4F 4A 4e-X 4f 4a	.	4F 4c 4e-X 4a	.	4A	.	4F	.	4ee-X	.	4aa	.	4aa	.
8cc' 8ee-X 8aa	.	4CC	.	8FL 8A 8e- 8f 8a	.	8FL 8c 8e- 8a	.	4A	.	4c	.	4cc	.	4aa	.	4aa	.
8r	.	.	.	8FJ 8A 8e- 8f 8a	.	8FJ 8c 8e- 8a	.	.	.	.	.	.	.	.	.	.	.
4cc 4ee- 4aa	.	4AAA	.	4F 4A 4e- 4f 4a	.	4F 4c 4e- 4a	.	8GL	.	4e-X	.	4a	.	8ggL	.	8ggL	.
.	.	.	.	.	.	.	.	8FJ	.	.	.	.	.	8ffJ	.	8ffJ	.
=72	=72	=72	=72	=72	=72	=72	=72	=72	=72	=72	=72	=72	=72	=72	=72	=72	=72
4r	.	4DD	.	4D 4A 4d 4f#X 4a	.	4D 4A 4d 4f#X 4a	.	2D	.	4A	.	4ff#X	.	2dd	.	2dd	.
8dd' 8ff#X 8aa	.	4FF#X	.	8DL 8A 8d 8f# 8a	.	8DL 8A 8d 8f# 8a	.	.	.	4d	.	4dd	.	.	.	.	.
8r	.	.	.	8DJ 8A 8d 8f# 8a	.	8DJ 8A 8d 8f# 8a	.	.	.	.	.	.	.	.	.	.	.
4dd 4ff# 4aa	.	4AA	.	4D 4A 4d 4f# 4a	.	4D 4A 4d 4f# 4a	.	4r	.	4f#X	.	4a	.	4r	.	4r	.
=73	=73	=73	=73	=73	=73	=73	=73	=73	=73	=73	=73	=73	=73	=73	=73	=73	=73
4r	.	4GG	.	4G 4d 4g 4b-	.	4GG 4D 4G 4B- 4d 4g	.	4.G	.	4G	.	4gg	.	4.gg	.	4.gg	.
8dd' 8gg 8bb-	.	4DD	.	8GL 8d 8g 8b-	.	8GGL 8D 8G 8B- 8d 8g	.	.	.	4B-	.	4dd	.	.	.	.	.
8r	.	.	.	8GJ 8d 8g 8b-	.	8GGJ 8D 8G 8B- 8d 8g	.	8G	.	.	.	.	.	8gg	.	8gg	.
4dd 4gg 4bb-	.	4BBB-	.	4G 4d 4g 4b-	.	4GG 4D 4G 4B- 4d 4g	.	8AL	.	4g	.	4b-	.	8aaL	.	8aaL	.
.	.	.	.	.	.	.	.	8GJ	.	.	.	.	.	8ggJ	.	8ggJ	.
=74	=74	=74	=74	=74	=74	=74	=74	=74	=74	=74	=74	=74	=74	=74	=74	=74	=74
4r	.	4GG-X	.	4G 4d 4g-X 4b-	.	4GG 4D 4G-X 4B- 4d 4g	.	2G	.	4G-X	.	4gg-X	.	2gg	.	2gg	.
8dd' 8gg-X 8bb-	.	4DD	.	8GL 8d 8g- 8b-	.	8GGL 8D 8G- 8B- 8d 8g	.	.	.	4B-	.	4dd	.	.	.	.	.
8r	.	.	.	8GJ 8d 8g- 8b-	.	8GGJ 8D 8G- 8B- 8d 8g	.	.	.	.	.	.	.	.	.	.	.
4dd 4gg- 4bb-	.	4BBB-	.	4G 4d 4g- 4b-	.	4GG 4D 4G- 4B- 4d 4g	.	8GL	.	4g	.	4b-	.	8ggL	.	8ggL	.
.	.	.	.	.	.	.	.	8AJ	.	.	.	.	.	8aaJ	.	8aaJ	.
=75	=75	=75	=75	=75	=75	=75	=75	=75	=75	=75	=75	=75	=75	=75	=75	=75	=75
4r	.	4FF	.	4G 4d 4f 4b-	.	4GG 4D 4F 4B- 4d 4g	.	4B-	.	4F	.	4ff	.	4bb-	.	4bb-	.
8dd' 8ff 8bb-	.	4DD	.	8GL 8d 8f 8b-	.	8GGL 8D 8F 8B- 8d 8g	.	4A	.	4B-	.	4dd	.	4aa	.	4aa	.
8r	.	.	.	8GJ 8d 8f 8b-	.	8GGJ 8D 8F 8B- 8d 8g	.	.	.	.	.	.	.	.	.	.	.
4dd 4ff 4bb-	.	4BBB-	.	4G 4d 4f 4b-	.	4GG 4D 4F 4B- 4d 4g	.	8GL	.	4g	.	4b-	.	8ggL	.	8ggL	.
.	.	.	.	.	.	.	.	8EJ	.	.	.	.	.	8eeJ	.	8eeJ	.
=76	=76	=76	=76	=76	=76	=76	=76	=76	=76	=76	=76	=76	=76	=76	=76	=76	=76
4r	.	4CC	.	4C 4E 4G 4c 4e 4cc	.	4C 4G 4c 4e 4g	.	4E	.	4G	.	4ee	.	4ee	.	4ee	.
8ee' 8gg 8ccc	.	4GGG	.	8CL 8E 8G 8c 8e 8cc	.	8CL 8G 8c 8e 8g	.	4F	.	4c	.	4cc	.	4ff	.	4ff	.
8r	.	.	.	8CJ 8E 8G 8c 8e 8cc	.	8CJ 8G 8c 8e 8g	.	.	.	.	.	.	.	.	.	.	.
4ee 4gg 4ccc	.	4CC	.	4C 4E 4G 4c 4e 4cc	.	4C 4G 4c 4e 4g	.	8GL	.	4e	.	4g	.	8ggL	.	8ggL	.
.	.	.	.	.	.	.	.	8CJ	.	.	.	.	.	8ccJ	.	8ccJ	.
=77	=77	=77	=77	=77	=77	=77	=77	=77	=77	=77	=77	=77	=77	=77	=77	=77	=77
4r	.	4AAA	.	4AA 4E 4A 4c#X 4e 4a	.	4AA 4E 4A 4c#X 4e 4a	.	4B-	.	4E	.	4a	.	4bb-	.	4bb-	.
8cc#X' 8ee 8aa	.	4CC#X	.	4AA 4E 4A 4c# 4e 4a	.	4AA 4E 4A 4c# 4e 4a	.	4A	.	4A	.	4cc#X	.	4aa	.	4aa	.
8r	.	.	.	.	.	.	.	.	.	.	.	.	.	.	.	.	.
4cc# 4ee 4aa	.	4EE	.	4AA 4E 4A 4c# 4e 4a	.	4AA 4E 4A 4c# 4e 4a	.	4G	.	4c#X	.	4a	.	4gg	.	4gg	.
=78	=78	=78	=78	=78	=78	=78	=78	=78	=78	=78	=78	=78	=78	=78	=78	=78	=78
4r	.	4AA	.	4AA 4E 4G 4c#X 4e 4a	.	4AA 4E 4G 4c#X 4e 4a	.	4E	.	4e	.	4ee	.	4ee	.	4ee	.
8cc#X' 8gg 8aa	.	4EE	.	4AA 4E 4G 4c# 4e 4a	.	4AA 4E 4G 4c# 4e 4a	.	4F	.	4c#X	.	4cc#X	.	4ff	.	4ff	.
8r	.	.	.	.	.	.	.	.	.	.	.	.	.	.	.	.	.
4cc# 4gg 4aa	.	4CC#X	.	4AA 4E 4G 4c# 4e 4a	.	4AA 4E 4G 4c# 4e 4a	.	4r	.	4a	.	8aL 8dd	mf	4r	.	8ddL	mf
.	.	.	.	.	.	.	.	.	.	.	.	8ccnJ 8ee	.	.	.	8eeJ	.
=79	=79	=79	=79	=79	=79	=79	=79	=79	=79	=79	=79	=79	=79	=79	=79	=79	=79
4a 4dd 4ff	mp	[4DD	mf	4D 4A 4c 4f 4a	mf	4D 4A 4c 4f 4a	mf	[4D	mf	4F	mf	4dd 4ff	.	2.ff	mf	4ff	.
4a 4dd 4ff	.	8DDL]	.	8DL 8A 8c 8f 8a	.	8DL 8A 8c 8f 8a	.	8DL]	.	4A	.	8ddL 8ff	.	.	.	8ffL	.
.	.	8AAAJ	.	8DJ 8A 8c 8f 8a	.	8DJ 8A 8c 8f 8a	.	8AAJ	.	.	.	8ccJ 8ee	.	.	.	8eeJ	.
4a 4dd 4ff	.	4DD	.	4D 4A 4c 4f 4a	.	4D 4A 4c 4f 4a	.	4D	.	4d	.	8aL 8dd	.	.	.	8ddL	.
.	.	.	.	.	.	.	.	.	.	.	.	8gJ 8cc	.	.	.	8ccJ	.
=80	=80	=80	=80	=80	=80	=80	=80	=80	=80	=80	=80	=80	=80	=80	=80	=80	=80
4cc 4ee 4gg	.	4AAA	.	4AA 4E 4G 4c 4e 4a	.	4AA 4E 4G 4c 4e 4a	.	4AA	.	4E	.	8aL 8dd	.	2.ee	.	8ddL	.
.	.	.	.	.	.	.	.	.	.	.	.	8ccJ 8ee	.	.	.	8eeJ	.
4cc 4ee 4gg	.	4CC	.	8AAL 8E 8G 8c 8e 8a	.	8AAL 8E 8G 8c 8e 8a	.	4C	.	4G	.	8aL 8dd	.	.	.	8ddL	.
.	.	.	.	8AAJ 8E 8G 8c 8e 8a	.	8AAJ 8E 8G 8c 8e 8a	.	.	.	.	.	8gJ 8cc	.	.	.	8ccJ	.
4cc 4ee 4gg	.	4EE	.	4AA 4E 4G 4c 4e 4a	.	4AA 4E 4G 4c 4e 4a	.	4E	.	4c	.	4e 4a	.	.	.	4a	.
=81	=81	=81	=81	=81	=81	=81	=81	=81	=81	=81	=81	=81	=81	=81	=81	=81	=81
4b- 4dd 4gg	.	4GGG	.	4G 4d 4f 4b-	.	4GG 4D 4F 4B- 4d 4g	.	4GG	.	4G	.	8gL	.	2.dd	.	8gL	.
.	.	.	.	.	.	.	.	.	.	.	.	8aJ	.	.	.	8aJ	.
4b- 4dd 4gg	.	4BBB-	.	8GL 8d 8f 8b-	.	8GGL 8D 8F 8B- 8d 8g	.	4BB-	.	4B-	.	8gL	.	.	.	8gL	.
.	.	.	.	8GJ 8d 8f 8b-	.	8GGJ 8D 8F 8B- 8d 8g	.	.	.	.	.	8fJ	.	.	.	8fJ	.
4b- 4dd 4gg	.	4DD	.	4G 4d 4f 4b-	.	4GG 4D 4F 4B- 4d 4g	.	4D	.	4d	.	8dL	.	.	.	8dL	.
.	.	.	.	.	.	.	.	.	.	.	.	8fJ	.	.	.	8fJ	.
=82	=82	=82	=82	=82	=82	=82	=82	=82	=82	=82	=82	=82	=82	=82	=82	=82	=82
4a 4cc#X 4ee	.	4AAA	.	4AA 4E 4A 4c#X 4e 4a	.	4AA 4E 4A 4c#X 4e 4a	.	4AA	.	4E	.	4.a	.	2ee	.	4.a	.
4a 4cc# 4ee	.	4CC#X	.	8AAL 8E 8A 8c# 8e 8a	.	8AAL 8E 8A 8c# 8e 8a	.	4C#X	.	4A	.	.	.	.	.	.	.
.	.	.	.	8AAJ 8E 8A 8c# 8e 8a	.	8AAJ 8E 8A 8c# 8e 8a	.	.	.	.	.	8r	.	.	.	8r	.
4a 4cc# 4ee	.	4EE	.	4AA 4E 4A 4c# 4e 4a	.	4AA 4E 4A 4c# 4e 4a	.	4E	.	4c#X	.	8aL 8dd	.	8r	.	8ddL	.
.	.	.	.	.	.	.	.	.	.	.	.	8ccJ 8ee	.	16aaLL	.	8eeJ	.
.	.	.	.	.	.	.	.	.	.	.	.	.	.	16bb-JJ	.	.	.
=83	=83	=83	=83	=83	=83	=83	=83	=83	=83	=83	=83	=83	=83	=83	=83	=83	=83
4a 4dd 4ff	.	[4DD	.	4D 4A 4c 4f 4a	.	4D 4A 4c 4f 4a	.	[4D	.	4F	.	4dd 4ff	.	2.aa	.	4ff	.
4a 4dd 4ff	.	8DDL]	.	8DL 8A 8c 8f 8a	.	8DL 8A 8c 8f 8a	.	8DL]	.	4A	.	8ddL 8ff	.	.	.	8ffL	.
.	.	8AAAJ	.	8DJ 8A 8c 8f 8a	.	8DJ 8A 8c 8f 8a	.	8AAJ	.	.	.	8ccJ 8ee	.	.	.	8eeJ	.
4a 4dd 4ff	.	4DD	.	4D 4A 4c 4f 4a	.	4D 4A 4c 4f 4a	.	4D	.	4d	.	8aL 8dd	.	.	.	8ddL	.
.	.	.	.	.	.	.	.	.	.	.	.	8gJ 8cc	.	.	.	8ccJ	.
=84	=84	=84	=84	=84	=84	=84	=84	=84	=84	=84	=84	=84	=84	=84	=84	=84	=84
4cc 4ee 4gg	.	4AAA	.	4AA 4E 4G 4c 4e 4a	.	4AA 4E 4G 4c 4e 4a	.	4AA	.	4E	.	8aL 8dd	.	8ggL	.	8ddL	.
.	.	.	.	.	.	.	.	.	.	.	.	8ccJ 8ee	.	16aaL	.	8eeJ	.
.	.	.	.	.	.	.	.	.	.	.	.	.	.	16ggJJ	.	.	.
4cc 4ee 4gg	.	4CC	.	8AAL 8E 8G 8c 8e 8a	.	8AAL 8E 8G 8c 8e 8a	.	4C	.	4G	.	8aL 8dd	.	4ff	.	8ddL	.
.	.	.	.	8AAJ 8E 8G 8c 8e 8a	.	8AAJ 8E 8G 8c 8e 8a	.	.	.	.	.	8gJ 8cc	.	.	.	8ccJ	.
4cc 4ee 4gg	.	4EE	.	4AA 4E 4G 4c 4e 4a	.	4AA 4E 4G 4c 4e 4a	.	4E	.	4c	.	4e 4a	.	4ee	.	4a	.
=85	=85	=85	=85	=85	=85	=85	=85	=85	=85	=85	=85	=85	=85	=85	=85	=85	=85
4b- 4dd 4gg	.	4GGG	.	4G 4d 4f 4b-	.	4GG 4D 4F 4B- 4d 4g	.	4GG	.	4G	.	4g	.	2.ff	.	4g	.
4b- 4dd 4gg	.	4BBB-	.	8GL 8d 8f 8b-	.	8GGL 8D 8F 8B- 8d 8g	.	4BB-	.	4B-	.	4dd	.	.	.	4dd	.
.	.	.	.	8GJ 8d 8f 8b-	.	8GGJ 8D 8F 8B- 8d 8g	.	.	.	.	.	.	.	.	.	.	.
4b- 4dd 4gg	.	4DD	.	4G 4d 4f 4b-	.	4GG 4D 4F 4B- 4d 4g	.	4D	.	4d	.	4ff	.	.	.	4ff	.
=86	=86	=86	=86	=86	=86	=86	=86	=86	=86	=86	=86	=86	=86	=86	=86	=86	=86
2.b- 2.dd-X 2.gg	.	2.GG	.	2.G 2.c#X 2.e 2.b-	.	2.G 2.c#X 2.e 2.b-	.	2.G	.	2.g	.	2.gg	.	2.gg	.	2.gg	.
=87	=87	=87	=87	=87	=87	=87	=87	=87	=87	=87	=87	=87	=87	=87	=87	=87	=87
*M2/4	*	*M2/4	*	*M2/4	*	*M2/4	*	*M2/4	*	*M2/4	*	*M2/4	*	*M2/4	*	*M2/4	*
2r	.	2r	.	2r	.	2r	.	2r	.	2r	.	2r	.	4r	.	4r	.
.	.	.	.	.	.	.	.	.	.	.	.	.	.	8aaL 8ccc	ff	8aaL	ff
.	.	.	.	.	.	.	.	.	.	.	.	.	.	8ggJ 8bb-	.	8ggJ	.
=88	=88	=88	=88	=88	=88	=88	=88	=88	=88	=88	=88	=88	=88	=88	=88	=88	=88
*M3/4	*	*M3/4	*	*M3/4	*	*M3/4	*	*M3/4	*	*M3/4	*	*M3/4	*	*M3/4	*	*M3/4	*
4cc	f	4.FFF	f	4F 4A 4c 4f 4a	f	4F 4c 4f 4a	f	4.FF	f	4F	f	[2.aa	f	4.ff 4.aa	.	4.ff	.
4a	.	.	.	8FL 8A 8c 8f 8a	.	8FL 8c 8f 8a	.	.	.	4c	.	.	.	.	.	.	.
.	.	8FF	.	8FJ 8A 8c 8f 8a	.	8FJ 8c 8f 8a	.	8F	.	.	.	.	.	8ff 8aa	.	8ff	.
4ff	.	8CCL	.	8FL 8A 8c 8f 8a	.	8FL 8c 8f 8a	.	8CL	.	4f	.	.	.	8eeL 8gg	.	8eeL	.
.	.	8FFJ	.	8FJ 8A 8c 8f 8a	.	8FJ 8c 8f 8a	.	8FJ	.	.	.	.	.	8ddJ 8ff	.	8ddJ	.
=89	=89	=89	=89	=89	=89	=89	=89	=89	=89	=89	=89	=89	=89	=89	=89	=89	=89
4ee	.	4AAA	.	4AA 4E 4G 4c 4e 4a	.	4AA 4E 4G 4c 4e 4a	.	4AA	.	4c	.	4aa_	.	2cc 2ee	.	2cc	.
8aaL	.	4CC	.	8AAL 8E 8G 8c 8e 8a	.	8AAL 8E 8G 8c 8e 8a	.	4C	.	8cL	.	8.aaL]	.	.	.	.	.
8eeJ	.	.	.	8AAJ 8E 8G 8c 8e 8a	.	8AAJ 8E 8G 8c 8e 8a	.	.	.	8GJ	.	.	.	.	.	.	.
.	.	.	.	.	.	.	.	.	.	.	.	16aaJk	.	.	.	.	.
4cc	.	4EE	.	8AAL 8E 8G 8c 8e 8a	.	8AAL 8E 8G 8c 8e 8a	.	4E	.	4c	.	8aaL	.	8aL 8cc	.	8aL	.
.	.	.	.	8AAJ 8E 8G 8c 8e 8a	.	8AAJ 8E 8G 8c 8e 8a	.	.	.	.	.	8cccJ	.	8ccJ 8ee	.	8ccJ	.
=90	=90	=90	=90	=90	=90	=90	=90	=90	=90	=90	=90	=90	=90	=90	=90	=90	=90
4dd	.	4BBB-	.	4BB- 4F 4B- 4d 4f 4b-	.	4BB- 4F 4B- 4d 4f 4b-	.	4BB-	.	4F	.	8dddL	.	4dd 4ff	.	4dd	.
.	.	.	.	.	.	.	.	.	.	.	.	16eeeL	.	.	.	.	.
.	.	.	.	.	.	.	.	.	.	.	.	16dddJJ	.	.	.	.	.
4ff	.	4DD	.	8BB-L 8F 8B- 8d 8f 8b-	.	8BB-L 8F 8B- 8d 8f 8b-	.	4D	.	4B-	.	4ccc	.	4cc 4ee	.	4cc	.
.	.	.	.	8BB-J 8F 8B- 8d 8f 8b-	.	8BB-J 8F 8B- 8d 8f 8b-	.	.	.	.	.	.	.	.	.	.	.
4dd	.	4EE	.	8BB-L 8F 8B- 8d 8f 8b-	.	8BB-L 8F 8B- 8d 8f 8b-	.	4E	.	4F	.	4ddd	.	4b- 4dd	.	4b-	.
.	.	.	.	8BB-J 8F 8B- 8d 8f 8b-	.	8BB-J 8F 8B- 8d 8f 8b-	.	.	.	.	.	.	.	.	.	.	.
=91	=91	=91	=91	=91	=91	=91	=91	=91	=91	=91	=91	=91	=91	=91	=91	=91	=91
4cc	.	4FF	.	4AA 4F 4A 4c 4f 4a	.	4F 4c 4f 4a	.	4F	.	4c	.	2ccc	.	4cc 4ff	.	4cc	.
4ff	.	4CC	.	8AAL 8F 8A 8c 8f 8a	.	8FL 8c 8f 8a	.	4C	.	4A	.	.	.	4r	.	4r	.
.	.	.	.	8AAJ 8F 8A 8c 8f 8a	.	8FJ 8c 8f 8a	.	.	.	.	.	.	.	.	.	.	.
4aa	.	4AAA	.	8AAL 8F 8A 8c 8f 8a	.	8FL 8c 8f 8a	.	4AA	.	4F	.	4ff	.	8fL 8a	.	8fL	.
.	.	.	.	8AAJ 8F 8A 8c 8f 8a	.	8FJ 8c 8f 8a	.	.	.	.	.	.	.	8gJ 8b-	.	8gJ	.
=92	=92	=92	=92	=92	=92	=92	=92	=92	=92	=92	=92	=92	=92	=92	=92	=92	=92
4dd	.	4.GGG	.	4G 4d 4f 4b-	.	4GG 4D 4F 4B- 4d 4g	.	4.GG	.	4d	.	2.gg	.	4a 4cc	.	4a	.
8ddL	.	.	.	8GL 8d 8f 8b-	.	8GGL 8D 8F 8B- 8d 8g	.	.	.	8dL	.	.	.	8r	.	8r	.
8b-J	.	8GGG	.	8GJ 8d 8f 8b-	.	8GGJ 8D 8F 8B- 8d 8g	.	8GG	.	8B-J	.	.	.	8a 8cc	.	8a	.
8ddL	.	4GGG	.	8GL 8d 8f 8b-	.	8GGL 8D 8F 8B- 8d 8g	.	4GG	.	8dL	.	.	.	8gL 8b-	.	8gL	.
8b-J	.	.	.	8GJ 8d 8f 8b-	.	8GGJ 8D 8F 8B- 8d 8g	.	.	.	8B-J	.	.	.	8fJ 8a	.	8fJ	.
=93	=93	=93	=93	=93	=93	=93	=93	=93	=93	=93	=93	=93	=93	=93	=93	=93	=93
4cc	.	4.CC	.	4C 4E 4G 4c 4e 4cc	.	4C 4G 4c 4e 4g	.	4.C	.	4e	.	2ee	.	8g 8b-	.	8g	.
.	.	.	.	.	.	.	.	.	.	.	.	.	.	4cc 4ee	.	4cc	.
4ee	.	.	.	8CL 8E 8G 8c 8e 8cc	.	8CL 8G 8c 8e 8g	.	.	.	4c	.	.	.	.	.	.	.
.	.	8CC	.	8CJ 8E 8G 8c 8e 8cc	.	8CJ 8G 8c 8e 8g	.	8C	.	.	.	.	.	8r	.	8r	.
4gg	.	4GGG	.	8CL 8E 8G 8c 8e 8cc	.	8CL 8G 8c 8e 8g	.	4GG	.	4g	.	8ddL	.	8ddL 8ff	.	8ddL	.
.	.	.	.	8CJ 8E 8G 8c 8e 8cc	.	8CJ 8G 8c 8e 8g	.	.	.	.	.	8eeJ	.	8eeJ 8gg	.	8eeJ	.
=94	=94	=94	=94	=94	=94	=94	=94	=94	=94	=94	=94	=94	=94	=94	=94	=94	=94
4aa	<	4DD	<	4D 4A 4c 4f 4a	<	4D 4A 4c 4f 4a	<	4D	<	4D	<	8ffL	<	4ff 4aa	<	4ff	<
.	.	.	.	.	.	.	.	.	.	.	.	16ggL	.	.	.	.	.
.	.	.	.	.	.	.	.	.	.	.	.	16ffJJ	.	.	.	.	.
4ff	.	8DDL	.	8DL 8A 8c 8f 8a	.	8DL 8A 8c 8f 8a	.	8DL	.	4A	.	8eeL	.	4dd 4ff	.	4dd	.
.	.	8AAAJ	.	8DJ 8A 8c 8f 8a	.	8DJ 8A 8c 8f 8a	.	8AAJ	.	.	.	16ffL	.	.	.	.	.
.	.	.	.	.	.	.	.	.	.	.	.	16eeJJ	.	.	.	.	.
4cc	.	4DD	.	8DL 8A 8c 8f 8a	.	8DL 8A 8c 8f 8a	.	4D	.	4f	.	4dd	.	8ddL 8ff	.	8ddL	.
.	.	.	.	8DJ 8A 8c 8f 8a	.	8DJ 8A 8c 8f 8a	.	.	.	.	.	.	.	8ffJ 8aa	.	8ffJ	.
=95	=95	=95	=95	=95	=95	=95	=95	=95	=95	=95	=95	=95	=95	=95	=95	=95	=95
4cc	.	4CC	.	4C 4E 4G 4c 4e 4cc	.	4C 4G 4c 4e 4g	.	4C	.	4C	.	2cc	.	2gg 2ccc	.	2gg	.
4g	.	4GGG	.	8CL 8E 8G 8c 8e 8cc	.	8CL 8G 8c 8e 8g	.	4GG	.	4G	.	.	.	.	.	.	.
.	.	.	.	8CJ 8E 8G 8c 8e 8cc	.	8CJ 8G 8c 8e 8g	.	.	.	.	.	.	.	.	.	.	.
4cc#X	[[	4CC#X	[[	8GL 8c#X 8e 8b-	.	8C#XL 8G 8B- 8e	.	4C#X	[[	4c#X	[[	4b-	[[	8aaL 8ccc	[ ff ???	8aaL	[ ff ???
.	.	.	.	8GJ 8c# 8e 8b-	[[	8C#J 8G 8B- 8e	[[	.	.	.	.	.	.	8ggJ 8bb-	.	8ggJ	.
=96	=96	=96	=96	=96	=96	=96	=96	=96	=96	=96	=96	=96	=96	=96	=96	=96	=96
4cc	f ???	4DD	f ???	4D 4A 4c 4f 4a	f ???	4D 4A 4c 4f 4a	f ???	4D	f ???	4D	f ???	4ff	f ???	4.ff 4.aa	.	4.ff	.
4ff	.	4AAA	.	8DL 8A 8c 8f 8a	.	8DL 8A 8c 8f 8a	.	4AA	.	4A	.	4dd	.	.	.	.	.
.	.	.	.	8DJ 8A 8c 8f 8a	.	8DJ 8A 8c 8f 8a	.	.	.	.	.	.	.	8ff 8aa	.	8ff	.
4aa	.	4DD	.	8DL 8A 8c 8f 8a	.	8DL 8A 8c 8f 8a	.	4D	.	4c	.	4ff	.	8eeL 8gg	.	8eeL	.
.	.	.	.	8DJ 8A 8c 8f 8a	.	8DJ 8A 8c 8f 8a	.	.	.	.	.	.	.	8ddJ 8ff	.	8ddJ	.
=97	=97	=97	=97	=97	=97	=97	=97	=97	=97	=97	=97	=97	=97	=97	=97	=97	=97
4gg	.	4AAA	.	4AA 4E 4G 4c 4e 4a	.	4AA 4E 4G 4c 4e 4a	.	4AA	.	4G	.	4ee	.	4cc 4ee	.	4cc	.
4ee	.	4EEE	.	8AAL 8E 8G 8c 8e 8a	.	8AAL 8E 8G 8c 8e 8a	.	4EE	.	4E	.	4cc	.	4r	.	4r	.
.	.	.	.	8AAJ 8E 8G 8c 8e 8a	.	8AAJ 8E 8G 8c 8e 8a	.	.	.	.	.	.	.	.	.	.	.
4gg	.	4AAA	.	8AAL 8E 8G 8c 8e 8a	.	8AAL 8E 8G 8c 8e 8a	.	4AA	.	4G	.	4ee	.	8aL 8cc	.	8aL	.
.	.	.	.	8AAJ 8E 8G 8c 8e 8a	.	8AAJ 8E 8G 8c 8e 8a	.	.	.	.	.	.	.	8ccJ 8ee	.	8ccJ	.
=98	=98	=98	=98	=98	=98	=98	=98	=98	=98	=98	=98	=98	=98	=98	=98	=98	=98
4b-	.	4BBB-	.	4BB- 4F 4B- 4d 4f 4b-	.	4BB- 4F 4B- 4d 4f 4b-	.	4BB-	.	4B-	.	4dd	.	4dd 4ff	.	4dd	.
4ff	.	4FFF	.	8BB-L 8F 8B- 8d 8f 8b-	.	8BB-L 8F 8B- 8d 8f 8b-	.	4FF	.	4f	.	4b-	.	4dd 4ff	.	4dd	.
.	.	.	.	8BB-J 8F 8B- 8d 8f 8b-	.	8BB-J 8F 8B- 8d 8f 8b-	.	.	.	.	.	.	.	.	.	.	.
4bb-	.	4BBB-	.	8BB-L 8F 8B- 8d 8f 8b-	.	8BB-L 8F 8B- 8d 8f 8b-	.	4BB-	.	4b-	.	4dd	.	8ccL 8ee	.	8ccL	.
.	.	.	.	8BB-J 8F 8B- 8d 8f 8b-	.	8BB-J 8F 8B- 8d 8f 8b-	.	.	.	.	.	.	.	8b-J 8dd	.	8b-J	.
=99	=99	=99	=99	=99	=99	=99	=99	=99	=99	=99	=99	=99	=99	=99	=99	=99	=99
4aa	.	4FFF	.	4F 4A 4c 4f 4a	.	4F 4c 4f 4a	.	4FF	.	4a	.	12fL	.	4cc 4ff	.	4cc	.
.	.	.	.	.	.	.	.	.	.	.	.	12a	.	.	.	.	.
.	.	.	.	.	.	.	.	.	.	.	.	12ccJ	.	.	.	.	.
4ff	.	4CC	.	8FL 8A 8c 8f 8a	.	8FL 8c 8f 8a	.	4C	.	4f	.	12ffL	.	4r	.	4r	.
.	.	.	.	.	.	.	.	.	.	.	.	12cc	.	.	.	.	.
.	.	.	.	8FJ 8A 8c 8f 8a	.	8FJ 8c 8f 8a	.	.	.	.	.	.	.	.	.	.	.
.	.	.	.	.	.	.	.	.	.	.	.	12aJ	.	.	.	.	.
4cc	.	4AAA	.	8FL 8A 8c 8f 8a	.	8FL 8c 8f 8a	.	4AA	.	4c	.	12fL	.	8fL 8a	.	8fL	.
.	.	.	.	.	.	.	.	.	.	.	.	12cc	.	.	.	.	.
.	.	.	.	8FJ 8A 8c 8f 8a	.	8FJ 8c 8f 8a	.	.	.	.	.	.	.	8gJ 8b-	.	8gJ	.
.	.	.	.	.	.	.	.	.	.	.	.	12ffJ	.	.	.	.	.
=100	=100	=100	=100	=100	=100	=100	=100	=100	=100	=100	=100	=100	=100	=100	=100	=100	=100
4d	.	4.GGG	.	4G 4d 4f 4b-	.	4GG 4D 4F 4B- 4d 4g	.	4.GG	.	4D	.	4gg	.	4a 4cc	.	4a	.
4f	.	.	.	8GL 8d 8f 8b-	.	8GGL 8D 8F 8B- 8d 8g	.	.	.	4F	.	4ff	.	4r	.	4r	.
.	.	8GGG	.	8GJ 8d 8f 8b-	.	8GGJ 8D 8F 8B- 8d 8g	.	8GG	.	.	.	.	.	.	.	.	.
4g	.	4GGG	.	8GL 8d 8f 8b-	.	8GGL 8D 8F 8B- 8d 8g	.	4GG	.	4G	.	4ee	.	8gL 8b-	.	8gL	.
.	.	.	.	8GJ 8d 8f 8b-	.	8GGJ 8D 8F 8B- 8d 8g	.	.	.	.	.	.	.	8fJ 8a	.	8fJ	.
=101	=101	=101	=101	=101	=101	=101	=101	=101	=101	=101	=101	=101	=101	=101	=101	=101	=101
4e	.	4.AAA	.	4AA 4E 4G 4c 4e 4a	.	4AA 4E 4G 4c 4e 4a	.	4.AA	.	4E	.	2cc	.	8g 8b-	.	8g	.
.	.	.	.	.	.	.	.	.	.	.	.	.	.	4cc 4ee	.	4cc	.
4g	.	.	.	8AAL 8E 8G 8c 8e 8a	.	8AAL 8E 8G 8c 8e 8a	.	.	.	4G	.	.	.	.	.	.	.
.	.	8AAA	.	8AAJ 8E 8G 8c 8e 8a	.	8AAJ 8E 8G 8c 8e 8a	.	8AA	.	.	.	.	.	8r	.	8r	.
4cc	.	4EEE	.	8AAL 8E 8G 8c 8e 8a	.	8AAL 8E 8G 8c 8e 8a	.	4EE	.	4c	.	4a	.	8ddL 8ff	.	8ddL	.
.	.	.	.	8AAJ 8E 8G 8c 8e 8a	.	8AAJ 8E 8G 8c 8e 8a	.	.	.	.	.	.	.	8eeJ 8gg	.	8eeJ	.
=102	=102	=102	=102	=102	=102	=102	=102	=102	=102	=102	=102	=102	=102	=102	=102	=102	=102
4b-	.	4.BBB-	.	4BB- 4F 4B- 4d 4f 4b-	.	4BB- 4F 4B- 4d 4f 4b-	.	4.BB-	.	4B-	.	2.dd	.	8ffL 8aa	.	8ffL	.
.	.	.	.	.	.	.	.	.	.	.	.	.	.	[8ddJ [8ff	.	[8ddJ	.
4dd	.	.	.	8BB-L 8F 8B- 8d 8f 8b-	.	8BB-L 8F 8B- 8d 8f 8b-	.	.	.	4d	.	.	.	2dd] 2ff]	.	2dd]	.
.	.	8BBB-	.	8BB-J 8F 8B- 8d 8f 8b-	.	8BB-J 8F 8B- 8d 8f 8b-	.	8BB-	.	.	.	.	.	.	.	.	.
4ff	.	4FFF	.	8BB-L 8F 8B- 8d 8f 8b-	.	8BB-L 8F 8B- 8d 8f 8b-	.	4FF	.	4f	.	.	.	.	.	.	.
.	.	.	.	8BB-J 8F 8B- 8d 8f 8b-	.	8BB-J 8F 8B- 8d 8f 8b-	.	.	.	.	.	.	.	.	.	.	.
=103	=103	=103	=103	=103	=103	=103	=103	=103	=103	=103	=103	=103	=103	=103	=103	=103	=103
4.dd-X	.	4.BBB-	.	4BB- 4F 4B- 4d-X 4f 4b-	.	4BB- 4F 4B- 4d-X 4f 4b-	.	4.BB-	.	4B-	.	2.dd-X	.	4r	.	4r	.
.	.	.	.	8BB-L 8F 8B- 8d- 8f 8b-	.	8BB-L 8F 8B- 8d- 8f 8b-	.	.	.	4d-X	.	.	.	8r	.	8r	.
8cc	.	8BBB-	.	8BB-J 8F 8B- 8d- 8f 8b-	.	8BB-J 8F 8B- 8d- 8f 8b-	.	8BB-	.	.	.	.	.	8a 8cc 8ee	.	8cc	.
8ffL	.	4FFF	.	8BB-L 8F 8B- 8d- 8f 8b-	.	8BB-L 8F 8B- 8d- 8f 8b-	.	4FF	.	4f	.	.	.	8ccL 8ff 8aa	.	8ffL	.
8eeJ	.	.	.	8BB-J 8F 8B- 8d- 8f 8b-	.	8BB-J 8F 8B- 8d- 8f 8b-	.	.	.	.	.	.	.	8ccJ 8ee 8gg	.	8eeJ	.
=104	=104	=104	=104	=104	=104	=104	=104	=104	=104	=104	=104	=104	=104	=104	=104	=104	=104
[2.ff	.	4.FFF	.	4F 4A 4c 4f 4a	.	4F 4c 4f 4a	.	4.FF	.	4a	.	[2.cc	.	[2.cc [2.ff [2.aa	.	[2.ff	.
.	.	.	.	8FL 8A 8c 8f 8a	.	8FL 8c 8f 8a	.	.	.	4a	.	.	.	.	.	.	.
.	.	8FFF	.	8FJ 8A 8c 8f 8a	.	8FJ 8c 8f 8a	.	8FF	.	.	.	.	.	.	.	.	.
.	.	4FFF	.	4F 4B- 4c 4f 4b-	.	4F 4c 4f 4b-	.	4FF	.	4b-	.	.	.	.	.	.	.
=105	=105	=105	=105	=105	=105	=105	=105	=105	=105	=105	=105	=105	=105	=105	=105	=105	=105
2.ff]	.	4FF	.	4F 4A 4c 4f 4a	.	4F 4c 4f 4a	.	4F	.	4a	.	2cc]	.	2.cc] 2.ff] 2.aa]	.	2.ff]	.
.	.	4CC	.	4F 4A 4c 4f 4a	.	4F 4c 4f 4a	.	4C	.	4f	.	.	.	.	.	.	.
.	.	4FFF	.	4F 4A 4c 4f 4a	.	4F 4c 4f 4a	.	4FF	.	4c	.	4r	.	.	.	.	.
=106||	=106||	=106||	=106||	=106||	=106||	=106||	=106||	=106||	=106||	=106||	=106||	=106||	=106||	=106||	=106||	=106||	=106||
*M4/4	*	*M4/4	*	*M4/4	*	*M4/4	*	*M4/4	*	*M4/4	*	*M4/4	*	*M4/4	*	*M4/4	*
4.a	f	8FFFL	f	8FL 8A 8c 8f 8a	f	8FL 8c 8f 8a	f	4.A	f	8AL	f	2a	f	4.a	f	1r	.
.	.	8FFF	.	8FJ 8A 8c 8f 8a	.	8FJ 8c 8f 8a	.	.	.	8F	.	.	.	.	.	.	.
.	.	8CC	.	8FL 8A 8c 8f 8a	.	8FL 8c 8f 8a	.	.	.	8A	.	.	.	.	.	.	.
8cc	.	[8FFJ	.	16FL 16A 16c 16f 16a	.	16FL 16c 16f 16a	.	8c	.	8FJ	.	.	.	8cc	.	.	.
.	.	.	.	16FJJ 16A 16c 16f 16a	.	16FJJ 16c 16f 16a	.	.	.	.	.	.	.	.	.	.	.
2cc	.	8FFL]	.	16FLL 16A 16c 16f 16a	.	16FLL 16c 16f 16a	.	2c	.	8AL	.	2cc	.	2cc	.	.	.
.	.	.	.	16FJ 16A 16c 16f 16a	.	16FJ 16c 16f 16a	.	.	.	.	.	.	.	.	.	.	.
.	.	8CC	.	8FJ 8A 8c 8f 8a	.	8FJ 8c 8f 8a	.	.	.	8F	.	.	.	.	.	.	.
.	.	8DD	.	8FL 8A 8c 8f 8a	.	8FL 8c 8f 8a	.	.	.	8A	.	.	.	.	.	.	.
.	.	8EEJ	.	16FL 16A 16c 16f 16a	.	16FL 16c 16f 16a	.	.	.	8FJ	.	.	.	.	.	.	.
.	.	.	.	16FJJ 16A 16c 16f 16a	.	16FJJ 16c 16f 16a	.	.	.	.	.	.	.	.	.	.	.
=107	=107	=107	=107	=107	=107	=107	=107	=107	=107	=107	=107	=107	=107	=107	=107	=107	=107
4.a	.	8FFFL	.	8FL 8A 8c 8f 8a	.	8FL 8c 8f 8a	.	4.A	.	8CL	.	2a	.	4.a	.	1r	.
.	.	8FFF	.	8FJ 8A 8c 8f 8a	.	8FJ 8c 8f 8a	.	.	.	8F	.	.	.	.	.	.	.
.	.	8CC	.	8FL 8A 8c 8f 8a	.	8FL 8c 8f 8a	.	.	.	8A	.	.	.	.	.	.	.
8g	.	[8FFJ	.	16FL 16A 16c 16f 16a	.	16FL 16c 16f 16a	.	8G	.	8cJ	.	.	.	8g	.	.	.
.	.	.	.	16FJJ 16A 16c 16f 16a	.	16FJJ 16c 16f 16a	.	.	.	.	.	.	.	.	.	.	.
2f	.	8FFL]	.	16FLL 16A 16c 16f 16a	.	16FLL 16c 16f 16a	.	2F	.	8AL	.	2f	.	2f	.	.	.
.	.	.	.	16FJ 16A 16c 16f 16a	.	16FJ 16c 16f 16a	.	.	.	.	.	.	.	.	.	.	.
.	.	8CC	.	8FJ 8A 8c 8f 8a	.	8FJ 8c 8f 8a	.	.	.	8F	.	.	.	.	.	.	.
.	.	8FF	.	8FL 8A 8c 8f 8a	.	8FL 8c 8f 8a	.	.	.	8A	.	.	.	.	.	.	.
.	.	8AAJ	.	16FL 16A 16c 16f 16a	.	16FL 16c 16f 16a	.	.	.	8FJ	.	.	.	.	.	.	.
.	.	.	.	16FJJ 16A 16c 16f 16a	.	16FJJ 16c 16f 16a	.	.	.	.	.	.	.	.	.	.	.
=108	=108	=108	=108	=108	=108	=108	=108	=108	=108	=108	=108	=108	=108	=108	=108	=108	=108
4.g	.	8CCL	.	8CL 8E 8G 8c 8e 8cc	.	8CL 8G 8c 8e 8g	.	4.G	.	8CL	.	2g	.	4.g	.	1r	.
.	.	8CC	.	8CJ 8E 8G 8c 8e 8cc	.	8CJ 8G 8c 8e 8g	.	.	.	8E	.	.	.	.	.	.	.
.	.	8CC	.	8CL 8E 8G 8c 8e 8cc	.	8CL 8G 8c 8e 8g	.	.	.	8C	.	.	.	.	.	.	.
8a	.	[8CCJ	.	16CL 16E 16G 16c 16e 16cc	.	16CL 16G 16c 16e 16g	.	8A	.	8EJ	.	.	.	8a	.	.	.
.	.	.	.	16CJJ 16E 16G 16c 16e 16cc	.	16CJJ 16G 16c 16e 16g	.	.	.	.	.	.	.	.	.	.	.
4.cc	.	8CCL]	.	16CLL 16E 16G 16c 16e 16cc	.	16CLL 16G 16c 16e 16g	.	4.c	.	8GL	.	2cc	.	4.cc	.	.	.
.	.	.	.	16CJ 16E 16G 16c 16e 16cc	.	16CJ 16G 16c 16e 16g	.	.	.	.	.	.	.	.	.	.	.
.	.	8GGG	.	8CJ 8E 8G 8c 8e 8cc	.	8CJ 8G 8c 8e 8g	.	.	.	8E	.	.	.	.	.	.	.
.	.	8AAA	.	8CL 8E 8G 8c 8e 8cc	.	8CL 8G 8c 8e 8g	.	.	.	8G	.	.	.	.	.	.	.
8a	.	8BBB-J	.	16CL 16E 16G 16c 16e 16cc	.	16CL 16G 16c 16e 16g	.	8A	.	8EJ	.	.	.	8a	.	.	.
.	.	.	.	16CJJ 16E 16G 16c 16e 16cc	.	16CJJ 16G 16c 16e 16g	.	.	.	.	.	.	.	.	.	.	.
=109	=109	=109	=109	=109	=109	=109	=109	=109	=109	=109	=109	=109	=109	=109	=109	=109	=109
1g	.	8CCL	.	8CL 8E 8G 8c 8e 8b-	.	8CL 8G 8B- 8e 8g	.	1G	.	8CL	.	1g	.	1g	.	1r	.
.	.	8CC	.	8CJ 8E 8G 8c 8e 8b-	.	8CJ 8G 8B- 8e 8g	.	.	.	8E	.	.	.	.	.	.	.
.	.	8CC	.	8CL 8E 8G 8c 8e 8b-	.	8CL 8G 8B- 8e 8g	.	.	.	8C	.	.	.	.	.	.	.
.	.	[8CCJ	.	16CL 16E 16G 16c 16e 16b-	.	16CL 16G 16B- 16e 16g	.	.	.	8EJ	.	.	.	.	.	.	.
.	.	.	.	16CJJ 16E 16G 16c 16e 16b-	.	16CJJ 16G 16B- 16e 16g	.	.	.	.	.	.	.	.	.	.	.
.	.	8CCL]	.	16CLL 16E 16G 16c 16e 16b-	.	16CLL 16G 16B- 16e 16g	.	.	.	8GL	.	.	.	.	.	.	.
.	.	.	.	16CJ 16E 16G 16c 16e 16b-	.	16CJ 16G 16B- 16e 16g	.	.	.	.	.	.	.	.	.	.	.
.	.	8GGG	.	8CJ 8E 8G 8c 8e 8b-	.	8CJ 8G 8B- 8e 8g	.	.	.	8E	.	.	.	.	.	.	.
.	.	8CC	.	8CL 8E 8G 8c 8e 8b-	.	8CL 8G 8B- 8e 8g	.	.	.	8G	.	.	.	.	.	.	.
.	.	8EEJ	.	16CL 16E 16G 16c 16e 16b-	.	16CL 16G 16B- 16e 16g	.	.	.	8EJ	.	.	.	.	.	.	.
.	.	.	.	16CJJ 16E 16G 16c 16e 16b-	.	16CJJ 16G 16B- 16e 16g	.	.	.	.	.	.	.	.	.	.	.
=110	=110	=110	=110	=110	=110	=110	=110	=110	=110	=110	=110	=110	=110	=110	=110	=110	=110
4.a	.	8FFFL	.	8FL 8A 8c 8f 8a	.	8FL 8c 8f 8a	.	4.A	.	8AL	.	2a	.	4.a	.	1r	.
.	.	8FFF	.	8FJ 8A 8c 8f 8a	.	8FJ 8c 8f 8a	.	.	.	8F	.	.	.	.	.	.	.
.	.	8CC	.	8FL 8A 8c 8f 8a	.	8FL 8c 8f 8a	.	.	.	8A	.	.	.	.	.	.	.
8cc	.	[8FFJ	.	16FL 16A 16c 16f 16a	.	16FL 16c 16f 16a	.	8c	.	8FJ	.	.	.	8cc	.	.	.
.	.	.	.	16FJJ 16A 16c 16f 16a	.	16FJJ 16c 16f 16a	.	.	.	.	.	.	.	.	.	.	.
2cc	.	8FFL]	.	16FLL 16A 16c 16f 16a	.	16FLL 16c 16f 16a	.	2c	.	8AL	.	2cc	.	2cc	.	.	.
.	.	.	.	16FJ 16A 16c 16f 16a	.	16FJ 16c 16f 16a	.	.	.	.	.	.	.	.	.	.	.
.	.	8CC	.	8FJ 8A 8c 8f 8a	.	8FJ 8c 8f 8a	.	.	.	8F	.	.	.	.	.	.	.
.	.	8FF	.	8FL 8A 8c 8f 8a	.	8FL 8c 8f 8a	.	.	.	8A	.	.	.	.	.	.	.
.	.	8CCJ	.	16FL 16A 16c 16f 16a	.	16FL 16c 16f 16a	.	.	.	8FJ	.	.	.	.	.	.	.
.	.	.	.	16FJJ 16A 16c 16f 16a	.	16FJJ 16c 16f 16a	.	.	.	.	.	.	.	.	.	.	.
=111	=111	=111	=111	=111	=111	=111	=111	=111	=111	=111	=111	=111	=111	=111	=111	=111	=111
4.a	.	8AAAL	.	8AL 8c#X 8f 8a	.	8AL 8c#X 8f 8a	.	4.A	.	8C#XL	.	2cc#X	.	4.a	.	1r	.
.	.	8AAA	.	8AJ 8c# 8f 8a	.	8AJ 8c# 8f 8a	.	.	.	8F	.	.	.	.	.	.	.
.	.	8EE	.	8AL 8c# 8f 8a	.	8AL 8c# 8f 8a	.	.	.	8C#	.	.	.	.	.	.	.
8g	.	[8AAJ	.	16AL 16c# 16f 16a	.	16AL 16c# 16f 16a	.	8G	.	8FJ	.	.	.	8g	.	.	.
.	.	.	.	16AJJ 16c# 16f 16a	.	16AJJ 16c# 16f 16a	.	.	.	.	.	.	.	.	.	.	.
2f	.	8AAL]	.	16ALL 16c# 16f 16a	.	16ALL 16c# 16f 16a	.	2F	.	8AL	.	2f	.	2f	.	.	.
.	.	.	.	16AJ 16c# 16f 16a	.	16AJ 16c# 16f 16a	.	.	.	.	.	.	.	.	.	.	.
.	.	8EE	.	8AJ 8c# 8f 8a	.	8AJ 8c# 8f 8a	.	.	.	8F	.	.	.	.	.	.	.
.	.	8CC#X	.	8AL 8c# 8f 8a	.	8AL 8c# 8f 8a	.	.	.	8A	.	.	.	.	.	.	.
.	.	8AAAJ	.	16AL 16c# 16f 16a	.	16AL 16c# 16f 16a	.	.	.	8C#J	.	.	.	.	.	.	.
.	.	.	.	16AJJ 16c# 16f 16a	.	16AJJ 16c# 16f 16a	.	.	.	.	.	.	.	.	.	.	.
=112	=112	=112	=112	=112	=112	=112	=112	=112	=112	=112	=112	=112	=112	=112	=112	=112	=112
4.g	.	8BBB-L	.	8BB-L 8F 8B- 8d 8f 8b-	.	8BB-L 8F 8B- 8d 8f 8b-	.	4.G	.	8B-L	.	2b-	.	4.g	.	1r	.
.	.	8BBB-	.	8BB-J 8F 8B- 8d 8f 8b-	.	8BB-J 8F 8B- 8d 8f 8b-	.	.	.	8B-	.	.	.	.	.	.	.
.	.	8DD	.	8BB-L 8F 8B- 8d 8f 8b-	.	8BB-L 8F 8B- 8d 8f 8b-	.	.	.	8d	.	.	.	.	.	.	.
8a	.	8FFJ	.	16BB-L 16F 16B- 16d 16f 16b-	.	16BB-L 16F 16B- 16d 16f 16b-	.	8A	.	8fJ	.	.	.	8a	.	.	.
.	.	.	.	16BB-JJ 16F 16B- 16d 16f 16b-	.	16BB-JJ 16F 16B- 16d 16f 16b-	.	.	.	.	.	.	.	.	.	.	.
4.g	.	8CCL	.	16CLL 16E 16G 16c 16e 16cc	.	16CLL 16G 16c 16e 16g	.	4.G	.	8cL	.	2cc	.	4.g	.	.	.
.	.	.	.	16CJ 16E 16G 16c 16e 16cc	.	16CJ 16G 16c 16e 16g	.	.	.	.	.	.	.	.	.	.	.
.	.	8CC	.	8CJ 8E 8G 8c 8e 8cc	.	8CJ 8G 8c 8e 8g	.	.	.	8c	.	.	.	.	.	.	.
.	.	8EE	.	8CL 8E 8G 8c 8e 8cc	.	8CL 8G 8c 8e 8g	.	.	.	8e	.	.	.	.	.	.	.
8f	.	8GGJ	.	16CL 16E 16G 16c 16e 16cc	.	16CL 16G 16c 16e 16g	.	8F	.	8gJ	.	.	.	8f	.	.	.
.	.	.	.	16CJJ 16E 16G 16c 16e 16cc	.	16CJJ 16G 16c 16e 16g	.	.	.	.	.	.	.	.	.	.	.
=113	=113	=113	=113	=113	=113	=113	=113	=113	=113	=113	=113	=113	=113	=113	=113	=113	=113
1f	.	8FFFL	.	8FL 8A 8c 8f 8a	.	8FL 8c 8f 8a	.	1F	.	8aL	.	1a	.	1f	.	1r	.
.	.	8AAA	.	8FJ 8A 8c 8f 8a	.	8FJ 8c 8f 8a	.	.	.	8f	.	.	.	.	.	.	.
.	.	8CC	.	8FL 8A 8c 8f 8a	.	8FL 8c 8f 8a	.	.	.	8c	.	.	.	.	.	.	.
.	.	[8FFJ	.	16FL 16A 16c 16f 16a	.	16FL 16c 16f 16a	.	.	.	8AJ	.	.	.	.	.	.	.
.	.	.	.	16FJJ 16A 16c 16f 16a	.	16FJJ 16c 16f 16a	.	.	.	.	.	.	.	.	.	.	.
.	.	8FFL]	.	16FLL 16A 16c 16f 16a	.	16FLL 16c 16f 16a	.	.	.	8fL	.	.	.	.	.	.	.
.	.	.	.	16FJ 16A 16c 16f 16a	.	16FJ 16c 16f 16a	.	.	.	.	.	.	.	.	.	.	.
.	.	8CC	.	8FJ 8A 8c 8f 8a	.	8FJ 8c 8f 8a	.	.	.	8c	.	.	.	.	.	.	.
.	.	8AAA	.	8FL 8A 8c 8f 8a	.	8FL 8c 8f 8a	.	.	.	8A	.	.	.	.	.	.	.
.	.	8FFFJ	.	16FL 16A 16c 16f 16a	.	16FL 16c 16f 16a	.	.	.	8FJ	.	.	.	.	.	.	.
.	.	.	.	16FJJ 16A 16c 16f 16a	.	16FJJ 16c 16f 16a	.	.	.	.	.	.	.	.	.	.	.
=114	=114	=114	=114	=114	=114	=114	=114	=114	=114	=114	=114	=114	=114	=114	=114	=114	=114
4.dd	.	8BBB-	.	8FL 8B- 8d 8f 8a	.	8BB-L 8D 8F 8B- 8d 8a	.	8BB-L	.	4.d	.	4.dd	.	[1dd [1ff [1aa	.	1r	.
.	.	8r	.	8FJ 8B- 8d 8f 8a	.	8BB-J 8D 8F 8B- 8d 8a	.	8BB- 8B-	.	.	.	.	.	.	.	.	.
.	.	8BBB-	.	8FL 8B- 8d 8f 8a	.	8BB-L 8D 8F 8B- 8d 8a	.	8BB-	.	.	.	.	.	.	.	.	.
8ff	.	8r	.	16FL 16B- 16d 16f 16a	.	16BB-L 16D 16F 16B- 16d 16a	.	8BB-J 8B-	.	8f	.	8ff	.	.	.	.	.
.	.	.	.	16FJJ 16B- 16d 16f 16a	.	16BB-JJ 16D 16F 16B- 16d 16a	.	.	.	.	.	.	.	.	.	.	.
2ff	.	8BBB-	.	16FLL 16B- 16d 16f 16a	.	16BB-LL 16D 16F 16B- 16d 16a	.	8BB-L	.	2f	.	2ff	.	.	.	.	.
.	.	.	.	16FJ 16B- 16d 16f 16a	.	16BB-J 16D 16F 16B- 16d 16a	.	.	.	.	.	.	.	.	.	.	.
.	.	8r	.	8FJ 8B- 8d 8f 8a	.	8BB-J 8D 8F 8B- 8d 8a	.	8BB- 8B-	.	.	.	.	.	.	.	.	.
.	.	8BBB-	.	8FL 8B- 8d 8f 8a	.	8BB-L 8D 8F 8B- 8d 8a	.	8BB-	.	.	.	.	.	.	.	.	.
.	.	8r	.	16FL 16B- 16d 16f 16a	.	16BB-L 16D 16F 16B- 16d 16a	.	8BB-J 8B-	.	.	.	.	.	.	.	.	.
.	.	.	.	16FJJ 16B- 16d 16f 16a	.	16BB-JJ 16D 16F 16B- 16d 16a	.	.	.	.	.	.	.	.	.	.	.
=115	=115	=115	=115	=115	=115	=115	=115	=115	=115	=115	=115	=115	=115	=115	=115	=115	=115
4ee	.	8AAA	.	8AAL 8E 8G 8c 8e 8a	.	8AAL 8E 8G 8c 8e 8a	.	8AAL	.	4e	.	4ee	.	2dd] 2ff] 2aa]	.	1r	.
.	.	8r	.	8AAJ 8E 8G 8c 8e 8a	.	8AAJ 8E 8G 8c 8e 8a	.	8AA 8A	.	.	.	.	.	.	.	.	.
4cc	.	8AAA	.	8AAL 8E 8G 8c 8e 8a	.	8AAL 8E 8G 8c 8e 8a	.	8AA	.	4c	.	4cc	.	.	.	.	.
.	.	8r	.	16AAL 16E 16G 16c 16e 16a	.	16AAL 16E 16G 16c 16e 16a	.	8AAJ 8A	.	.	.	.	.	.	.	.	.
.	.	.	.	16AAJJ 16E 16G 16c 16e 16a	.	16AAJJ 16E 16G 16c 16e 16a	.	.	.	.	.	.	.	.	.	.	.
2dd	.	8DD	.	16DLL 16A 16c 16f 16a	.	16DLL 16A 16c 16f 16a	.	8DL	.	2d	.	2dd	.	2dd 2ff 2aa	.	.	.
.	.	.	.	16DJ 16A 16c 16f 16a	.	16DJ 16A 16c 16f 16a	.	.	.	.	.	.	.	.	.	.	.
.	.	8r	.	8DJ 8A 8c 8f 8a	.	8DJ 8A 8c 8f 8a	.	8D 8d	.	.	.	.	.	.	.	.	.
.	.	8CC	.	8DL 8A 8c 8f 8a	.	8DL 8A 8c 8f 8a	.	8C	.	.	.	.	.	.	.	.	.
.	.	8r	.	16DL 16A 16c 16f 16a	.	16DL 16A 16c 16f 16a	.	8CJ 8c	.	.	.	.	.	.	.	.	.
.	.	.	.	16DJJ 16A 16c 16f 16a	.	16DJJ 16A 16c 16f 16a	.	.	.	.	.	.	.	.	.	.	.
=116	=116	=116	=116	=116	=116	=116	=116	=116	=116	=116	=116	=116	=116	=116	=116	=116	=116
4dd	.	8BBB-	.	8BB-L 8F 8B- 8d 8f 8b-	.	8BB-L 8F 8B- 8d 8f 8b-	.	8BB-L	.	4d	.	4dd	.	2dd 2ff 2aa	.	1r	.
.	.	8r	.	8BB-J 8F 8B- 8d 8f 8b-	.	8BB-J 8F 8B- 8d 8f 8b-	.	8BB- 8B-	.	.	.	.	.	.	.	.	.
4ff	.	8BBB-	.	8BB-L 8F 8B- 8d 8f 8b-	.	8BB-L 8F 8B- 8d 8f 8b-	.	8BB-	.	4f	.	4ff	.	.	.	.	.
.	.	8r	.	16BB-L 16F 16B- 16d 16f 16b-	.	16BB-L 16F 16B- 16d 16f 16b-	.	8BB-J 8B-	.	.	.	.	.	.	.	.	.
.	.	.	.	16BB-JJ 16F 16B- 16d 16f 16b-	.	16BB-JJ 16F 16B- 16d 16f 16b-	.	.	.	.	.	.	.	.	.	.	.
4ee	.	8AAA	.	16AALL 16E 16G 16c 16e 16a	.	16AALL 16E 16G 16c 16e 16a	.	8AAL	.	4e	.	4ee	.	2cc 2ee 2gg	.	.	.
.	.	.	.	16AAJ 16E 16G 16c 16e 16a	.	16AAJ 16E 16G 16c 16e 16a	.	.	.	.	.	.	.	.	.	.	.
.	.	8r	.	8AAJ 8E 8G 8c 8e 8a	.	8AAJ 8E 8G 8c 8e 8a	.	8AA 8A	.	.	.	.	.	.	.	.	.
4cc	.	8AAA	.	8AAL 8E 8G 8c 8e 8a	.	8AAL 8E 8G 8c 8e 8a	.	8AA	.	4c	.	4cc	.	.	.	.	.
.	.	8r	.	16AAL 16E 16G 16c 16e 16a	.	16AAL 16E 16G 16c 16e 16a	.	8AAJ 8A	.	.	.	.	.	.	.	.	.
.	.	.	.	16AAJJ 16E 16G 16c 16e 16a	.	16AAJJ 16E 16G 16c 16e 16a	.	.	.	.	.	.	.	.	.	.	.
=117	=117	=117	=117	=117	=117	=117	=117	=117	=117	=117	=117	=117	=117	=117	=117	=117	=117
1dd	.	8BBB-	.	8BB-L 8F 8B- 8d 8f 8b-	.	8BB-L 8F 8B- 8d 8f 8b-	.	8BB-L	.	1d	.	1dd	.	1dd 1ff 1bb-	.	1r	.
.	.	8r	.	8BB-J 8F 8B- 8d 8f 8b-	.	8BB-J 8F 8B- 8d 8f 8b-	.	8BB- 8B-	.	.	.	.	.	.	.	.	.
.	.	8BBB-	.	8BB-L 8F 8B- 8d 8f 8b-	.	8BB-L 8F 8B- 8d 8f 8b-	.	8D	.	.	.	.	.	.	.	.	.
.	.	8r	.	16BB-L 16F 16B- 16d 16f 16b-	.	16BB-L 16F 16B- 16d 16f 16b-	.	8DJ 8d	.	.	.	.	.	.	.	.	.
.	.	.	.	16BB-JJ 16F 16B- 16d 16f 16b-	.	16BB-JJ 16F 16B- 16d 16f 16b-	.	.	.	.	.	.	.	.	.	.	.
.	.	8BBB-	.	16BB-LL 16F 16B- 16d 16f 16b-	.	16BB-LL 16F 16B- 16d 16f 16b-	.	8FL	.	.	.	.	.	.	.	.	.
.	.	.	.	16BB-J 16F 16B- 16d 16f 16b-	.	16BB-J 16F 16B- 16d 16f 16b-	.	.	.	.	.	.	.	.	.	.	.
.	.	8r	.	8BB-J 8F 8B- 8d 8f 8b-	.	8BB-J 8F 8B- 8d 8f 8b-	.	8F 8f	.	.	.	.	.	.	.	.	.
.	.	8BBB-	.	8BB-L 8F 8B- 8d 8f 8b-	.	8BB-L 8F 8B- 8d 8f 8b-	.	8D	.	.	.	.	.	.	.	.	.
.	.	8r	.	16BB-L 16F 16B- 16d 16f 16b-	.	16BB-L 16F 16B- 16d 16f 16b-	.	8DJ 8d	.	.	.	.	.	.	.	.	.
.	.	.	.	16BB-JJ 16F 16B- 16d 16f 16b-	.	16BB-JJ 16F 16B- 16d 16f 16b-	.	.	.	.	.	.	.	.	.	.	.
=118	=118	=118	=118	=118	=118	=118	=118	=118	=118	=118	=118	=118	=118	=118	=118	=118	=118
4.a	.	8DD	.	8r	.	8r	.	8DL	.	4.A	.	4.a	.	8r	.	1r	.
.	.	8r	.	8DL 8A 8d 8f 8a	.	8DL 8A 8d 8f 8a	.	8D 8d	.	.	.	.	.	8aL 8dd 8ff	mf	.	.
.	.	8DD	.	8DJ 8A 8d 8f 8a	.	8DJ 8A 8d 8f 8a	.	8D	.	.	.	.	.	8aJ 8dd 8ff	.	.	.
8cc	.	8r	.	8r	.	8r	.	8DJ 8d	.	8c	.	8cc	.	8r	.	.	.
2cc	.	8DD-X	.	8r	.	8r	.	8D-XL	.	2c	.	2cc	.	8r	.	.	.
.	.	8r	.	8DL 8A 8c#X 8f 8a	.	8DL 8A 8c#X 8f 8a	.	8D- 8d-X	.	.	.	.	.	8aL 8dd-X 8ff	.	.	.
.	.	8DD-	.	8DJ 8A 8c# 8f 8a	.	8DJ 8A 8c# 8f 8a	.	8D-	.	.	.	.	.	8aJ 8dd- 8ff	.	.	.
.	.	8r	.	8r	.	8r	.	8D-J 8d-	.	.	.	.	.	8r	.	.	.
=119	=119	=119	=119	=119	=119	=119	=119	=119	=119	=119	=119	=119	=119	=119	=119	=119	=119
4.ff	.	8CC	.	8r	.	8r	.	8CL	.	4.f	.	4.ff	.	8r	.	1r	.
.	.	8r	.	8DL 8A 8c 8f 8a	.	8DL 8A 8c 8f 8a	.	8C 8c	.	.	.	.	.	8aL 8cc 8ff	.	.	.
.	.	8CC	.	8DJ 8A 8c 8f 8a	.	8DJ 8A 8c 8f 8a	.	8C	.	.	.	.	.	8aJ 8cc 8ff	.	.	.
8gg	.	8r	.	8r	.	8r	.	8CJ 8c	.	8g	.	8gg	.	8r	.	.	.
2aa	.	8CC-X	.	8r	.	8r	.	8BBnL	.	2a	.	2aa	.	8r	.	.	.
.	.	8r	.	8DL 8A 8d 8f 8bn	.	8DL 8F 8Bn 8d 8a	.	8BB 8Bn	.	.	.	.	.	8gL 8bn 8ff	.	.	.
.	.	8CC-	.	8DJ 8A 8d 8f 8b	.	8DJ 8F 8B 8d 8a	.	8BB	.	.	.	.	.	8gJ 8b 8ff	.	.	.
.	.	8r	.	8r	.	8r	.	8BBJ 8B	.	.	.	.	.	8r	.	.	.
=120	=120	=120	=120	=120	=120	=120	=120	=120	=120	=120	=120	=120	=120	=120	=120	=120	=120
*M2/4	*	*M2/4	*	*M2/4	*	*M2/4	*	*M2/4	*	*M2/4	*	*M2/4	*	*M2/4	*	*M2/4	*
2r	.	2r	.	2dd 2ff	.	2ff 2aa	.	2r	.	2r	.	8.r	.	2r	.	2r	.
.	.	.	.	.	.	.	.	.	.	.	.	16eee-X	.	.	.	.	.
.	.	.	.	.	.	.	.	.	.	.	.	24aaLL	.	.	.	.	.
.	.	.	.	.	.	.	.	.	.	.	.	24ff	.	.	.	.	.
.	.	.	.	.	.	.	.	.	.	.	.	24bn	.	.	.	.	.
.	.	.	.	.	.	.	.	.	.	.	.	24a	.	.	.	.	.
.	.	.	.	.	.	.	.	.	.	.	.	24f	.	.	.	.	.
.	.	.	.	.	.	.	.	.	.	.	.	24BnJJ	.	.	.	.	.
=121	=121	=121	=121	=121	=121	=121	=121	=121	=121	=121	=121	=121	=121	=121	=121	=121	=121
*M4/4	*	*M4/4	*	*M4/4	*	*M4/4	*	*M4/4	*	*M4/4	*	*M4/4	*	*M4/4	*	*M4/4	*
4.gg	.	8GGG	.	4G 4d 4f 4b-	.	4GG 4D 4F 4B- 4d 4g	.	8GGL	.	4.g	.	4.gg	.	2g	.	1r	.
.	.	8r	.	.	.	.	.	8GG	.	.	.	.	.	.	.	.	.
.	.	8GGG	.	4G 4d 4f 4b-	.	4GG 4D 4F 4B- 4d 4g	.	8D	.	.	.	.	.	.	.	.	.
8ff	.	8r	.	.	.	.	.	8DJ	.	8f	.	8ff	.	.	.	.	.
4gg	.	8CC	.	4C 4E 4G 4c 4e 4cc	.	4C 4G 4c 4e 4g	.	8CL	.	4g	.	4gg	.	2cc	.	.	.
.	.	8r	.	.	.	.	.	8E	.	.	.	.	.	.	.	.	.
4dd	.	8CC	.	4C 4E 4G 4c 4e 4cc	.	4C 4G 4c 4e 4g	.	8G	.	4d	.	4dd	.	.	.	.	.
.	.	8r	.	.	.	.	.	8CJ	.	.	.	.	.	.	.	.	.
=122	=122	=122	=122	=122	=122	=122	=122	=122	=122	=122	=122	=122	=122	=122	=122	=122	=122
[1ff	.	8FFF	.	4F 4B- 4c 4f 4b-	.	4F 4c 4f 4b-	.	8FFL	.	[1f	.	[1ff	.	(16fLL	.	1r	.
.	.	.	.	.	.	.	.	.	.	.	.	.	.	16g	.	.	.
.	.	8r	.	.	.	.	.	8FF	.	.	.	.	.	16a	.	.	.
.	.	.	.	.	.	.	.	.	.	.	.	.	.	16b-JJ	.	.	.
.	.	8FFF	.	4c	.	4c	.	8AA	.	.	.	.	.	16gLL	.	.	.
.	.	.	.	.	.	.	.	.	.	.	.	.	.	16a	.	.	.
.	.	8r	.	.	.	.	.	8FFJ	.	.	.	.	.	16b-	.	.	.
.	.	.	.	.	.	.	.	.	.	.	.	.	.	16ccJJ	.	.	.
.	.	8FFF	.	4f	.	4f	.	8CL	.	.	.	.	.	16aLL	.	.	.
.	.	.	.	.	.	.	.	.	.	.	.	.	.	16b-	.	.	.
.	.	8r	.	.	.	.	.	8C	.	.	.	.	.	16cc	.	.	.
.	.	.	.	.	.	.	.	.	.	.	.	.	.	16ddJJ	.	.	.
.	.	8FFF	.	4b-	.	4b-	.	8GG	.	.	.	.	.	16b-LL	.	.	.
.	.	.	.	.	.	.	.	.	.	.	.	.	.	16cc	.	.	.
.	.	8r	.	.	.	.	.	8AAJ	.	.	.	.	.	16dd	.	.	.
.	.	.	.	.	.	.	.	.	.	.	.	.	.	16eeJJ	.	.	.
=123	=123	=123	=123	=123	=123	=123	=123	=123	=123	=123	=123	=123	=123	=123	=123	=123	=123
1ff;]	.	1FFF;	.	1F: 1A: 1c: 1f: 1a:	.	1F;: 1c: 1f: 1a:	.	1FF;	.	1f;]	.	1ff;]	.	1ff;)	.	1r	.
=124||	=124||	=124||	=124||	=124||	=124||	=124||	=124||	=124||	=124||	=124||	=124||	=124||	=124||	=124||	=124||	=124||	=124||
*M2/4	*	*M2/4	*	*M2/4	*	*M2/4	*	*M2/4	*	*M2/4	*	*M2/4	*	*M2/4	*	*M2/4	*
2r	.	2r	.	2r	.	2r	.	2r	.	2r	.	4r	.	4r	.	4r	.
.	.	.	.	.	.	.	.	.	.	.	.	8aaL	mf	8aaL	mf	8aaL	mf
.	.	.	.	.	.	.	.	.	.	.	.	8ggJ	.	8ggJ	.	8ggJ	.
=125	=125	=125	=125	=125	=125	=125	=125	=125	=125	=125	=125	=125	=125	=125	=125	=125	=125
*M3/4	*	*M3/4	*	*M3/4	*	*M3/4	*	*M3/4	*	*M3/4	*	*M3/4	*	*M3/4	*	*M3/4	*
*	*	*	*	*	*	*	*	*tremolo	*	*	*	*	*	*	*	*	*
*	*	*	*	*	*	*	*	*	*	*tremolo	*	*	*	*	*	*	*
2.r	.	2.FF	mp mp	2.r	.	2.F 2.c 2.f 2.a	mp	32FLLL	mp	32fLLL	mp	4.ff	.	4.ff	.	4.ff	.
.	.	.	.	.	.	.	.	32F	.	32f	.	.	.	.	.	.	.
.	.	.	.	.	.	.	.	32F	.	32f	.	.	.	.	.	.	.
.	.	.	.	.	.	.	.	32F	.	32f	.	.	.	.	.	.	.
.	.	.	.	.	.	.	.	32F	.	32f	.	.	.	.	.	.	.
.	.	.	.	.	.	.	.	32F	.	32f	.	.	.	.	.	.	.
.	.	.	.	.	.	.	.	32F	.	32f	.	.	.	.	.	.	.
.	.	.	.	.	.	.	.	32F	.	32f	.	.	.	.	.	.	.
.	.	.	.	.	.	.	.	32F	.	32f	.	.	.	.	.	.	.
.	.	.	.	.	.	.	.	32F	.	32f	.	.	.	.	.	.	.
.	.	.	.	.	.	.	.	32F	.	32f	.	.	.	.	.	.	.
.	.	.	.	.	.	.	.	32F	.	32f	.	.	.	.	.	.	.
.	.	.	.	.	.	.	.	32F	.	32f	.	8ff	.	8ff	.	8ff	.
.	.	.	.	.	.	.	.	32F	.	32f	.	.	.	.	.	.	.
.	.	.	.	.	.	.	.	32F	.	32f	.	.	.	.	.	.	.
.	.	.	.	.	.	.	.	32F	.	32f	.	.	.	.	.	.	.
.	.	.	.	.	.	.	.	32F	.	32f	.	8eeL	.	8eeL	.	8eeL	.
.	.	.	.	.	.	.	.	32F	.	32f	.	.	.	.	.	.	.
.	.	.	.	.	.	.	.	32F	.	32f	.	.	.	.	.	.	.
.	.	.	.	.	.	.	.	32F	.	32f	.	.	.	.	.	.	.
.	.	.	.	.	.	.	.	32F	.	32f	.	8ddJ	.	8ddJ	.	8ddJ	.
.	.	.	.	.	.	.	.	32F	.	32f	.	.	.	.	.	.	.
.	.	.	.	.	.	.	.	32F	.	32f	.	.	.	.	.	.	.
.	.	.	.	.	.	.	.	32FJJJ	.	32fJJJ	.	.	.	.	.	.	.
=126	=126	=126	=126	=126	=126	=126	=126	=126	=126	=126	=126	=126	=126	=126	=126	=126	=126
2.r	.	2.AA	.	2.r	.	2.AA 2.E 2.G 2.c 2.e 2.a	.	32ALLL	.	32eLLL	.	4.cc	.	4.cc	.	4.cc	.
.	.	.	.	.	.	.	.	32A	.	32e	.	.	.	.	.	.	.
.	.	.	.	.	.	.	.	32A	.	32e	.	.	.	.	.	.	.
.	.	.	.	.	.	.	.	32A	.	32e	.	.	.	.	.	.	.
.	.	.	.	.	.	.	.	32A	.	32e	.	.	.	.	.	.	.
.	.	.	.	.	.	.	.	32A	.	32e	.	.	.	.	.	.	.
.	.	.	.	.	.	.	.	32A	.	32e	.	.	.	.	.	.	.
.	.	.	.	.	.	.	.	32A	.	32e	.	.	.	.	.	.	.
.	.	.	.	.	.	.	.	32A	.	32e	.	.	.	.	.	.	.
.	.	.	.	.	.	.	.	32A	.	32e	.	.	.	.	.	.	.
.	.	.	.	.	.	.	.	32A	.	32e	.	.	.	.	.	.	.
.	.	.	.	.	.	.	.	32A	.	32e	.	.	.	.	.	.	.
.	.	.	.	.	.	.	.	32A	.	32e	.	8r	.	8r	.	8r	.
.	.	.	.	.	.	.	.	32A	.	32e	.	.	.	.	.	.	.
.	.	.	.	.	.	.	.	32A	.	32e	.	.	.	.	.	.	.
.	.	.	.	.	.	.	.	32A	.	32e	.	.	.	.	.	.	.
.	.	.	.	.	.	.	.	32A	.	32e	.	8aL	.	8aL	.	8aL	.
.	.	.	.	.	.	.	.	32A	.	32e	.	.	.	.	.	.	.
.	.	.	.	.	.	.	.	32A	.	32e	.	.	.	.	.	.	.
.	.	.	.	.	.	.	.	32A	.	32e	.	.	.	.	.	.	.
.	.	.	.	.	.	.	.	32A	.	32e	.	8ccJ	.	8ccJ	.	8ccJ	.
.	.	.	.	.	.	.	.	32A	.	32e	.	.	.	.	.	.	.
.	.	.	.	.	.	.	.	32A	.	32e	.	.	.	.	.	.	.
.	.	.	.	.	.	.	.	32AJJJ	.	32eJJJ	.	.	.	.	.	.	.
=127	=127	=127	=127	=127	=127	=127	=127	=127	=127	=127	=127	=127	=127	=127	=127	=127	=127
2.r	.	2.BB-	.	2.r	.	2.BB- 2.F 2.B- 2.d 2.f 2.b-	.	32B-LLL	.	32dLLL	.	4dd	.	4dd	.	4dd	.
.	.	.	.	.	.	.	.	32B-	.	32d	.	.	.	.	.	.	.
.	.	.	.	.	.	.	.	32B-	.	32d	.	.	.	.	.	.	.
.	.	.	.	.	.	.	.	32B-	.	32d	.	.	.	.	.	.	.
.	.	.	.	.	.	.	.	32B-	.	32d	.	.	.	.	.	.	.
.	.	.	.	.	.	.	.	32B-	.	32d	.	.	.	.	.	.	.
.	.	.	.	.	.	.	.	32B-	.	32d	.	.	.	.	.	.	.
.	.	.	.	.	.	.	.	32B-	.	32d	.	.	.	.	.	.	.
.	.	.	.	.	.	.	.	32B-	.	32d	.	4cc	.	4cc	.	4cc	.
.	.	.	.	.	.	.	.	32B-	.	32d	.	.	.	.	.	.	.
.	.	.	.	.	.	.	.	32B-	.	32d	.	.	.	.	.	.	.
.	.	.	.	.	.	.	.	32B-	.	32d	.	.	.	.	.	.	.
.	.	.	.	.	.	.	.	32B-	.	32d	.	.	.	.	.	.	.
.	.	.	.	.	.	.	.	32B-	.	32d	.	.	.	.	.	.	.
.	.	.	.	.	.	.	.	32B-	.	32d	.	.	.	.	.	.	.
.	.	.	.	.	.	.	.	32B-	.	32d	.	.	.	.	.	.	.
.	.	.	.	.	.	.	.	32B-	.	32d	.	4b-	.	4b-	.	4b-	.
.	.	.	.	.	.	.	.	32B-	.	32d	.	.	.	.	.	.	.
.	.	.	.	.	.	.	.	32B-	.	32d	.	.	.	.	.	.	.
.	.	.	.	.	.	.	.	32B-	.	32d	.	.	.	.	.	.	.
.	.	.	.	.	.	.	.	32B-	.	32d	.	.	.	.	.	.	.
.	.	.	.	.	.	.	.	32B-	.	32d	.	.	.	.	.	.	.
.	.	.	.	.	.	.	.	32B-	.	32d	.	.	.	.	.	.	.
.	.	.	.	.	.	.	.	32B-JJJ	.	32dJJJ	.	.	.	.	.	.	.
=128	=128	=128	=128	=128	=128	=128	=128	=128	=128	=128	=128	=128	=128	=128	=128	=128	=128
2.r	.	2.AA	.	2.r	.	2.F 2.c 2.f 2.a	.	32ALLL	.	32cLLL	.	4.cc	.	4.cc	.	4.cc	.
.	.	.	.	.	.	.	.	32A	.	32c	.	.	.	.	.	.	.
.	.	.	.	.	.	.	.	32A	.	32c	.	.	.	.	.	.	.
.	.	.	.	.	.	.	.	32A	.	32c	.	.	.	.	.	.	.
.	.	.	.	.	.	.	.	32A	.	32c	.	.	.	.	.	.	.
.	.	.	.	.	.	.	.	32A	.	32c	.	.	.	.	.	.	.
.	.	.	.	.	.	.	.	32A	.	32c	.	.	.	.	.	.	.
.	.	.	.	.	.	.	.	32A	.	32c	.	.	.	.	.	.	.
.	.	.	.	.	.	.	.	32A	.	32c	.	.	.	.	.	.	.
.	.	.	.	.	.	.	.	32A	.	32c	.	.	.	.	.	.	.
.	.	.	.	.	.	.	.	32A	.	32c	.	.	.	.	.	.	.
.	.	.	.	.	.	.	.	32A	.	32c	.	.	.	.	.	.	.
.	.	.	.	.	.	.	.	32A	.	32c	.	8r	.	8r	.	8r	.
.	.	.	.	.	.	.	.	32A	.	32c	.	.	.	.	.	.	.
.	.	.	.	.	.	.	.	32A	.	32c	.	.	.	.	.	.	.
.	.	.	.	.	.	.	.	32AJJJ	.	32cJJJ	.	.	.	.	.	.	.
*	*	*	*	*	*	*	*	*	*	*Xtremolo	*	*	*	*	*	*	*
*	*	*	*	*	*	*	*	*Xtremolo	*	*	*	*	*	*	*	*	*
.	.	.	.	.	.	.	.	8FL	mf	8fL	mf	4r	.	4r	.	4r	.
.	.	.	.	.	.	.	.	8GJ	.	8gJ	.	.	.	.	.	.	.
=129	=129	=129	=129	=129	=129	=129	=129	=129	=129	=129	=129	=129	=129	=129	=129	=129	=129
*	*	*	*	*	*	*	*	*	*	*	*	*	*	*tremolo	*	*	*
*	*	*	*	*	*	*	*	*	*	*	*	*	*	*	*	*tremolo	*
2.r	.	2.GG	.	2.r	.	2.GG 2.D 2.F 2.B- 2.d 2.g	.	4.A	.	4.a	.	32dLLL	mp	32fLLL	mp	32fLLL	mp
.	.	.	.	.	.	.	.	.	.	.	.	32d	.	32f	.	32f	.
.	.	.	.	.	.	.	.	.	.	.	.	32d	.	32f	.	32f	.
.	.	.	.	.	.	.	.	.	.	.	.	32d	.	32f	.	32f	.
.	.	.	.	.	.	.	.	.	.	.	.	32d	.	32f	.	32f	.
.	.	.	.	.	.	.	.	.	.	.	.	32d	.	32f	.	32f	.
.	.	.	.	.	.	.	.	.	.	.	.	32d	.	32f	.	32f	.
.	.	.	.	.	.	.	.	.	.	.	.	32d	.	32f	.	32f	.
.	.	.	.	.	.	.	.	.	.	.	.	32d	.	32f	.	32f	.
.	.	.	.	.	.	.	.	.	.	.	.	32d	.	32f	.	32f	.
.	.	.	.	.	.	.	.	.	.	.	.	32d	.	32f	.	32f	.
.	.	.	.	.	.	.	.	.	.	.	.	32d	.	32f	.	32f	.
.	.	.	.	.	.	.	.	8A	.	8a	.	32d	.	32f	.	32f	.
.	.	.	.	.	.	.	.	.	.	.	.	32d	.	32f	.	32f	.
.	.	.	.	.	.	.	.	.	.	.	.	32d	.	32f	.	32f	.
.	.	.	.	.	.	.	.	.	.	.	.	32d	.	32f	.	32f	.
.	.	.	.	.	.	.	.	8GL	.	8gL	.	32d	.	32f	.	32f	.
.	.	.	.	.	.	.	.	.	.	.	.	32d	.	32f	.	32f	.
.	.	.	.	.	.	.	.	.	.	.	.	32d	.	32f	.	32f	.
.	.	.	.	.	.	.	.	.	.	.	.	32d	.	32f	.	32f	.
.	.	.	.	.	.	.	.	8FJ	.	8fJ	.	32d	.	32f	.	32f	.
.	.	.	.	.	.	.	.	.	.	.	.	32d	.	32f	.	32f	.
.	.	.	.	.	.	.	.	.	.	.	.	32d	.	32f	.	32f	.
.	.	.	.	.	.	.	.	.	.	.	.	32dJJJ	.	32fJJJ	.	32fJJJ	.
=130	=130	=130	=130	=130	=130	=130	=130	=130	=130	=130	=130	=130	=130	=130	=130	=130	=130
2.r	.	2.C	.	2.r	.	2.C 2.G 2.c 2.e 2.g	.	8G	.	8g	.	32gLLL	.	32ccLLL	.	32ccLLL	.
.	.	.	.	.	.	.	.	.	.	.	.	32g	.	32cc	.	32cc	.
.	.	.	.	.	.	.	.	.	.	.	.	32g	.	32cc	.	32cc	.
.	.	.	.	.	.	.	.	.	.	.	.	32g	.	32cc	.	32cc	.
.	.	.	.	.	.	.	.	4c	.	4cc	.	32g	.	32cc	.	32cc	.
.	.	.	.	.	.	.	.	.	.	.	.	32g	.	32cc	.	32cc	.
.	.	.	.	.	.	.	.	.	.	.	.	32g	.	32cc	.	32cc	.
.	.	.	.	.	.	.	.	.	.	.	.	32g	.	32cc	.	32cc	.
.	.	.	.	.	.	.	.	.	.	.	.	32g	.	32cc	.	32cc	.
.	.	.	.	.	.	.	.	.	.	.	.	32g	.	32cc	.	32cc	.
.	.	.	.	.	.	.	.	.	.	.	.	32g	.	32cc	.	32cc	.
.	.	.	.	.	.	.	.	.	.	.	.	32g	.	32cc	.	32cc	.
.	.	.	.	.	.	.	.	8r	.	8r	.	32g	.	32cc	.	32cc	.
.	.	.	.	.	.	.	.	.	.	.	.	32g	.	32cc	.	32cc	.
.	.	.	.	.	.	.	.	.	.	.	.	32g	.	32cc	.	32cc	.
.	.	.	.	.	.	.	.	.	.	.	.	32gJJJ	.	32ccJJJ	.	32ccJJJ	.
*	*	*	*	*	*	*	*	*	*	*	*	*	*	*	*	*Xtremolo	*
*	*	*	*	*	*	*	*	*	*	*	*	*	*	*Xtremolo	*	*	*
*	*	*	*	*	*	*	*	*	*	*	*	*Xtremolo	*	*	*	*	*
.	.	.	.	.	.	.	.	8dL	.	8dL	.	8ddL	mf	8ddL	mf	8ddL	mf
.	.	.	.	.	.	.	.	8eJ	.	8eJ	.	8eeJ	.	8eeJ	.	8eeJ	.
=131	=131	=131	=131	=131	=131	=131	=131	=131	=131	=131	=131	=131	=131	=131	=131	=131	=131
2.r	.	2.DD	.	2.r	.	2.D 2.A 2.c 2.f 2.a	.	4f	.	4f	.	4ff	.	4ff	.	4ff	.
.	.	.	.	.	.	.	.	4d	.	4d	.	4dd	.	4dd	.	4dd	.
.	.	.	.	.	.	.	.	8dL	.	8dL	.	8ddL	.	8ddL	.	8ddL	.
.	.	.	.	.	.	.	.	8fJ	.	8fJ	.	8ffJ	.	8ffJ	.	8ffJ	.
=132	=132	=132	=132	=132	=132	=132	=132	=132	=132	=132	=132	=132	=132	=132	=132	=132	=132
2.r	.	2.CC	.	2.r	.	2.C 2.G 2.c 2.e 2.g	.	2.g	.	2.g	.	2.gg	.	2.gg	.	2.gg	.
=133	=133	=133	=133	=133	=133	=133	=133	=133	=133	=133	=133	=133	=133	=133	=133	=133	=133
2.r	.	2.r	.	2.r	.	2.r	.	2.r	.	2.r	.	2r	.	2r	.	2r	.
.	.	.	.	.	.	.	.	.	.	.	.	8ccc#XL	ff	8bb-L	ff	8bb-L	ff
.	.	.	.	.	.	.	.	.	.	.	.	8bbnJ	.	8aa-XJ	.	8aa-XJ	.
=134||	=134||	=134||	=134||	=134||	=134||	=134||	=134||	=134||	=134||	=134||	=134||	=134||	=134||	=134||	=134||	=134||	=134||
*k[b-e-a-d-g-c-]	*	*k[b-e-a-d-g-c-]	*	*k[b-e-a-d-g-c-]	*	*k[b-e-a-d-g-c-]	*	*k[b-e-a-d-g-c-]	*	*k[b-e-a-d-g-c-]	*	*k[b-e-a-d-g-c-]	*	*k[b-e-a-d-g-c-]	*	*k[b-e-a-d-g-c-]	*
4dd-	ff	4.GG-	ff	4G- 4B- 4d- 4g- 4b-	ff	4G- 4d- 4g- 4b-	ff	4.GG-	ff	[2.b-	ff	4.bb-	.	4.gg-	.	4.gg-	.
4b-	.	.	.	8G-L 8B- 8d- 8g- 8b-	.	8G-L 8d- 8g- 8b-	.	.	.	.	.	.	.	.	.	.	.
.	.	8GG-	.	8G-J 8B- 8d- 8g- 8b-	.	8G-J 8d- 8g- 8b-	.	8G-	.	.	.	8bb-	.	8gg-	.	8gg-	.
4gg-	.	8DD-L	.	8G-L 8B- 8d- 8g- 8b-	.	8G-L 8d- 8g- 8b-	.	8D-L	.	.	.	8aa-L	.	8ffL	.	8ffL	.
.	.	8GG-J	.	8G-J 8B- 8d- 8g- 8b-	.	8G-J 8d- 8g- 8b-	.	8G-J	.	.	.	8gg-J	.	8ee-J	.	8ee-J	.
=135	=135	=135	=135	=135	=135	=135	=135	=135	=135	=135	=135	=135	=135	=135	=135	=135	=135
4ff	.	4BBB-	.	4BB- 4F 4A- 4d- 4f 4b-	.	4BB- 4F 4A- 4d- 4f 4b-	.	4BB-	.	4b-_	.	2ff	.	2dd-	.	2dd-	.
8bb-L	.	4DD-	.	8BB-L 8F 8A- 8d- 8f 8b-	.	8BB-L 8F 8A- 8d- 8f 8b-	.	4D-	.	8.b-L]	.	.	.	.	.	.	.
8ffJ	.	.	.	8BB-J 8F 8A- 8d- 8f 8b-	.	8BB-J 8F 8A- 8d- 8f 8b-	.	.	.	.	.	.	.	.	.	.	.
.	.	.	.	.	.	.	.	.	.	16b-Jk	.	.	.	.	.	.	.
4dd-	.	4FF	.	8BB-L 8F 8A- 8d- 8f 8b-	.	8BB-L 8F 8A- 8d- 8f 8b-	.	4F	.	8b-L	.	8dd-L	.	8b-L	.	8b-L	.
.	.	.	.	8BB-J 8F 8A- 8d- 8f 8b-	.	8BB-J 8F 8A- 8d- 8f 8b-	.	.	.	8dd-J	.	8ffJ	.	8dd-J	.	8dd-J	.
=136	=136	=136	=136	=136	=136	=136	=136	=136	=136	=136	=136	=136	=136	=136	=136	=136	=136
4ee-	.	4CC-	.	4C- 4G- 4c- 4e- 4g- 4cc-	.	4C- 4G- 4c- 4e- 4g- 4cc-	.	4C-	.	8ee-L	.	4gg-	.	4ee-	.	4ee-	.
.	.	.	.	.	.	.	.	.	.	16ffL	.	.	.	.	.	.	.
.	.	.	.	.	.	.	.	.	.	16ee-JJ	.	.	.	.	.	.	.
4gg-	.	4EE-	.	8C-L 8G- 8c- 8e- 8g- 8cc-	.	8C-L 8G- 8c- 8e- 8g- 8cc-	.	4E-	.	4dd-	.	4ff	.	4dd-	.	4dd-	.
.	.	.	.	8C-J 8G- 8c- 8e- 8g- 8cc-	.	8C-J 8G- 8c- 8e- 8g- 8cc-	.	.	.	.	.	.	.	.	.	.	.
4ee-	.	4GG-	.	8C-L 8G- 8c- 8e- 8g- 8cc-	.	8C-L 8G- 8c- 8e- 8g- 8cc-	.	4F	.	4ee-	.	4ee-	.	4cc-	.	4cc-	.
.	.	.	.	8C-J 8G- 8c- 8e- 8g- 8cc-	.	8C-J 8G- 8c- 8e- 8g- 8cc-	.	.	.	.	.	.	.	.	.	.	.
=137	=137	=137	=137	=137	=137	=137	=137	=137	=137	=137	=137	=137	=137	=137	=137	=137	=137
4dd-	.	4GGG-	.	4BB- 4G- 4B- 4d- 4g- 4b-	.	4G- 4d- 4g- 4b-	.	4G-	.	2dd-	.	2gg-	.	2dd-	.	2dd-	.
4gg-	.	4DD-	.	8BB-L 8G- 8B- 8d- 8g- 8b-	.	8G-L 8d- 8g- 8b-	.	4D-	.	.	.	.	.	.	.	.	.
.	.	.	.	8BB-J 8G- 8B- 8d- 8g- 8b-	.	8G-J 8d- 8g- 8b-	.	.	.	.	.	.	.	.	.	.	.
4bb-	.	4BBB-	.	8BB-L 8G- 8B- 8d- 8g- 8b-	.	8G-L 8d- 8g- 8b-	.	4BB-	.	4g-	.	8b-L	.	8g-L	.	8g-L	.
.	.	.	.	8BB-J 8G- 8B- 8d- 8g- 8b-	.	8G-J 8d- 8g- 8b-	.	.	.	.	.	8cc-J	.	8a-J	.	8a-J	.
=138	=138	=138	=138	=138	=138	=138	=138	=138	=138	=138	=138	=138	=138	=138	=138	=138	=138
4aa-	.	2AAA-	.	4A- 4e- 4g- 4cc-	.	4AA- 4E- 4G- 4c- 4e- 4a-	.	4.AA-	.	2.a-	.	4.dd-	.	4.b-	.	4.b-	.
4ee-	.	.	.	8A-L 8e- 8g- 8cc-	.	8AA-L 8E- 8G- 8c- 8e- 8a-	.	.	.	.	.	.	.	.	.	.	.
.	.	.	.	8A-J 8e- 8g- 8cc-	.	8AA-J 8E- 8G- 8c- 8e- 8a-	.	8AA-	.	.	.	8dd-	.	8b-	.	8b-	.
4cc-	.	4EE-	.	8A-L 8e- 8g- 8cc-	.	8AA-L 8E- 8G- 8c- 8e- 8a-	.	4AA-	.	.	.	8cc-L	.	8a-L	.	8a-L	.
.	.	.	.	8A-J 8e- 8g- 8cc-	.	8AA-J 8E- 8G- 8c- 8e- 8a-	.	.	.	.	.	8b-J	.	8g-J	.	8g-J	.
=139	=139	=139	=139	=139	=139	=139	=139	=139	=139	=139	=139	=139	=139	=139	=139	=139	=139
4dd-	.	4.DD-	.	4D- 4F 4A- 4d- 4f 4dd-	.	4D- 4A- 4d- 4f 4a-	.	4.D-	.	2f	.	8cc-	.	8a-	.	8a-	.
.	.	.	.	.	.	.	.	.	.	.	.	4.ff	.	4.dd-	.	4.dd-	.
4ff	.	.	.	8D-L 8F 8A- 8d- 8f 8dd-	.	8D-L 8A- 8d- 8f 8a-	.	.	.	.	.	.	.	.	.	.	.
.	.	8DD-	.	8D-J 8F 8A- 8d- 8f 8dd-	.	8D-J 8A- 8d- 8f 8a-	.	8D-	.	.	.	.	.	.	.	.	.
4aa-	.	4AAA-	.	8D-L 8F 8A- 8d- 8f 8dd-	.	8D-L 8A- 8d- 8f 8a-	.	4AA-	.	8e-L	.	8gg-L	.	8ee-L	.	8ee-L	.
.	.	.	.	8D-J 8F 8A- 8d- 8f 8dd-	.	8D-J 8A- 8d- 8f 8a-	.	.	.	8fJ	.	8aa-J	.	8ffJ	.	8ffJ	.
=140	=140	=140	=140	=140	=140	=140	=140	=140	=140	=140	=140	=140	=140	=140	=140	=140	=140
4bb-	<	4EE-	<	4E- 4B- 4d- 4g- 4b-	<	4E- 4B- 4d- 4g- 4b-	<	4E-	<	8g-L	<	4bb-	<	4gg-	<	4gg-	<
.	.	.	.	.	.	.	.	.	.	16a-L	.	.	.	.	.	.	.
.	.	.	.	.	.	.	.	.	.	16g-JJ	.	.	.	.	.	.	.
4gg-	.	4EE-	.	8E-L 8B- 8d- 8g- 8b-	.	8E-L 8B- 8d- 8g- 8b-	.	8E-L	.	8fL	.	4gg-	.	4ee-	.	4ee-	.
.	.	.	.	8E-J 8B- 8d- 8g- 8b-	.	8E-J 8B- 8d- 8g- 8b-	.	8BB-J	.	16g-L	.	.	.	.	.	.	.
.	.	.	.	.	.	.	.	.	.	16fJJ	.	.	.	.	.	.	.
4dd-	.	4BBB-	.	8E-L 8B- 8d- 8g- 8b-	.	8E-L 8B- 8d- 8g- 8b-	.	4E-	.	4e-	.	8gg-L	.	8ee-L	.	8ee-L	.
.	.	.	.	8E-J 8B- 8d- 8g- 8b-	.	8E-J 8B- 8d- 8g- 8b-	.	.	.	.	.	8bb-J	.	8gg-J	.	8gg-J	.
=141	=141	=141	=141	=141	=141	=141	=141	=141	=141	=141	=141	=141	=141	=141	=141	=141	=141
4a-	.	4DD-	.	4D- 4F 4A- 4d- 4f 4dd-	.	4D- 4A- 4d- 4f 4a-	.	4D-	.	2d-	.	2ddd-	.	2aa-	.	2aa-	.
4dd-	.	4AAA-	.	8D-L 8F 8A- 8d- 8f 8dd-	.	8D-L 8A- 8d- 8f 8a-	.	4AA-	.	.	.	.	.	.	.	.	.
.	.	.	.	8D-J 8F 8A- 8d- 8f 8dd-	.	8D-J 8A- 8d- 8f 8a-	.	.	.	.	.	.	.	.	.	.	.
4ddn	[[	4DDn	[[	8A-L 8dn 8f 8cc-	.	8DnL 8A- 8c- 8f	.	4Dn	[[	4c-	[[	8ddd-L	[ fff	8bb-L	[ fff	8bb-L	[ fff
.	.	.	.	8A-J 8d 8f 8cc-	[[	8DJ 8A- 8c- 8f	[[	.	.	.	.	8ccc-J	.	8aa-J	.	8aa-J	.
=142	=142	=142	=142	=142	=142	=142	=142	=142	=142	=142	=142	=142	=142	=142	=142	=142	=142
4b-	fff	4EE-	fff	4E- 4B- 4d- 4g- 4b-	fff	4E- 4B- 4d- 4g- 4b-	fff	4E-	fff	4g-	fff	4.bb-	.	4.gg-	.	4.gg-	.
4gg-	.	4BBB-	.	8E-L 8B- 8d- 8g- 8b-	.	8E-L 8B- 8d- 8g- 8b-	.	4BB-	.	4e-	.	.	.	.	.	.	.
.	.	.	.	8E-J 8B- 8d- 8g- 8b-	.	8E-J 8B- 8d- 8g- 8b-	.	.	.	.	.	8bb-	.	8gg-	.	8gg-	.
4bb-	.	4EE-	.	8E-L 8B- 8d- 8g- 8b-	.	8E-L 8B- 8d- 8g- 8b-	.	4E-	.	4g-	.	8aa-L	.	8ffL	.	8ffL	.
.	.	.	.	8E-J 8B- 8d- 8g- 8b-	.	8E-J 8B- 8d- 8g- 8b-	.	.	.	.	.	8gg-J	.	8ee-J	.	8ee-J	.
=143	=143	=143	=143	=143	=143	=143	=143	=143	=143	=143	=143	=143	=143	=143	=143	=143	=143
4aa-	.	4BBB-	.	4BB- 4F 4A- 4d- 4f 4b-	.	4BB- 4F 4A- 4d- 4f 4b-	.	4BB-	.	4f	.	2ff	.	2dd-	.	2dd-	.
4ff	.	4FFF	.	8BB-L 8F 8A- 8d- 8f 8b-	.	8BB-L 8F 8A- 8d- 8f 8b-	.	4FF	.	4d-	.	.	.	.	.	.	.
.	.	.	.	8BB-J 8F 8A- 8d- 8f 8b-	.	8BB-J 8F 8A- 8d- 8f 8b-	.	.	.	.	.	.	.	.	.	.	.
4aa-	.	4BBB-	.	8BB-L 8F 8A- 8d- 8f 8b-	.	8BB-L 8F 8A- 8d- 8f 8b-	.	4BB-	.	4f	.	8dd-L	.	8b-L	.	8b-L	.
.	.	.	.	8BB-J 8F 8A- 8d- 8f 8b-	.	8BB-J 8F 8A- 8d- 8f 8b-	.	.	.	.	.	8ffJ	.	8dd-J	.	8dd-J	.
=144	=144	=144	=144	=144	=144	=144	=144	=144	=144	=144	=144	=144	=144	=144	=144	=144	=144
4cc-	.	4CC-	.	4C- 4G- 4c- 4e- 4g- 4cc-	.	4C- 4G- 4c- 4e- 4g- 4cc-	.	4C-	.	4e-	.	4gg-	.	4ee-	.	4ee-	.
4gg-	.	4GGG-	.	8C-L 8G- 8c- 8e- 8g- 8cc-	.	8C-L 8G- 8c- 8e- 8g- 8cc-	.	4GG-	.	4c-	.	4gg-	.	4ee-	.	4ee-	.
.	.	.	.	8C-J 8G- 8c- 8e- 8g- 8cc-	.	8C-J 8G- 8c- 8e- 8g- 8cc-	.	.	.	.	.	.	.	.	.	.	.
4ccc-	.	4CC-	.	8C-L 8G- 8c- 8e- 8g- 8cc-	.	8C-L 8G- 8c- 8e- 8g- 8cc-	.	4C-	.	4e-	.	8ffL	.	8dd-L	.	8dd-L	.
.	.	.	.	8C-J 8G- 8c- 8e- 8g- 8cc-	.	8C-J 8G- 8c- 8e- 8g- 8cc-	.	.	.	.	.	8ee-J	.	8cc-J	.	8cc-J	.
=145	=145	=145	=145	=145	=145	=145	=145	=145	=145	=145	=145	=145	=145	=145	=145	=145	=145
*	*	*	*	*	*	*	*	*	*	*	*	*^	*	*	*	*	*
4bb-	.	8GGG-L	.	4G- 4B- 4d- 4g- 4b-	.	4G- 4d- 4g- 4b-	.	8GG-L	.	12G-L	.	4.gg-	12g-L	.	4.dd-	.	4.dd-	.
.	.	.	.	.	.	.	.	.	.	12B-	.	.	12b-	.	.	.	.	.
.	.	8BBB-J	.	.	.	.	.	8BB-J	.	.	.	.	.	.	.	.	.	.
.	.	.	.	.	.	.	.	.	.	12d-J	.	.	12dd-J	.	.	.	.	.
4gg-	.	4DD-	.	8G-L 8B- 8d- 8g- 8b-	.	8G-L 8d- 8g- 8b-	.	4D-	.	12g-L	.	.	12gg-L	.	.	.	.	.
.	.	.	.	.	.	.	.	.	.	12d-	.	.	12dd-	.	.	.	.	.
.	.	.	.	8G-J 8B- 8d- 8g- 8b-	.	8G-J 8d- 8g- 8b-	.	.	.	.	.	8r	.	.	8r	.	8r	.
.	.	.	.	.	.	.	.	.	.	12B-J	.	.	12b-J	.	.	.	.	.
4dd-	.	8BBB-L	.	8G-L 8B- 8d- 8g- 8b-	.	8G-L 8d- 8g- 8b-	.	8BB-L	.	12G-L	.	8b-L	12g-L	.	8g-L	.	8g-L	.
.	.	.	.	.	.	.	.	.	.	12d-	.	.	12dd-	.	.	.	.	.
.	.	8GGG-J	.	8G-J 8B- 8d- 8g- 8b-	.	8G-J 8d- 8g- 8b-	.	8GG-J	.	.	.	8cc-J	.	.	8a-J	.	8a-J	.
.	.	.	.	.	.	.	.	.	.	12g-J	.	.	12gg-J	.	.	.	.	.
*	*	*	*	*	*	*	*	*	*	*	*	*v	*v	*	*	*	*	*
=146	=146	=146	=146	=146	=146	=146	=146	=146	=146	=146	=146	=146	=146	=146	=146	=146	=146
4e-	.	4.AAA-	.	4A- 4e- 4g- 4cc-	.	4AA- 4E- 4G- 4c- 4e- 4a-	.	4.AA-	.	4a-	.	2dd-	.	2b-	.	2b-	.
4g-	.	.	.	8A-L 8e- 8g- 8cc-	.	8AA-L 8E- 8G- 8c- 8e- 8a-	.	.	.	4g-	.	.	.	.	.	.	.
.	.	8AAA-	.	8A-J 8e- 8g- 8cc-	.	8AA-J 8E- 8G- 8c- 8e- 8a-	.	8AA-	.	.	.	.	.	.	.	.	.
4a-	.	4AAA-	.	8A-L 8e- 8g- 8cc-	.	8AA-L 8E- 8G- 8c- 8e- 8a-	.	4AA-	.	4f	.	8cc-L	.	8a-L	.	8a-L	.
.	.	.	.	8A-J 8e- 8g- 8cc-	.	8AA-J 8E- 8G- 8c- 8e- 8a-	.	.	.	.	.	8b-J	.	8g-J	.	8g-J	.
=147	=147	=147	=147	=147	=147	=147	=147	=147	=147	=147	=147	=147	=147	=147	=147	=147	=147
4f	.	4.BBB-	.	4BB- 4F 4A- 4d- 4f 4b-	.	4BB- 4F 4A- 4d- 4f 4b-	.	4.BB-	.	2d-	.	8cc-	.	8a-	.	8a-	.
.	.	.	.	.	.	.	.	.	.	.	.	4.ff	.	4.dd-	.	4.dd-	.
4a-	.	.	.	8BB-L 8F 8A- 8d- 8f 8b-	.	8BB-L 8F 8A- 8d- 8f 8b-	.	.	.	.	.	.	.	.	.	.	.
.	.	8BBB-	.	8BB-J 8F 8A- 8d- 8f 8b-	.	8BB-J 8F 8A- 8d- 8f 8b-	.	8BB-	.	.	.	.	.	.	.	.	.
4dd-	.	4FFF	.	8BB-L 8F 8A- 8d- 8f 8b-	.	8BB-L 8F 8A- 8d- 8f 8b-	.	4FF	.	4B-	.	8gg-L	.	8ee-L	.	8ee-L	.
.	.	.	.	8BB-J 8F 8A- 8d- 8f 8b-	.	8BB-J 8F 8A- 8d- 8f 8b-	.	.	.	.	.	8aa-J	.	8ffJ	.	8ffJ	.
=148	=148	=148	=148	=148	=148	=148	=148	=148	=148	=148	=148	=148	=148	=148	=148	=148	=148
4cc-	.	4.CC-	.	4C- 4G- 4c- 4e- 4g- 4cc-	.	4C- 4G- 4c- 4e- 4g- 4cc-	.	4.C-	.	2.e-	.	8bb-	.	8gg-	.	8gg-	.
.	.	.	.	.	.	.	.	.	.	.	.	[2gg-	.	[2ee-	.	[2ee-	.
4ee-	.	.	.	8C-L 8G- 8c- 8e- 8g- 8cc-	.	8C-L 8G- 8c- 8e- 8g- 8cc-	.	.	.	.	.	.	.	.	.	.	.
.	.	8CC-	.	8C-J 8G- 8c- 8e- 8g- 8cc-	.	8C-J 8G- 8c- 8e- 8g- 8cc-	.	8C-	.	.	.	.	.	.	.	.	.
4gg-	.	4GGG-	.	8C-L 8G- 8c- 8e- 8g- 8cc-	.	8C-L 8G- 8c- 8e- 8g- 8cc-	.	4GG-	.	.	.	.	.	.	.	.	.
.	.	.	.	8C-J 8G- 8c- 8e- 8g- 8cc-	.	8C-J 8G- 8c- 8e- 8g- 8cc-	.	.	.	.	.	8gg-]	.	8ee-]	.	8ee-]	.
=149	=149	=149	=149	=149	=149	=149	=149	=149	=149	=149	=149	=149	=149	=149	=149	=149	=149
4ee--	.	4.CC-	.	4C- 4G- 4c- 4e-- 4g- 4cc-	.	4C- 4G- 4c- 4e-- 4g- 4cc-	.	4.C-	.	2.dn	.	4r	.	4r	.	4r	.
4gg-	.	.	.	8C-L 8G- 8c- 8e-- 8g- 8cc-	.	8C-L 8G- 8c- 8e-- 8g- 8cc-	.	.	.	.	.	8r	.	8r	.	8r	.
.	.	8CC-	.	8C-J 8G- 8c- 8e-- 8g- 8cc-	.	8C-J 8G- 8c- 8e-- 8g- 8cc-	.	8C-	.	.	.	8b- 8ff	.	8dd-	.	8dd-	.
4ccc-	.	4GGG-	.	8C-L 8G- 8c- 8e-- 8g- 8cc-	.	8C-L 8G- 8c- 8e-- 8g- 8cc-	.	4GG-	.	.	.	8dd-L 8bb-	.	8gg-L	.	8gg-L	.
.	.	.	.	8C-J 8G- 8c- 8e-- 8g- 8cc-	.	8C-J 8G- 8c- 8e-- 8g- 8cc-	.	.	.	.	.	8dd-J 8aa-	.	8ffJ	.	8ffJ	.
=150	=150	=150	=150	=150	=150	=150	=150	=150	=150	=150	=150	=150	=150	=150	=150	=150	=150
2.gg-	.	4.GGG-	.	4G- 4B- 4d- 4g- 4b-	.	4G- 4d- 4g- 4b-	.	4.GG-	.	[2.d-	.	2.dd- 2.bb-	.	2.gg-	.	2.gg-	.
.	.	.	.	8G-L 8B- 8d- 8g- 8b-	.	8G-L 8d- 8g- 8b-	.	.	.	.	.	.	.	.	.	.	.
.	.	8GGG-	.	8G-J 8B- 8d- 8g- 8b-	.	8G-J 8d- 8g- 8b-	.	8GG-	.	.	.	.	.	.	.	.	.
.	.	4DD-	.	4G- 4c- 4d- 4g- 4cc-	.	4G- 4d- 4g- 4cc-	.	4D-	.	.	.	.	.	.	.	.	.
=151	=151	=151	=151	=151	=151	=151	=151	=151	=151	=151	=151	=151	=151	=151	=151	=151	=151
2.r	.	8GGG-L	.	2.G- 2.B- 2.d- 2.g- 2.b-	.	2.G- 2.d- 2.g- 2.b-	.	8GG-L	.	2d-]	.	2.r	mf	2r	.	2.r	.
.	.	8BBB-J	.	.	.	.	.	8BB-J	.	.	.	.	.	.	.	.	.
.	.	8DD-L	.	.	.	.	.	8D-L	.	.	.	.	.	.	.	.	.
.	.	8BBB-J	.	.	.	.	.	8BB-J	.	.	.	.	.	.	.	.	.
.	.	4GGG-	.	.	.	.	.	4GG-	.	4r	.	.	.	8cc-L 8ee-	.	.	.
.	.	.	.	.	.	.	.	.	.	.	.	.	.	8dd-J 8ff	.	.	.
=152	=152	=152	=152	=152	=152	=152	=152	=152	=152	=152	=152	=152	=152	=152	=152	=152	=152
2.r	.	2.CC-	mf	2.C- 2.G- 2.c- 2.e- 2.g- 2.cc-	mf	2.C- 2.G- 2.c- 2.e- 2.g- 2.cc-	mf	2.C-	mf	4g-u 4cc-	mf	4ee-u	.	8cc-L 8gg-	.	2.r	.
.	.	.	.	.	.	.	.	.	.	.	.	.	.	[8cc-J [8ee-	.	.	.
.	.	.	.	.	.	.	.	.	.	2r	.	4gg-u	.	2cc-] 2ee-]	.	.	.
.	.	.	.	.	.	.	.	.	.	.	.	4ccc-u	.	.	.	.	.
=153	=153	=153	=153	=153	=153	=153	=153	=153	=153	=153	=153	=153	=153	=153	=153	=153	=153
2.r	.	2.CC-	.	2.C- 2.G- 2.c- 2.e-- 2.g- 2.cc-	.	2.C- 2.G- 2.c- 2.e-- 2.g- 2.cc-	.	2.C-	.	4g-u 4cc-	.	4ddnu	.	4r	.	2.r	.
.	.	.	.	.	.	.	.	.	.	2r	.	4gg-u	.	8r	.	.	.
.	.	.	.	.	.	.	.	.	.	.	.	.	.	8b- 8dd-	.	.	.
.	.	.	.	.	.	.	.	.	.	.	.	4ccc-u	.	8dd-L 8gg-	.	.	.
.	.	.	.	.	.	.	.	.	.	.	.	.	.	8dd-J 8ff	.	.	.
=154	=154	=154	=154	=154	=154	=154	=154	=154	=154	=154	=154	=154	=154	=154	=154	=154	=154
2.r	.	2.GGG-	.	4G- 4B- 4d- 4g- 4b-	.	4G- 4d- 4g- 4b-	.	2.GG-	.	2g- 2dd-	.	2b-	.	[2.dd- [2.gg-	.	2.r	.
.	.	.	.	8G-L 8B- 8d- 8g- 8b-	.	8G-L 8d- 8g- 8b-	.	.	.	.	.	.	.	.	.	.	.
.	.	.	.	8G-J 8B- 8d- 8g- 8b-	.	8G-J 8d- 8g- 8b-	.	.	.	.	.	.	.	.	.	.	.
.	.	.	.	4G- 4c- 4d- 4g- 4cc-	.	4G- 4d- 4g- 4cc-	.	.	.	4g- 4dd-	.	4cc-	.	.	.	.	.
=155	=155	=155	=155	=155	=155	=155	=155	=155	=155	=155	=155	=155	=155	=155	=155	=155	=155
2.r	.	4GGG-	<	4G- 4B- 4d- 4g- 4b-	< <	4G- 4d- 4g- 4b-	<	2.GG-	<[	2.g- 2.dd-	<[	2.b-	<[	2.dd-] 2.gg-]	<[	2.r	.
.	.	4GGG-	.	4G- 4B- 4d- 4g- 4b-	.	4G- 4d- 4g- 4b-	.	.	.	.	.	.	.	.	.	.	.
.	.	4GGG-	[[	4G- 4B- 4d- 4g- 4b-	[[	4G- 4d- 4g- 4b-	[[	.	.	.	.	.	.	.	.	.	.
=156	=156	=156	=156	=156	=156	=156	=156	=156	=156	=156	=156	=156	=156	=156	=156	=156	=156
4cc-	fff	4CC-	fff	4C- 4G- 4c- 4e- 4g- 4cc-	[ fff	4C- 4E- 4G- 4c- 4e- 4cc-	fff	4c-	fff	4c-	fff	4cc-	fff	4ccc-	fff	2.r	.
4b-	.	4EE-	.	4C- 4G- 4c- 4e- 4g- 4cc-	.	4C- 4E- 4G- 4c- 4e- 4cc-	.	4B-	.	4B-	.	4b-	.	4bb-	.	.	.
4a-	.	4GG-	.	4C- 4G- 4c- 4e- 4g- 4cc-	.	4C- 4E- 4G- 4c- 4e- 4cc-	.	4A-	.	4A-	.	4a-	.	4aa-	.	.	.
=157	=157	=157	=157	=157	=157	=157	=157	=157	=157	=157	=157	=157	=157	=157	=157	=157	=157
2g-	.	4GGG-	.	4G- 4B- 4d- 4g- 4b-	.	4G- 4d- 4g- 4b-	.	2G-	.	2G-	.	2g-	.	2gg-	.	2.r	.
.	.	4DD-	.	4G- 4B- 4d- 4g- 4b-	.	4G- 4d- 4g- 4b-	.	.	.	.	.	.	.	.	.	.	.
4g-	.	4GG-	.	4G- 4B- 4d- 4g- 4b-	.	4G- 4d- 4g- 4b-	.	4G-	.	4G-	.	4g-	.	4gg-	.	.	.
=158	=158	=158	=158	=158	=158	=158	=158	=158	=158	=158	=158	=158	=158	=158	=158	=158	=158
4f	.	4DD-	.	4D- 4F 4A- 4d- 4f 4dd-	.	4D- 4A- 4d- 4f 4a-	.	4F	.	4F	.	4f	.	4ff	.	2.r	.
4g-	.	4AAA-	.	4D- 4F 4A- 4d- 4f 4dd-	.	4D- 4A- 4d- 4f 4a-	.	4G-	.	4G-	.	4g-	.	4gg-	.	.	.
4a-	.	4DD-	.	4D- 4F 4A- 4d- 4f 4dd-	.	4D- 4A- 4d- 4f 4a-	.	4A-	.	4A-	.	4a-	.	4aa-	.	.	.
=159	=159	=159	=159	=159	=159	=159	=159	=159	=159	=159	=159	=159	=159	=159	=159	=159	=159
2g-	.	4EE-	.	4E- 4B- 4e- 4g- 4b-	.	4E- 4B- 4e- 4g- 4b-	.	2G-	.	2G-	.	2g-	.	2gg-	.	2.r	.
.	.	4BBB-	.	4E- 4B- 4e- 4g- 4b-	.	4E- 4B- 4e- 4g- 4b-	.	.	.	.	.	.	.	.	.	.	.
8e-L	.	4GGG-	.	4E- 4B- 4e- 4g- 4b-	.	4E- 4B- 4e- 4g- 4b-	.	8E-L	.	8E-L	.	8e-L	.	8ee-L	.	.	.
8g-J	.	.	.	.	.	.	.	8G-J	.	8G-J	.	8g-J	.	8gg-J	.	.	.
=160	=160	=160	=160	=160	=160	=160	=160	=160	=160	=160	=160	=160	=160	=160	=160	=160	=160
2cc-	.	4CC-	.	4C- 4G- 4c- 4e- 4g- 4cc-	.	4C- 4E- 4G- 4c- 4e- 4cc-	.	2c-	.	2c-	.	2cc-	.	2ccc-	.	2.r	.
.	.	4EE-	.	4C- 4G- 4c- 4e- 4g- 4cc-	.	4C- 4E- 4G- 4c- 4e- 4cc-	.	.	.	.	.	.	.	.	.	.	.
4dd-	.	4GG-	.	4C- 4G- 4c- 4e- 4g- 4cc-	.	4C- 4E- 4G- 4c- 4e- 4cc-	.	4d-	.	4d-	.	4dd-	.	4ddd-	.	.	.
=161	=161	=161	=161	=161	=161	=161	=161	=161	=161	=161	=161	=161	=161	=161	=161	=161	=161
2g-	.	4GGG-	.	4G- 4B- 4d- 4g- 4b-	.	4G- 4d- 4g- 4b-	.	2G-	.	2G-	.	2g-	.	2gg-	.	2.r	.
.	.	4DD-	.	4G- 4B- 4d- 4g- 4b-	.	4G- 4d- 4g- 4b-	.	.	.	.	.	.	.	.	.	.	.
8e-L	.	4GG-	.	4G- 4B- 4d- 4g- 4b-	.	4G- 4d- 4g- 4b-	.	8E-L	.	8E-L	.	8e-L	.	8ee-L	.	.	.
8g-J	.	.	.	.	.	.	.	8G-J	.	8G-J	.	8g-J	.	8gg-J	.	.	.
=162	=162	=162	=162	=162	=162	=162	=162	=162	=162	=162	=162	=162	=162	=162	=162	=162	=162
4dd-	.	4DD-	.	4D- 4F 4A- 4d- 4f 4dd-	.	4D- 4A- 4d- 4f 4a-	.	4d-	.	4d-	.	4dd-	.	4ddd-	.	2.r	.
4cc-	.	4AAA-	.	4D- 4F 4A- 4d- 4f 4dd-	.	4D- 4A- 4d- 4f 4a-	.	4c-	.	4c-	.	4cc-	.	4ccc-	.	.	.
8b-L	.	4DD-	.	4D- 4F 4A- 4d- 4f 4dd-	.	4D- 4A- 4d- 4f 4a-	.	8B-L	.	8B-L	.	8b-L	.	8bb-L	.	.	.
8cc-J	.	.	.	.	.	.	.	8c-J	.	8c-J	.	8cc-J	.	8ccc-J	.	.	.
=163	=163	=163	=163	=163	=163	=163	=163	=163	=163	=163	=163	=163	=163	=163	=163	=163	=163
2b-	.	4EE-	.	4E- 4B- 4e- 4g- 4b-	.	4E- 4B- 4e- 4g- 4b-	.	2B-	.	2B-	.	2b-	.	2bb-	.	2.r	.
.	.	4BBB-	.	4E- 4B- 4e- 4g- 4b-	.	4E- 4B- 4e- 4g- 4b-	.	.	.	.	.	.	.	.	.	.	.
4a-	.	4GGG-	.	4E- 4B- 4e- 4g- 4b-	.	4E- 4B- 4e- 4g- 4b-	.	4A-	.	4A-	.	4a-	.	4aa-	.	.	.
=164	=164	=164	=164	=164	=164	=164	=164	=164	=164	=164	=164	=164	=164	=164	=164	=164	=164
4cc-	.	4CC-	.	4C- 4G- 4c- 4e- 4g- 4cc-	.	4C- 4E- 4G- 4c- 4e- 4cc-	.	4c-	.	4c-	.	4cc-	.	4ccc-	.	2.r	.
4b-	.	4EE-	.	4C- 4G- 4c- 4e- 4g- 4cc-	.	4C- 4E- 4G- 4c- 4e- 4cc-	.	4B-	.	4B-	.	4b-	.	4bb-	.	.	.
4a-	.	4GG-	.	4C- 4G- 4c- 4e- 4g- 4cc-	.	4C- 4E- 4G- 4c- 4e- 4cc-	.	4A-	.	4A-	.	4a-	.	4aa-	.	.	.
=165	=165	=165	=165	=165	=165	=165	=165	=165	=165	=165	=165	=165	=165	=165	=165	=165	=165
2g-	.	4GGG-	.	4G- 4B- 4d- 4g- 4b-	.	4G- 4d- 4g- 4b-	.	2G-	.	2G-	.	2g-	.	2gg-	.	2.r	.
.	.	4DD-	.	4G- 4B- 4d- 4g- 4b-	.	4G- 4d- 4g- 4b-	.	.	.	.	.	.	.	.	.	.	.
4r	.	4GG-	.	4G- 4B- 4d- 4g- 4b-	.	4G- 4d- 4g- 4b-	.	4r	.	4r	.	4r	.	4r	.	.	.
=166	=166	=166	=166	=166	=166	=166	=166	=166	=166	=166	=166	=166	=166	=166	=166	=166	=166
4f	.	4BBB-	.	4BB- 4F 4B- 4dn 4f 4b-	.	4BB- 4F 4B- 4dn 4f 4b-	.	4F	.	4F	.	4f	.	4ff	.	2.r	.
4g-	.	4DDn	.	4BB- 4F 4B- 4d 4f 4b-	.	4BB- 4F 4B- 4d 4f 4b-	.	4G-	.	4G-	.	4g-	.	4gg-	.	.	.
4a-	.	4FF	.	4BB- 4F 4B- 4d 4f 4b-	.	4BB- 4F 4B- 4d 4f 4b-	.	4A-	.	4A-	.	4a-	.	4aa-	.	.	.
=167	=167	=167	=167	=167	=167	=167	=167	=167	=167	=167	=167	=167	=167	=167	=167	=167	=167
4g-	.	4EE-	.	4E- 4B- 4e- 4g- 4b-	.	4E- 4B- 4e- 4g- 4b-	.	4G-	.	4G-	.	4g-	.	4gg-	.	2.r	.
4r	.	4BBB-	.	4E- 4B- 4e- 4g- 4b-	.	4E- 4B- 4e- 4g- 4b-	.	4r	.	4r	.	4r	.	4r	.	.	.
8e-L	.	4GGG-	.	4E- 4B- 4e- 4g- 4b-	.	4E- 4B- 4e- 4g- 4b-	.	8E-L	.	8E-L	.	8e-L	.	8ee-L	.	.	.
8fJ	.	.	.	.	.	.	.	8FJ	.	8FJ	.	8fJ	.	8ffJ	.	.	.
=168	=168	=168	=168	=168	=168	=168	=168	=168	=168	=168	=168	=168	=168	=168	=168	=168	=168
2g-	.	4.CC-	.	4C- 4G- 4c- 4e- 4g- 4cc-	.	4C- 4E- 4G- 4c- 4e- 4cc-	.	2G-	.	2G-	.	2g-	.	2gg-	.	2.r	.
.	.	.	.	4C- 4G- 4c- 4e- 4g- 4cc-	.	4C- 4E- 4G- 4c- 4e- 4cc-	.	.	.	.	.	.	.	.	.	.	.
.	.	8CC-	.	.	.	.	.	.	.	.	.	.	.	.	.	.	.
4r	.	4GGG-	.	4C- 4G- 4c- 4e- 4g- 4cc-	.	4C- 4E- 4G- 4c- 4e- 4cc-	.	4r	.	4r	.	4r	.	4r	.	.	.
=169	=169	=169	=169	=169	=169	=169	=169	=169	=169	=169	=169	=169	=169	=169	=169	=169	=169
4cc-	.	4CC-	.	4C- 4G- 4c- 4e- 4g- 4cc-	.	4C- 4E- 4G- 4c- 4e- 4cc-	.	4c-	.	4c-	.	4cc-	.	4ccc-	.	2.r	.
4b-	.	4GGG-	.	4C- 4G- 4c- 4e- 4g- 4cc-	.	4C- 4E- 4G- 4c- 4e- 4cc-	.	4B-	.	4B-	.	4b-	.	4bb-	.	.	.
8a-L	.	4CC-	.	4C- 4G- 4c- 4e- 4g- 4cc-	.	4C- 4E- 4G- 4c- 4e- 4cc-	.	8A-L	.	8A-L	.	8a-L	.	8aa-L	.	.	.
8g-J	.	.	.	.	.	.	.	8G-J	.	8G-J	.	8g-J	.	8gg-J	.	.	.
=170	=170	=170	=170	=170	=170	=170	=170	=170	=170	=170	=170	=170	=170	=170	=170	=170	=170
2.a-	.	4DD-	.	4D- 4F 4A- 4d- 4f 4dd-	.	4D- 4A- 4d- 4f 4a-	.	2.A-	.	2.A-	.	2.a-	.	2.aa-	.	2.r	.
.	.	4AAA-	.	4D- 4F 4A- 4d- 4f 4dd-	.	4D- 4A- 4d- 4f 4a-	.	.	.	.	.	.	.	.	.	.	.
.	.	4DD-	.	4D- 4F 4A- 4d- 4f 4dd-	.	4D- 4A- 4d- 4f 4a-	.	.	.	.	.	.	.	.	.	.	.
=171	=171	=171	=171	=171	=171	=171	=171	=171	=171	=171	=171	=171	=171	=171	=171	=171	=171
2r	.	4BBB-	.	4BB- 4F 4B- 4dn 4f 4b-	.	4BB- 4F 4B- 4dn 4f 4b-	.	2.r	.	2r	.	2.r	.	2r	.	2.r	.
.	.	4DDn	.	4BB- 4F 4B- 4d 4f 4b-	.	4BB- 4F 4B- 4d 4f 4b-	.	.	.	.	.	.	.	.	.	.	.
8ee-L	.	4FF	.	4BB- 4F 4B- 4d 4f 4b-	.	4BB- 4F 4B- 4d 4f 4b-	.	.	.	8e-L	.	.	.	8ee-L	.	.	.
8ffJ	.	.	.	.	.	.	.	.	.	8fJ	.	.	.	8ffJ	.	.	.
=172	=172	=172	=172	=172	=172	=172	=172	=172	=172	=172	=172	=172	=172	=172	=172	=172	=172
4gg-	.	4.EE-	.	4E- 4B- 4d- 4g- 4b-	.	4E- 4B- 4d- 4g- 4b-	.	4E-	.	4g-	.	2.gg-	.	4gg-	.	2.r	.
8r	.	.	.	8E-L 8B- 8d- 8g- 8b-	.	8E-L 8B- 8d- 8g- 8b-	.	4BB-	.	8r	.	.	.	8r	.	.	.
8gg-	.	8EE-	.	8E-J 8B- 8d- 8g- 8b-	.	8E-J 8B- 8d- 8g- 8b-	.	.	.	8g-	.	.	.	8gg-	.	.	.
8ffL	.	8BBB-L	.	8E-L 8B- 8d- 8g- 8b-	.	8E-L 8B- 8d- 8g- 8b-	.	4E-	.	8fL	.	.	.	8ffL	.	.	.
8ee-J	.	8EE-J	.	8E-J 8B- 8d- 8g- 8b-	.	8E-J 8B- 8d- 8g- 8b-	.	.	.	8e-J	.	.	.	8ee-J	.	.	.
=173	=173	=173	=173	=173	=173	=173	=173	=173	=173	=173	=173	=173	=173	=173	=173	=173	=173
2dd-	.	4BBB-	.	4BB- 4F 4A- 4d- 4f 4b-	.	4BB- 4F 4A- 4d- 4f 4b-	.	4BB-	.	2d-	.	2.ff	.	2dd-	.	2.r	.
.	.	4DD-	.	8BB-L 8F 8A- 8d- 8f 8b-	.	8BB-L 8F 8A- 8d- 8f 8b-	.	4FF	.	.	.	.	.	.	.	.	.
.	.	.	.	8BB-J 8F 8A- 8d- 8f 8b-	.	8BB-J 8F 8A- 8d- 8f 8b-	.	.	.	.	.	.	.	.	.	.	.
8b-L	.	4FF	.	8BB-L 8F 8A- 8d- 8f 8b-	.	8BB-L 8F 8A- 8d- 8f 8b-	.	4BB-	.	8B-L	.	.	.	8b-L	.	.	.
8dd-J	.	.	.	8BB-J 8F 8A- 8d- 8f 8b-	.	8BB-J 8F 8A- 8d- 8f 8b-	.	.	.	8d-J	.	.	.	8dd-J	.	.	.
=174	=174	=174	=174	=174	=174	=174	=174	=174	=174	=174	=174	=174	=174	=174	=174	=174	=174
4ee-	.	4CC-	.	4C- 4G- 4c- 4e- 4g- 4cc-	.	4C- 4G- 4c- 4e- 4g- 4cc-	.	4C-	.	4e-	.	2.ee-	.	4ee-	.	2.r	.
4dd-	.	4EE-	.	8C-L 8G- 8c- 8e- 8g- 8cc-	.	8C-L 8G- 8c- 8e- 8g- 8cc-	.	4E-	.	4d-	.	.	.	4dd-	.	.	.
.	.	.	.	8C-J 8G- 8c- 8e- 8g- 8cc-	.	8C-J 8G- 8c- 8e- 8g- 8cc-	.	.	.	.	.	.	.	.	.	.	.
4cc-	.	4GG-	.	8C-L 8G- 8c- 8e- 8g- 8cc-	.	8C-L 8G- 8c- 8e- 8g- 8cc-	.	4C-	.	4c-	.	.	.	4cc-	.	.	.
.	.	.	.	8C-J 8G- 8c- 8e- 8g- 8cc-	.	8C-J 8G- 8c- 8e- 8g- 8cc-	.	.	.	.	.	.	.	.	.	.	.
=175	=175	=175	=175	=175	=175	=175	=175	=175	=175	=175	=175	=175	=175	=175	=175	=175	=175
4dd-	.	4BBB-	.	4G- 4B- 4d- 4g- 4b-	.	4G- 4d- 4g- 4b-	.	4BB-	.	4d-	.	2.dd-	.	4dd-	.	2.r	.
4r	.	4DD-	.	8G-L 8B- 8d- 8g- 8b-	.	8G-L 8d- 8g- 8b-	.	4D-	.	4r	.	.	.	4r	.	.	.
.	.	.	.	8G-J 8B- 8d- 8g- 8b-	.	8G-J 8d- 8g- 8b-	.	.	.	.	.	.	.	.	.	.	.
8g-L	.	4FF	.	8G-L 8B- 8d- 8g- 8b-	.	8G-L 8d- 8g- 8b-	.	4G-	.	8G-L	.	.	.	8g-L	.	.	.
8a-J	.	.	.	8G-J 8B- 8d- 8g- 8b-	.	8G-J 8d- 8g- 8b-	.	.	.	8A-J	.	.	.	8a-J	.	.	.
=176	=176	=176	=176	=176	=176	=176	=176	=176	=176	=176	=176	=176	=176	=176	=176	=176	=176
4b-	.	4AAA-	.	4A- 4e- 4g- 4cc-	.	4AA- 4E- 4G- 4c- 4e- 4a-	.	4AA-	.	4B-	.	2.cc-	.	4b-	.	2.r	.
8r	.	4AAA-	.	8A-L 8e- 8g- 8cc-	.	8AA-L 8E- 8G- 8c- 8e- 8a-	.	4EE-	.	8r	.	.	.	8r	.	.	.
8b-	.	.	.	8A-J 8e- 8g- 8cc-	.	8AA-J 8E- 8G- 8c- 8e- 8a-	.	.	.	8B-	.	.	.	8b-	.	.	.
8a-L	.	4AAA-	.	8A-L 8e- 8g- 8cc-	.	8AA-L 8E- 8G- 8c- 8e- 8a-	.	4AA-	.	8A-L	.	.	.	8a-L	.	.	.
8g-J	.	.	.	8A-J 8e- 8g- 8cc-	.	8AA-J 8E- 8G- 8c- 8e- 8a-	.	.	.	8G-J	.	.	.	8g-J	.	.	.
=177	=177	=177	=177	=177	=177	=177	=177	=177	=177	=177	=177	=177	=177	=177	=177	=177	=177
8a-L	.	4.BBB-	.	4BB- 4F 4A- 4d- 4f 4b-	.	4BB- 4F 4A- 4d- 4f 4b-	.	4BB-	.	8A-L	.	2.dd-	.	8a-L	.	2.r	.
[8dd-J	.	.	.	.	.	.	.	.	.	[8d-J	.	.	.	[8dd-J	.	.	.
4dd-]	.	.	.	8BB-L 8F 8A- 8d- 8f 8b-	.	8BB-L 8F 8A- 8d- 8f 8b-	.	4FF	.	4d-]	.	.	.	4dd-]	.	.	.
.	.	8BBB-	.	8BB-J 8F 8A- 8d- 8f 8b-	.	8BB-J 8F 8A- 8d- 8f 8b-	.	.	.	.	.	.	.	.	.	.	.
8ee-L	.	4FFF	.	8BB-L 8F 8A- 8d- 8f 8b-	.	8BB-L 8F 8A- 8d- 8f 8b-	.	4BB-	.	8e-L	.	.	.	8ee-L	.	.	.
8ffJ	.	.	.	8BB-J 8F 8A- 8d- 8f 8b-	.	8BB-J 8F 8A- 8d- 8f 8b-	.	.	.	8fJ	.	.	.	8ffJ	.	.	.
=178	=178	=178	=178	=178	=178	=178	=178	=178	=178	=178	=178	=178	=178	=178	=178	=178	=178
8gg-L	.	4CC-	.	4C- 4G- 4c- 4e- 4g- 4cc-	.	4C- 4G- 4c- 4e- 4g- 4cc-	.	4C-	.	8g-L	.	2.ee-	.	8gg-L	.	2.r	.
[8ee-J	.	.	.	.	.	.	.	.	.	[8e-J	.	.	.	[8ee-J	.	.	.
2ee-_	.	4GGG-	.	8C-L 8G- 8c- 8e- 8g- 8cc-	.	8C-L 8G- 8c- 8e- 8g- 8cc-	.	4GG-	.	2e-_	.	.	.	2ee-_	.	.	.
.	.	.	.	8C-J 8G- 8c- 8e- 8g- 8cc-	.	8C-J 8G- 8c- 8e- 8g- 8cc-	.	.	.	.	.	.	.	.	.	.	.
.	.	4CC-	.	8C-L 8G- 8c- 8e- 8g- 8cc-	.	8C-L 8G- 8c- 8e- 8g- 8cc-	.	4C-	.	.	.	.	.	.	.	.	.
.	.	.	.	8C-J 8G- 8c- 8e- 8g- 8cc-	.	8C-J 8G- 8c- 8e- 8g- 8cc-	.	.	.	.	.	.	.	.	.	.	.
=179	=179	=179	=179	=179	=179	=179	=179	=179	=179	=179	=179	=179	=179	=179	=179	=179	=179
4ee-]	.	4CC-	.	4C- 4G- 4c- 4e-- 4g- 4cc-	.	4C- 4G- 4c- 4e-- 4g- 4cc-	.	4C-	.	4e-]	.	2.ddn	.	4ee-]	.	2.r	.
8r	.	4DDn	.	8C-L 8G- 8c- 8e-- 8g- 8cc-	.	8C-L 8G- 8c- 8e-- 8g- 8cc-	.	4GG-	.	8r	.	.	.	8r	.	.	.
8ddn	.	.	.	8C-J 8G- 8c- 8e-- 8g- 8cc-	.	8C-J 8G- 8c- 8e-- 8g- 8cc-	.	.	.	8dn	.	.	.	8ddn	.	.	.
8gg-L	.	4GG-	.	8C-L 8G- 8c- 8e-- 8g- 8cc-	.	8C-L 8G- 8c- 8e-- 8g- 8cc-	.	4C-	.	8g-L	.	.	.	8gg-L	.	.	.
8ffJ	.	.	.	8C-J 8G- 8c- 8e-- 8g- 8cc-	.	8C-J 8G- 8c- 8e-- 8g- 8cc-	.	.	.	8fJ	.	.	.	8ffJ	.	.	.
=180	=180	=180	=180	=180	=180	=180	=180	=180	=180	=180	=180	=180	=180	=180	=180	=180	=180
[2.gg-	.	4GGG-	.	4G- 4B- 4d- 4g- 4b-	.	4G- 4d- 4g- 4b-	.	2B-	.	[2.g-	.	[2.gg-	.	[2.gg-	.	2.r	.
.	.	4BBB-	.	8G-L 8B- 8d- 8g- 8b-	.	8G-L 8d- 8g- 8b-	.	.	.	.	.	.	.	.	.	.	.
.	.	.	.	8G-J 8B- 8d- 8g- 8b-	.	8G-J 8d- 8g- 8b-	.	.	.	.	.	.	.	.	.	.	.
.	.	4DD-	.	4G- 4c- 4d- 4g- 4cc-	.	4G- 4d- 4g- 4cc-	.	4c-	.	.	.	.	.	.	.	.	.
=181	=181	=181	=181	=181	=181	=181	=181	=181	=181	=181	=181	=181	=181	=181	=181	=181	=181
2gg-]	.	4GGG-	.	4G- 4B- 4d- 4g- 4b-	.	4G- 4d- 4g- 4b-	.	2B-	.	2g-]	.	2gg-]	.	2gg-]	.	2.r	.
.	.	4BBB-	.	4G- 4B- 4d- 4g- 4b-	.	4G- 4d- 4g- 4b-	.	.	.	.	.	.	.	.	.	.	.
4r	.	4DD-	.	4G- 4B- 4d- 4g- 4b-	.	4G- 4d- 4g- 4b-	.	4r	.	4r	.	4r	.	4r	.	.	.
=182	=182	=182	=182	=182	=182	=182	=182	=182	=182	=182	=182	=182	=182	=182	=182	=182	=182
2.g-; 2.b- 2.dd-	.	2.GGG-;	.	2.G-;: 2.B-: 2.d-: 2.g-: 2.b-:	.	2.G-;: 2.d-: 2.g-: 2.b-:	.	2.GG-;: 2.D-: 2.B-:	.	2.G-;: 2.d-: 2.b-:	.	2.g-;: 2.dd-: 2.bb-:	.	2.g-;: 2.dd-: 2.bb-:	.	2.r	.
==	==	==	==	==	==	==	==	==	==	==	==	==	==	==	==	==	==
*-	*-	*-	*-	*-	*-	*-	*-	*-	*-	*-	*-	*-	*-	*-	*-	*-	*-
